Vibe/Lumetri/LUTs/Technical/AlexaV3_K1S1_LogC2Video_Rec709_EE.cube
# Alexa conversion LUT, logc2video, itu709. Full in/full out.
# created by alexalutconv (2.05)
LUT_3D_SIZE 6
0.000000 0.000000 0.000000
0.145963 0.000000 0.001433
0.497664 0.000000 0.016426
0.928073 0.000000 0.071151
1.000000 0.000000 0.106585
1.000000 0.000000 0.111052
0.000000 0.133262 0.000000
0.119443 0.131022 0.000000
0.492481 0.104864 0.000200
0.926058 0.000000 0.056209
1.000000 0.000000 0.096194
1.000000 0.000000 0.101070
0.000000 0.466578 0.000000
0.000000 0.466103 0.000000
0.432756 0.461094 0.000000
0.904562 0.441658 0.000000
1.000000 0.423399 0.000000
1.000000 0.420563 0.000000
0.000000 0.874487 0.000000
0.000000 0.874302 0.000000
0.000000 0.872357 0.000000
0.816185 0.865034 0.000000
1.000000 0.858477 0.000000
1.000000 0.857486 0.000000
0.000000 1.000000 0.000000
0.000000 1.000000 0.000000
0.000000 1.000000 0.000000
0.723425 1.000000 0.000000
1.000000 1.000000 0.000000
1.000000 1.000000 0.000000
0.000000 1.000000 0.000000
0.000000 1.000000 0.000000
0.000000 1.000000 0.000000
0.707860 1.000000 0.000000
0.999397 1.000000 0.000000
1.000000 1.000000 0.000000
0.000000 0.000000 0.121439
0.140839 0.000000 0.122214
0.496588 0.000000 0.130054
0.927652 0.000000 0.155874
1.000000 0.000000 0.175421
1.000000 0.000000 0.178152
0.000000 0.115719 0.112312
0.113146 0.113146 0.113146
0.491390 0.082120 0.121548
0.925637 0.000000 0.148871
1.000000 0.000000 0.169289
1.000000 0.000000 0.172127
0.000000 0.463055 0.000000
0.000000 0.462575 0.000000
0.431442 0.457510 0.000000
0.904125 0.437846 0.034212
1.000000 0.419351 0.080347
1.000000 0.416476 0.085968
0.000000 0.873116 0.000000
0.000000 0.872929 0.000000
0.000000 0.870980 0.000000
0.815673 0.863639 0.000000
1.000000 0.857065 0.000000
1.000000 0.856071 0.000000
0.000000 1.000000 0.000000
0.000000 1.000000 0.000000
0.000000 1.000000 0.000000
0.722808 1.000000 0.000000
1.000000 1.000000 0.000000
1.000000 1.000000 0.000000
0.000000 1.000000 0.000000
0.000000 1.000000 0.000000
0.000000 1.000000 0.000000
0.707222 1.000000 0.000000
0.999023 1.000000 0.000000
1.000000 1.000000 0.000000
0.000000 0.000000 0.437641
0.068837 0.000000 0.437807
0.485124 0.000000 0.439538
0.923239 0.000000 0.445920
1.000000 0.000000 0.451459
1.000000 0.000000 0.452281
0.000000 0.000000 0.435756
0.016396 0.000000 0.435923
0.479745 0.000000 0.437664
0.921209 0.000000 0.444084
1.000000 0.000000 0.449655
1.000000 0.000000 0.450483
0.000000 0.423642 0.415301
0.000000 0.423097 0.415479
0.417342 0.417342 0.417342
0.899531 0.394788 0.424198
1.000000 0.373239 0.430134
1.000000 0.369856 0.431016
0.000000 0.858561 0.322323
0.000000 0.858370 0.322575
0.000000 0.856370 0.325200
0.810277 0.848831 0.334761
1.000000 0.842077 0.342922
1.000000 0.841056 0.344124
0.000000 1.000000 0.190645
0.000000 1.000000 0.191128
0.000000 1.000000 0.196099
0.716304 1.000000 0.213492
1.000000 1.000000 0.227585
1.000000 1.000000 0.229610
0.000000 1.000000 0.159400
0.000000 1.000000 0.159988
0.000000 1.000000 0.166011
0.700497 1.000000 0.186644
0.995097 1.000000 0.202948
1.000000 1.000000 0.205265
0.000000 0.000000 0.824606
0.000000 0.000000 0.824671
0.438393 0.000000 0.825349
0.906455 0.000000 0.827876
1.000000 0.000000 0.830100
1.000000 0.000000 0.830433
0.000000 0.000000 0.823871
0.000000 0.000000 0.823936
0.432166 0.000000 0.824615
0.904366 0.000000 0.827145
1.000000 0.000000 0.829372
1.000000 0.000000 0.829706
0.000000 0.179445 0.816118
0.000000 0.177816 0.816184
0.357599 0.159665 0.816873
0.882035 0.053992 0.819440
1.000000 0.000000 0.821699
1.000000 0.000000 0.822038
0.000000 0.800474 0.786096
0.000000 0.800262 0.786166
0.000000 0.798032 0.786896
0.789614 0.789614 0.789614
1.000000 0.782053 0.792006
1.000000 0.780910 0.792364
0.000000 1.000000 0.757996
0.000000 1.000000 0.758070
0.000000 1.000000 0.758842
0.691175 1.000000 0.761715
0.989709 1.000000 0.764242
1.000000 1.000000 0.764620
0.000000 1.000000 0.753640
0.000000 1.000000 0.753715
0.000000 1.000000 0.754493
0.674463 1.000000 0.757392
0.980208 1.000000 0.759941
1.000000 1.000000 0.760322
0.000000 0.000000 1.000000
0.000000 0.000000 1.000000
0.390235 0.000000 1.000000
0.891198 0.000000 1.000000
1.000000 0.000000 1.000000
1.000000 0.000000 1.000000
0.000000 0.000000 1.000000
0.000000 0.000000 1.000000
0.382888 0.000000 1.000000
0.889052 0.000000 1.000000
1.000000 0.000000 1.000000
1.000000 0.000000 1.000000
0.000000 0.000000 1.000000
0.000000 0.000000 1.000000
0.290305 0.000000 1.000000
0.866100 0.000000 1.000000
1.000000 0.000000 1.000000
1.000000 0.000000 1.000000
0.000000 0.743074 0.991537
0.000000 0.742836 0.991586
0.000000 0.740335 0.992095
0.770622 0.730877 0.993994
1.000000 0.722355 0.995668
1.000000 0.721062 0.995918
0.000000 0.989594 0.972186
0.000000 0.989441 0.972236
0.000000 0.987839 0.972761
0.667739 0.981818 0.974719
0.976445 0.976445 0.976445
1.000000 0.975635 0.976704
0.000000 1.000000 0.969230
0.000000 1.000000 0.969280
0.000000 1.000000 0.969808
0.650105 1.000000 0.971775
0.966739 1.000000 0.973509
1.000000 1.000000 0.973770
0.000000 0.000000 1.000000
0.000000 0.000000 1.000000
0.382268 0.000000 1.000000
0.888874 0.000000 1.000000
1.000000 0.000000 1.000000
1.000000 0.000000 1.000000
0.000000 0.000000 1.000000
0.000000 0.000000 1.000000
0.374703 0.000000 1.000000
0.886719 0.000000 1.000000
1.000000 0.000000 1.000000
1.000000 0.000000 1.000000
0.000000 0.000000 1.000000
0.000000 0.000000 1.000000
0.278314 0.000000 1.000000
0.863670 0.000000 1.000000
1.000000 0.000000 1.000000
1.000000 0.000000 1.000000
0.000000 0.733859 1.000000
0.000000 0.733617 1.000000
0.000000 0.731067 1.000000
0.767710 0.721423 1.000000
1.000000 0.712727 1.000000
1.000000 0.711409 1.000000
0.000000 0.983710 0.998481
0.000000 0.983556 0.998529
0.000000 0.981939 0.999033
0.664114 0.975861 1.000000
0.974430 0.970436 1.000000
1.000000 0.969618 1.000000
0.000000 1.000000 0.995647
0.000000 1.000000 0.995696
0.000000 1.000000 0.996202
0.646330 1.000000 0.998088
0.964693 1.000000 0.999751
1.000000 1.000000 1.000000
