Vibe/Lumetri/LUTs/Technical/ALEXA_Default_LogC2Rec709.cube
# Alexa conversion LUT, logc2video, itu709. Full in/full out.
# created by alexalutconv (2.09)
LUT_3D_SIZE 5
DOMAIN_MIN 0.000000 0.000000 0.000000
DOMAIN_MAX 0.903226 0.903226 0.903226
0.000000 0.000000 0.000000
0.161439 0.000000 0.001695
0.610442 0.000000 0.026366
1.000000 0.000000 0.091722
1.000000 0.000000 0.109557
0.000000 0.147929 0.000000
0.133231 0.145546 0.000000
0.605906 0.104956 0.007167
1.000000 0.000000 0.077400
1.000000 0.000000 0.097487
0.000000 0.573461 0.000000
0.000000 0.573045 0.000000
0.533224 0.566937 0.000000
1.000000 0.548313 0.000000
1.000000 0.540988 0.000000
0.000000 0.993337 0.000000
0.000000 0.993157 0.000000
0.000000 0.990534 0.000000
0.927903 0.982727 0.000000
1.000000 0.979735 0.000000
0.000000 1.000000 0.000000
0.000000 1.000000 0.000000
0.000000 1.000000 0.000000
0.887713 1.000000 0.000000
1.000000 1.000000 0.000000
0.000000 0.000000 0.135354
0.155989 0.000000 0.136178
0.609499 0.000000 0.147644
1.000000 0.000000 0.177014
1.000000 0.000000 0.186860
0.000000 0.129270 0.125645
0.126532 0.126532 0.126532
0.604953 0.077492 0.138805
1.000000 0.000000 0.169807
1.000000 0.000000 0.180094
0.000000 0.570376 0.000000
0.000000 0.569956 0.000000
0.532073 0.563799 0.000000
1.000000 0.545016 0.000000
1.000000 0.537625 0.003184
0.000000 0.992007 0.000000
0.000000 0.991827 0.000000
0.000000 0.989199 0.000000
0.927405 0.981376 0.000000
1.000000 0.978377 0.000000
0.000000 1.000000 0.000000
0.000000 1.000000 0.000000
0.000000 1.000000 0.000000
0.887181 1.000000 0.000000
1.000000 1.000000 0.000000
0.000000 0.000000 0.539036
0.028646 0.000000 0.539182
0.595524 0.000000 0.541293
1.000000 0.000000 0.547456
1.000000 0.000000 0.549772
0.000000 0.000000 0.537384
0.000000 0.000000 0.537531
0.590817 0.000000 0.539651
1.000000 0.000000 0.545841
1.000000 0.000000 0.548167
0.000000 0.522382 0.512459
0.000000 0.521905 0.512616
0.514887 0.514887 0.514887
1.000000 0.493311 0.521510
1.000000 0.484747 0.523994
0.000000 0.972337 0.426045
0.000000 0.972151 0.426250
0.000000 0.969438 0.429201
0.920124 0.961360 0.437752
1.000000 0.958263 0.440940
0.000000 1.000000 0.385717
0.000000 1.000000 0.385951
0.000000 1.000000 0.389336
0.879372 1.000000 0.399100
1.000000 1.000000 0.402724
0.000000 0.000000 0.937353
0.000000 0.000000 0.937417
0.551123 0.000000 0.938332
1.000000 0.000000 0.941023
1.000000 0.000000 0.942043
0.000000 0.000000 0.936641
0.000000 0.000000 0.936704
0.545840 0.000000 0.937620
1.000000 0.000000 0.940315
1.000000 0.000000 0.941336
0.000000 0.317246 0.926173
0.000000 0.316290 0.926237
0.458533 0.301916 0.927168
0.996975 0.253163 0.929911
1.000000 0.231167 0.930950
0.000000 0.910270 0.894133
0.000000 0.910064 0.894200
0.000000 0.907055 0.895185
0.898082 0.898082 0.898082
1.000000 0.894635 0.899178
0.000000 1.000000 0.881478
0.000000 1.000000 0.881547
0.000000 1.000000 0.882554
0.855665 1.000000 0.885515
0.999379 1.000000 0.886636
0.000000 0.000000 1.000000
0.000000 0.000000 1.000000
0.532796 0.000000 1.000000
1.000000 0.000000 1.000000
1.000000 0.000000 1.000000
0.000000 0.000000 1.000000
0.000000 0.000000 1.000000
0.527241 0.000000 1.000000
1.000000 0.000000 1.000000
1.000000 0.000000 1.000000
0.000000 0.149438 1.000000
0.000000 0.147080 1.000000
0.434300 0.107052 1.000000
0.989684 0.000000 1.000000
1.000000 0.000000 1.000000
0.000000 0.884866 0.998415
0.000000 0.884651 0.998472
0.000000 0.881506 0.999300
0.889481 0.872119 1.000000
1.000000 0.868511 1.000000
0.000000 1.000000 0.987794
0.000000 1.000000 0.987852
0.000000 1.000000 0.988694
0.846386 0.995050 0.991176
0.992116 0.992116 0.992116
