Vibe/Lumetri/LUTs/Technical/AlexaV3_K1S1_LogC2Video_DCIP3_EE.cube
# Alexa conversion LUT, logc2video, p3. Full in/full out.
# created by alexalutconv (2.05)
LUT_3D_SIZE 16
0.000000 0.000000 0.000000
0.047501 0.000727 0.001172
0.099037 0.001699 0.002740
0.158273 0.003569 0.005754
0.238816 0.007805 0.012585
0.358416 0.018817 0.030343
0.497396 0.040907 0.065425
0.633573 0.073113 0.105073
0.764259 0.105561 0.143123
0.887321 0.136115 0.178952
0.985991 0.160613 0.207680
1.000000 0.175435 0.225061
1.000000 0.183179 0.234142
1.000000 0.186375 0.237889
1.000000 0.187510 0.239220
1.000000 0.189057 0.241034
0.000000 0.044847 0.000000
0.040386 0.045573 0.000000
0.094428 0.046545 0.001417
0.155495 0.048415 0.004431
0.237177 0.052651 0.011262
0.357507 0.063339 0.029020
0.496855 0.081641 0.064232
0.633212 0.104448 0.104278
0.763998 0.129558 0.142548
0.887120 0.155175 0.178510
0.985824 0.176679 0.207314
1.000000 0.190005 0.224732
1.000000 0.197045 0.233830
1.000000 0.199964 0.237584
1.000000 0.201002 0.238918
1.000000 0.202420 0.240734
0.000000 0.095031 0.000000
0.030876 0.095508 0.000000
0.087926 0.096144 0.000000
0.151689 0.097354 0.002663
0.234962 0.100048 0.009493
0.356286 0.106746 0.027251
0.496130 0.119069 0.062609
0.632728 0.135805 0.103205
0.763648 0.155641 0.141775
0.886851 0.177041 0.177917
0.985602 0.195703 0.206824
1.000000 0.207522 0.224291
1.000000 0.213833 0.233412
1.000000 0.216463 0.237175
1.000000 0.217400 0.238512
1.000000 0.218681 0.240333
0.000000 0.153142 0.000000
0.012580 0.153433 0.000000
0.074069 0.153822 0.000000
0.144043 0.154567 0.000000
0.230618 0.156239 0.006090
0.353920 0.160491 0.023849
0.494730 0.168641 0.059401
0.631796 0.180335 0.101112
0.762974 0.195010 0.140275
0.886333 0.211687 0.176770
0.985173 0.226829 0.205876
1.000000 0.236667 0.223440
1.000000 0.241992 0.232605
1.000000 0.244223 0.236386
1.000000 0.245021 0.237728
1.000000 0.246112 0.239557
0.000000 0.232157 0.000000
0.000000 0.232330 0.000000
0.034634 0.232561 0.000000
0.124787 0.233005 0.000000
0.220347 0.234006 0.000000
0.348466 0.236584 0.016140
0.491536 0.241640 0.051761
0.629676 0.249155 0.096209
0.761443 0.258991 0.136809
0.885158 0.270671 0.174137
0.984200 0.281700 0.203708
1.000000 0.289061 0.221495
1.000000 0.293106 0.230764
1.000000 0.294814 0.234584
1.000000 0.295426 0.235940
1.000000 0.296265 0.237788
0.000000 0.349487 0.000000
0.000000 0.349582 0.000000
0.000000 0.349712 0.000000
0.049034 0.349959 0.000000
0.190150 0.350518 0.000000
0.333650 0.351966 0.000000
0.483067 0.354845 0.031719
0.624104 0.359208 0.082245
0.757438 0.365072 0.127314
0.882089 0.372251 0.167055
0.981663 0.379237 0.197928
1.000000 0.384009 0.216330
1.000000 0.386666 0.225880
1.000000 0.387794 0.229809
1.000000 0.388201 0.231203
1.000000 0.388757 0.233103
0.000000 0.485828 0.000000
0.000000 0.485885 0.000000
0.000000 0.485962 0.000000
0.000000 0.486110 0.000000
0.098157 0.486444 0.000000
0.300530 0.487310 0.000000
0.465314 0.489041 0.000000
0.612668 0.491687 0.046357
0.749291 0.495283 0.105589
0.875877 0.499747 0.151649
0.976538 0.504156 0.185633
1.000000 0.507203 0.205447
1.000000 0.508912 0.215633
1.000000 0.509642 0.219808
1.000000 0.509904 0.221286
1.000000 0.510265 0.223300
0.000000 0.619421 0.000000
0.000000 0.619459 0.000000
0.000000 0.619510 0.000000
0.000000 0.619609 0.000000
0.000000 0.619832 0.000000
0.235677 0.620412 0.000000
0.435633 0.621573 0.000000
0.594322 0.623352 0.000000
0.736438 0.625781 0.059692
0.866157 0.628816 0.123650
0.968553 0.631832 0.164441
1.000000 0.633927 0.187070
1.000000 0.635107 0.198477
1.000000 0.635611 0.203116
1.000000 0.635792 0.204754
1.000000 0.636041 0.206980
0.000000 0.747626 0.000000
0.000000 0.747653 0.000000
0.000000 0.747690 0.000000
0.000000 0.747762 0.000000
0.000000 0.747924 0.000000
0.039345 0.748343 0.000000
0.388719 0.749185 0.000000
0.567459 0.750478 0.000000
0.718128 0.752246 0.000000
0.852486 0.754461 0.068587
0.957391 0.756669 0.128607
1.000000 0.758207 0.157404
1.000000 0.759074 0.171277
1.000000 0.759445 0.176825
1.000000 0.759578 0.178772
1.000000 0.759762 0.181408
0.000000 0.868351 0.000000
0.000000 0.868372 0.000000
0.000000 0.868401 0.000000
0.000000 0.868456 0.000000
0.000000 0.868580 0.000000
0.000000 0.868903 0.000000
0.313143 0.869551 0.000000
0.530303 0.870546 0.000000
0.693871 0.871910 0.000000
0.834711 0.873620 0.000000
0.943004 0.875328 0.057530
1.000000 0.876519 0.106949
1.000000 0.877191 0.127137
1.000000 0.877479 0.134824
1.000000 0.877582 0.137479
1.000000 0.877725 0.141042
0.000000 0.965148 0.000000
0.000000 0.965165 0.000000
0.000000 0.965189 0.000000
0.000000 0.965234 0.000000
0.000000 0.965338 0.000000
0.000000 0.965605 0.000000
0.191858 0.966142 0.000000
0.488182 0.966967 0.000000
0.668008 0.968099 0.000000
0.816206 0.969519 0.000000
0.928185 0.970937 0.000000
0.994119 0.971928 0.016801
1.000000 0.972486 0.054348
1.000000 0.972726 0.069342
1.000000 0.972812 0.074185
1.000000 0.972931 0.080459
0.000000 1.000000 0.000000
0.000000 1.000000 0.000000
0.000000 1.000000 0.000000
0.000000 1.000000 0.000000
0.000000 1.000000 0.000000
0.000000 1.000000 0.000000
0.000000 1.000000 0.000000
0.454777 1.000000 0.000000
0.648843 1.000000 0.000000
0.802810 1.000000 0.000000
0.917564 1.000000 0.000000
0.984742 1.000000 0.000000
1.000000 1.000000 0.000000
1.000000 1.000000 0.000000
1.000000 1.000000 0.001263
1.000000 1.000000 0.009232
0.000000 1.000000 0.000000
0.000000 1.000000 0.000000
0.000000 1.000000 0.000000
0.000000 1.000000 0.000000
0.000000 1.000000 0.000000
0.000000 1.000000 0.000000
0.000000 1.000000 0.000000
0.434006 1.000000 0.000000
0.637568 1.000000 0.000000
0.795060 1.000000 0.000000
0.911461 1.000000 0.000000
0.979369 1.000000 0.000000
1.000000 1.000000 0.000000
1.000000 1.000000 0.000000
1.000000 1.000000 0.000000
1.000000 1.000000 0.000000
0.000000 1.000000 0.000000
0.000000 1.000000 0.000000
0.000000 1.000000 0.000000
0.000000 1.000000 0.000000
0.000000 1.000000 0.000000
0.000000 1.000000 0.000000
0.000000 1.000000 0.000000
0.424606 1.000000 0.000000
0.632633 1.000000 0.000000
0.791701 1.000000 0.000000
0.908825 1.000000 0.000000
0.977052 1.000000 0.000000
1.000000 1.000000 0.000000
1.000000 1.000000 0.000000
1.000000 1.000000 0.000000
1.000000 1.000000 0.000000
0.000000 1.000000 0.000000
0.000000 1.000000 0.000000
0.000000 1.000000 0.000000
0.000000 1.000000 0.000000
0.000000 1.000000 0.000000
0.000000 1.000000 0.000000
0.000000 1.000000 0.000000
0.421137 1.000000 0.000000
0.630839 1.000000 0.000000
0.790483 1.000000 0.000000
0.907871 1.000000 0.000000
0.976215 1.000000 0.000000
1.000000 1.000000 0.000000
1.000000 1.000000 0.000000
1.000000 1.000000 0.000000
1.000000 1.000000 0.000000
0.000000 1.000000 0.000000
0.000000 1.000000 0.000000
0.000000 1.000000 0.000000
0.000000 1.000000 0.000000
0.000000 1.000000 0.000000
0.000000 1.000000 0.000000
0.000000 1.000000 0.000000
0.416292 1.000000 0.000000
0.628357 1.000000 0.000000
0.788804 1.000000 0.000000
0.906557 1.000000 0.000000
0.975061 1.000000 0.000000
1.000000 1.000000 0.000000
1.000000 1.000000 0.000000
1.000000 1.000000 0.000000
1.000000 1.000000 0.000000
0.000000 0.000000 0.036787
0.043751 0.000000 0.037959
0.096633 0.000000 0.039527
0.156816 0.000000 0.042542
0.237954 0.000000 0.049372
0.357937 0.009880 0.066465
0.497111 0.031970 0.093672
0.633383 0.065438 0.125187
0.764122 0.100096 0.158170
0.887215 0.131947 0.190734
0.985903 0.157175 0.217533
1.000000 0.172349 0.233963
1.000000 0.180255 0.242600
1.000000 0.183514 0.246173
1.000000 0.184671 0.247443
1.000000 0.186247 0.249176
0.000000 0.035909 0.035464
0.036636 0.036636 0.036636
0.091914 0.037609 0.038204
0.154008 0.039478 0.041219
0.236307 0.043714 0.048049
0.357026 0.054727 0.065284
0.496569 0.074666 0.092786
0.633021 0.098924 0.124521
0.763859 0.125155 0.157657
0.887014 0.151593 0.190326
0.985736 0.173620 0.217188
1.000000 0.187213 0.233651
1.000000 0.194380 0.242302
1.000000 0.197350 0.245882
1.000000 0.198407 0.247154
1.000000 0.199847 0.248889
0.000000 0.088970 0.033696
0.027126 0.089477 0.034868
0.085243 0.090151 0.036435
0.150159 0.091433 0.039450
0.234080 0.094282 0.046281
0.355803 0.101343 0.063682
0.495844 0.114244 0.091588
0.632537 0.131627 0.123625
0.763510 0.152072 0.156969
0.886745 0.173990 0.189778
0.985514 0.193016 0.216727
1.000000 0.205032 0.233232
1.000000 0.211440 0.241904
1.000000 0.214108 0.245491
1.000000 0.215059 0.246767
1.000000 0.216358 0.248506
0.000000 0.149504 0.030293
0.008830 0.149804 0.031465
0.070961 0.150203 0.033032
0.142419 0.150969 0.036047
0.229714 0.152686 0.042877
0.353431 0.157050 0.060513
0.494443 0.165401 0.089244
0.631605 0.177353 0.121883
0.762835 0.192310 0.155635
0.886227 0.209261 0.188721
0.985085 0.224618 0.215836
1.000000 0.234580 0.232425
1.000000 0.239967 0.241135
1.000000 0.242225 0.244739
1.000000 0.243031 0.246019
1.000000 0.244134 0.247765
0.000000 0.230014 0.022584
0.000000 0.230189 0.023756
0.030883 0.230423 0.025324
0.122885 0.230873 0.028338
0.219386 0.231886 0.035169
0.347967 0.234495 0.052927
0.491245 0.239612 0.083722
0.629483 0.247211 0.117836
0.761304 0.257149 0.152563
0.885051 0.268941 0.186295
0.984112 0.280065 0.213799
1.000000 0.287487 0.230581
1.000000 0.291563 0.239382
1.000000 0.293284 0.243021
1.000000 0.293900 0.244314
1.000000 0.294746 0.246076
0.000000 0.348298 0.002542
0.000000 0.348395 0.003715
0.000000 0.348525 0.005282
0.045284 0.348774 0.008297
0.188987 0.349336 0.015127
0.333117 0.350792 0.032885
0.482769 0.353685 0.067676
0.623910 0.358070 0.106586
0.757298 0.363961 0.144221
0.881982 0.371173 0.179798
0.981575 0.378190 0.208381
1.000000 0.382981 0.225692
1.000000 0.385649 0.234740
1.000000 0.386783 0.238475
1.000000 0.387190 0.239801
1.000000 0.387749 0.241609
0.000000 0.485121 0.000000
0.000000 0.485179 0.000000
0.000000 0.485256 0.000000
0.000000 0.485404 0.000000
0.095733 0.485739 0.000000
0.299908 0.486607 0.000000
0.464997 0.488342 0.028304
0.612467 0.490994 0.079657
0.749148 0.494597 0.125619
0.875769 0.499073 0.165811
0.976449 0.503491 0.196921
1.000000 0.506545 0.215433
1.000000 0.508258 0.225033
1.000000 0.508989 0.228982
1.000000 0.509252 0.230383
1.000000 0.509613 0.232292
0.000000 0.618949 0.000000
0.000000 0.618987 0.000000
0.000000 0.619038 0.000000
0.000000 0.619137 0.000000
0.000000 0.619361 0.000000
0.234800 0.619941 0.000000
0.435279 0.621103 0.000000
0.594110 0.622885 0.021252
0.736291 0.625317 0.089456
0.866047 0.628356 0.141034
0.968462 0.631376 0.177410
1.000000 0.633473 0.198254
1.000000 0.634655 0.208894
1.000000 0.635159 0.213243
1.000000 0.635341 0.214782
1.000000 0.635590 0.216874
0.000000 0.747284 0.000000
0.000000 0.747312 0.000000
0.000000 0.747349 0.000000
0.000000 0.747420 0.000000
0.000000 0.747582 0.000000
0.035595 0.748003 0.000000
0.388297 0.748845 0.000000
0.567230 0.750138 0.000000
0.717974 0.751908 0.011568
0.852372 0.754125 0.096040
0.957298 0.756334 0.145349
1.000000 0.757873 0.171010
1.000000 0.758741 0.183667
1.000000 0.759112 0.188770
1.000000 0.759246 0.190567
1.000000 0.759429 0.193005
0.000000 0.868088 0.000000
0.000000 0.868110 0.000000
0.000000 0.868138 0.000000
0.000000 0.868193 0.000000
0.000000 0.868318 0.000000
0.000000 0.868641 0.000000
0.312557 0.869289 0.000000
0.530047 0.870285 0.000000
0.693707 0.871649 0.000000
0.834593 0.873361 0.000000
0.942909 0.875069 0.087893
1.000000 0.876261 0.126762
1.000000 0.876934 0.144066
1.000000 0.877221 0.150809
1.000000 0.877325 0.153156
1.000000 0.877467 0.156317
0.000000 0.964930 0.000000
0.000000 0.964948 0.000000
0.000000 0.964972 0.000000
0.000000 0.965017 0.000000
0.000000 0.965120 0.000000
0.000000 0.965388 0.000000
0.190707 0.965925 0.000000
0.487888 0.966750 0.000000
0.667833 0.967882 0.000000
0.816083 0.969302 0.000000
0.928088 0.970722 0.000000
0.994033 0.971713 0.053589
1.000000 0.972272 0.085610
1.000000 0.972512 0.096610
1.000000 0.972598 0.100302
1.000000 0.972716 0.105179
0.000000 1.000000 0.000000
0.000000 1.000000 0.000000
0.000000 1.000000 0.000000
0.000000 1.000000 0.000000
0.000000 1.000000 0.000000
0.000000 1.000000 0.000000
0.000000 1.000000 0.000000
0.454447 1.000000 0.000000
0.648660 1.000000 0.000000
0.802684 1.000000 0.000000
0.917464 1.000000 0.000000
0.984654 1.000000 0.000000
1.000000 1.000000 0.016174
1.000000 1.000000 0.032256
1.000000 1.000000 0.038050
1.000000 1.000000 0.046019
0.000000 1.000000 0.000000
0.000000 1.000000 0.000000
0.000000 1.000000 0.000000
0.000000 1.000000 0.000000
0.000000 1.000000 0.000000
0.000000 1.000000 0.000000
0.000000 1.000000 0.000000
0.433651 1.000000 0.000000
0.637379 1.000000 0.000000
0.794932 1.000000 0.000000
0.911360 1.000000 0.000000
0.979280 1.000000 0.000000
1.000000 1.000000 0.000000
1.000000 1.000000 0.000000
1.000000 1.000000 0.000000
1.000000 1.000000 0.003644
0.000000 1.000000 0.000000
0.000000 1.000000 0.000000
0.000000 1.000000 0.000000
0.000000 1.000000 0.000000
0.000000 1.000000 0.000000
0.000000 1.000000 0.000000
0.000000 1.000000 0.000000
0.424239 1.000000 0.000000
0.632442 1.000000 0.000000
0.791571 1.000000 0.000000
0.908723 1.000000 0.000000
0.976963 1.000000 0.000000
1.000000 1.000000 0.000000
1.000000 1.000000 0.000000
1.000000 1.000000 0.000000
1.000000 1.000000 0.000000
0.000000 1.000000 0.000000
0.000000 1.000000 0.000000
0.000000 1.000000 0.000000
0.000000 1.000000 0.000000
0.000000 1.000000 0.000000
0.000000 1.000000 0.000000
0.000000 1.000000 0.000000
0.420764 1.000000 0.000000
0.630647 1.000000 0.000000
0.790353 1.000000 0.000000
0.907769 1.000000 0.000000
0.976125 1.000000 0.000000
1.000000 1.000000 0.000000
1.000000 1.000000 0.000000
1.000000 1.000000 0.000000
1.000000 1.000000 0.000000
0.000000 1.000000 0.000000
0.000000 1.000000 0.000000
0.000000 1.000000 0.000000
0.000000 1.000000 0.000000
0.000000 1.000000 0.000000
0.000000 1.000000 0.000000
0.000000 1.000000 0.000000
0.415911 1.000000 0.000000
0.628164 1.000000 0.000000
0.788674 1.000000 0.000000
0.906455 1.000000 0.000000
0.974971 1.000000 0.000000
1.000000 1.000000 0.000000
1.000000 1.000000 0.000000
1.000000 1.000000 0.000000
1.000000 1.000000 0.000000
0.000000 0.000000 0.081802
0.038737 0.000000 0.082679
0.093330 0.000000 0.083839
0.154843 0.000000 0.086033
0.236795 0.000000 0.090831
0.357296 0.000000 0.102348
0.496729 0.020023 0.122313
0.633128 0.054030 0.147663
0.763937 0.092317 0.175986
0.887073 0.126144 0.205179
0.985786 0.152439 0.229849
1.000000 0.168116 0.245192
1.000000 0.176252 0.253312
1.000000 0.179601 0.256682
1.000000 0.180789 0.257881
1.000000 0.182407 0.259518
0.000000 0.023962 0.080803
0.031623 0.024688 0.081688
0.088453 0.025660 0.082860
0.151993 0.027530 0.085076
0.235137 0.031766 0.089920
0.356382 0.042778 0.101532
0.496187 0.064438 0.121630
0.632766 0.091055 0.147108
0.763675 0.119001 0.175535
0.886872 0.146647 0.204807
0.985619 0.169425 0.229529
1.000000 0.183398 0.244899
1.000000 0.190745 0.253031
1.000000 0.193786 0.256407
1.000000 0.194866 0.257607
1.000000 0.196341 0.259247
0.000000 0.080248 0.079450
0.022112 0.080802 0.080348
0.081537 0.081537 0.081537
0.148083 0.082935 0.083782
0.232895 0.086032 0.088688
0.355156 0.093660 0.100432
0.495460 0.107455 0.120712
0.632282 0.125808 0.146362
0.763325 0.147145 0.174930
0.886602 0.169806 0.204310
0.985396 0.189347 0.229101
1.000000 0.201640 0.244507
1.000000 0.208183 0.252656
1.000000 0.210906 0.256039
1.000000 0.211876 0.257242
1.000000 0.213200 0.258884
0.000000 0.144477 0.076793
0.003816 0.144788 0.077717
0.066632 0.145204 0.078938
0.140214 0.145999 0.081244
0.228498 0.147783 0.086274
0.352777 0.152309 0.098282
0.494057 0.160948 0.118926
0.631349 0.173267 0.144915
0.762650 0.188624 0.173758
0.886084 0.205960 0.203347
0.984967 0.221615 0.228273
1.000000 0.231750 0.243749
1.000000 0.237224 0.251933
1.000000 0.239517 0.255328
1.000000 0.240335 0.256536
1.000000 0.241456 0.258185
0.000000 0.227107 0.070480
0.000000 0.227284 0.071468
0.025870 0.227523 0.072773
0.120291 0.227980 0.075233
0.218093 0.229011 0.080578
0.347297 0.231663 0.093241
0.490856 0.236863 0.114771
0.629226 0.244578 0.141576
0.761119 0.254657 0.171069
0.884909 0.266603 0.201143
0.983994 0.277859 0.226383
1.000000 0.285363 0.242022
1.000000 0.289482 0.250283
1.000000 0.291221 0.253708
1.000000 0.291843 0.254927
1.000000 0.292697 0.256590
0.000000 0.346701 0.051722
0.000000 0.346799 0.052894
0.000000 0.346930 0.054462
0.040271 0.347180 0.057465
0.187417 0.347747 0.063927
0.332401 0.349212 0.078824
0.482368 0.352125 0.103190
0.623648 0.356539 0.132455
0.757111 0.362468 0.163825
0.881839 0.369725 0.195265
0.981456 0.376782 0.221369
1.000000 0.381601 0.237450
1.000000 0.384283 0.245921
1.000000 0.385424 0.249429
1.000000 0.385834 0.250677
1.000000 0.386395 0.252379
0.000000 0.484174 0.011520
0.000000 0.484232 0.012693
0.000000 0.484309 0.014260
0.000000 0.484458 0.017275
0.092400 0.484793 0.024105
0.299072 0.485665 0.041863
0.464571 0.487405 0.075205
0.612197 0.490065 0.111765
0.748957 0.493679 0.148024
0.875623 0.498168 0.182744
0.976329 0.502600 0.210831
1.000000 0.505662 0.227899
1.000000 0.507380 0.236835
1.000000 0.508113 0.240525
1.000000 0.508377 0.241837
1.000000 0.508739 0.243624
0.000000 0.618317 0.000000
0.000000 0.618355 0.000000
0.000000 0.618407 0.000000
0.000000 0.618506 0.000000
0.000000 0.618729 0.000000
0.233619 0.619311 0.000000
0.434807 0.620475 0.015592
0.593826 0.622260 0.069344
0.736095 0.624697 0.119087
0.865898 0.627741 0.161083
0.968341 0.630765 0.193115
1.000000 0.632867 0.212052
1.000000 0.634049 0.221844
1.000000 0.634554 0.225868
1.000000 0.634736 0.227295
1.000000 0.634987 0.229238
0.000000 0.746827 0.000000
0.000000 0.746855 0.000000
0.000000 0.746892 0.000000
0.000000 0.746964 0.000000
0.000000 0.747126 0.000000
0.030582 0.747547 0.000000
0.387730 0.748390 0.000000
0.566922 0.749684 0.000000
0.717769 0.751456 0.060619
0.852220 0.753675 0.124144
0.957174 0.755887 0.164801
1.000000 0.757428 0.187376
1.000000 0.758296 0.198762
1.000000 0.758667 0.203392
1.000000 0.758802 0.205028
1.000000 0.758985 0.207250
0.000000 0.867738 0.000000
0.000000 0.867759 0.000000
0.000000 0.867788 0.000000
0.000000 0.867842 0.000000
0.000000 0.867967 0.000000
0.000000 0.868290 0.000000
0.311770 0.868939 0.000000
0.529703 0.869935 0.000000
0.693490 0.871300 0.000000
0.834435 0.873013 0.048560
0.942782 0.874723 0.117902
1.000000 0.875915 0.148979
1.000000 0.876588 0.163692
1.000000 0.876876 0.169539
1.000000 0.876980 0.171588
1.000000 0.877123 0.174358
0.000000 0.964639 0.000000
0.000000 0.964657 0.000000
0.000000 0.964681 0.000000
0.000000 0.964726 0.000000
0.000000 0.964829 0.000000
0.000000 0.965098 0.000000
0.189155 0.965635 0.000000
0.487495 0.966460 0.000000
0.667601 0.967593 0.000000
0.815919 0.969014 0.000000
0.927957 0.970435 0.036350
0.993917 0.971426 0.093684
1.000000 0.971985 0.116182
1.000000 0.972224 0.124586
1.000000 0.972311 0.127473
1.000000 0.972430 0.131332
0.000000 1.000000 0.000000
0.000000 1.000000 0.000000
0.000000 1.000000 0.000000
0.000000 1.000000 0.000000
0.000000 1.000000 0.000000
0.000000 1.000000 0.000000
0.000000 1.000000 0.000000
0.454006 1.000000 0.000000
0.648415 1.000000 0.000000
0.802514 1.000000 0.000000
0.917330 1.000000 0.000000
0.984536 1.000000 0.027808
1.000000 1.000000 0.064877
1.000000 1.000000 0.078335
1.000000 1.000000 0.082747
1.000000 1.000000 0.088505
0.000000 1.000000 0.000000
0.000000 1.000000 0.000000
0.000000 1.000000 0.000000
0.000000 1.000000 0.000000
0.000000 1.000000 0.000000
0.000000 1.000000 0.000000
0.000000 1.000000 0.000000
0.433175 1.000000 0.000000
0.637127 1.000000 0.000000
0.794760 1.000000 0.000000
0.911225 1.000000 0.000000
0.979162 1.000000 0.000000
1.000000 1.000000 0.022979
1.000000 1.000000 0.039061
1.000000 1.000000 0.044856
1.000000 1.000000 0.052824
0.000000 1.000000 0.000000
0.000000 1.000000 0.000000
0.000000 1.000000 0.000000
0.000000 1.000000 0.000000
0.000000 1.000000 0.000000
0.000000 1.000000 0.000000
0.000000 1.000000 0.000000
0.423746 1.000000 0.000000
0.632187 1.000000 0.000000
0.791397 1.000000 0.000000
0.908587 1.000000 0.000000
0.976843 1.000000 0.000000
1.000000 1.000000 0.004830
1.000000 1.000000 0.020911
1.000000 1.000000 0.026706
1.000000 1.000000 0.034675
0.000000 1.000000 0.000000
0.000000 1.000000 0.000000
0.000000 1.000000 0.000000
0.000000 1.000000 0.000000
0.000000 1.000000 0.000000
0.000000 1.000000 0.000000
0.000000 1.000000 0.000000
0.420265 1.000000 0.000000
0.630390 1.000000 0.000000
0.790180 1.000000 0.000000
0.907634 1.000000 0.000000
0.976006 1.000000 0.000000
1.000000 1.000000 0.000000
1.000000 1.000000 0.014371
1.000000 1.000000 0.020167
1.000000 1.000000 0.028135
0.000000 1.000000 0.000000
0.000000 1.000000 0.000000
0.000000 1.000000 0.000000
0.000000 1.000000 0.000000
0.000000 1.000000 0.000000
0.000000 1.000000 0.000000
0.000000 1.000000 0.000000
0.415404 1.000000 0.000000
0.627906 1.000000 0.000000
0.788500 1.000000 0.000000
0.906319 1.000000 0.000000
0.974852 1.000000 0.000000
1.000000 1.000000 0.000000
1.000000 1.000000 0.005378
1.000000 1.000000 0.011173
1.000000 1.000000 0.019142
0.000000 0.000000 0.136199
0.029093 0.000000 0.136735
0.086660 0.000000 0.137448
0.150964 0.000000 0.138809
0.234543 0.000000 0.141836
0.356056 0.000000 0.149388
0.495993 0.000000 0.163345
0.632638 0.031046 0.182409
0.763582 0.075418 0.205133
0.886801 0.114108 0.229767
0.985559 0.142816 0.251322
1.000000 0.159591 0.265002
1.000000 0.168224 0.272315
1.000000 0.171763 0.275364
1.000000 0.173017 0.276451
1.000000 0.174723 0.277936
0.000000 0.000977 0.135592
0.021978 0.001704 0.136131
0.081436 0.002676 0.136846
0.148028 0.004545 0.138214
0.232863 0.008781 0.141255
0.355138 0.019794 0.148841
0.495450 0.041884 0.162851
0.632275 0.073915 0.181978
0.763320 0.106141 0.204761
0.886599 0.136562 0.229447
0.985393 0.160983 0.251039
1.000000 0.175768 0.264739
1.000000 0.183495 0.272062
1.000000 0.186684 0.275115
1.000000 0.187817 0.276203
1.000000 0.189360 0.277690
0.000000 0.060793 0.134775
0.012468 0.061478 0.135317
0.073978 0.062384 0.136038
0.143995 0.064103 0.137413
0.230591 0.067876 0.140474
0.353905 0.077011 0.148104
0.494722 0.093061 0.162188
0.631790 0.113734 0.181400
0.762970 0.137100 0.204263
0.886330 0.161388 0.229018
0.985170 0.182027 0.250660
1.000000 0.194902 0.264387
1.000000 0.201726 0.271723
1.000000 0.204561 0.274782
1.000000 0.205569 0.275872
1.000000 0.206946 0.277361
0.000000 0.134209 0.133187
0.000000 0.134548 0.133736
0.057658 0.134998 0.134467
0.135860 0.135860 0.135860
0.226133 0.137791 0.138959
0.351514 0.142676 0.146677
0.493316 0.151947 0.160905
0.630856 0.165062 0.180279
0.762295 0.181267 0.203300
0.885811 0.199409 0.228190
0.984741 0.215682 0.249928
1.000000 0.226170 0.263708
1.000000 0.231821 0.271070
1.000000 0.234186 0.274138
1.000000 0.235030 0.275232
1.000000 0.236184 0.276726
0.000000 0.221368 0.129513
0.000000 0.221553 0.130079
0.016226 0.221799 0.130832
0.115133 0.222272 0.132266
0.215575 0.223339 0.135456
0.346003 0.226081 0.143384
0.490106 0.231450 0.157952
0.628730 0.239401 0.177710
0.760762 0.249767 0.201096
0.884635 0.262022 0.226299
0.983767 0.273544 0.248259
1.000000 0.281211 0.262160
1.000000 0.285416 0.269582
1.000000 0.287191 0.272674
1.000000 0.287826 0.273776
1.000000 0.288696 0.275281
0.000000 0.343598 0.119398
0.000000 0.343696 0.120014
0.000000 0.343829 0.120833
0.030626 0.344082 0.122393
0.184349 0.344656 0.125850
0.331019 0.346142 0.134399
0.481597 0.349093 0.149956
0.623145 0.353565 0.170808
0.756750 0.359569 0.195216
0.881563 0.366913 0.221283
0.981228 0.374052 0.243847
1.000000 0.378924 0.258075
1.000000 0.381636 0.265657
1.000000 0.382788 0.268813
1.000000 0.383202 0.269937
1.000000 0.383770 0.271472
0.000000 0.482343 0.095902
0.000000 0.482402 0.096665
0.000000 0.482479 0.097676
0.000000 0.482628 0.099594
0.085666 0.482966 0.103815
0.297455 0.483843 0.114080
0.463751 0.485594 0.132250
0.611677 0.488270 0.155843
0.748590 0.491906 0.182690
0.875345 0.496420 0.210737
0.976100 0.500877 0.234651
1.000000 0.503957 0.249597
1.000000 0.505685 0.257527
1.000000 0.506421 0.260822
1.000000 0.506686 0.261994
1.000000 0.507050 0.263596
0.000000 0.617098 0.044238
0.000000 0.617137 0.045410
0.000000 0.617189 0.046977
0.000000 0.617288 0.049993
