Vibe/Lumetri/LUTs/Technical/AlexaV3_K1S1_LogC2Video_Rec709_EE.cube
# Alexa conversion LUT, logc2video, itu709. Full in/full out.
# created by alexalutconv (2.05)
LUT_3D_SIZE 16
0.000000 0.000000 0.000000
0.040229 0.000000 0.000292
0.088035 0.000000 0.000682
0.145963 0.000000 0.001433
0.226780 0.000000 0.003134
0.350208 0.000000 0.007555
0.497664 0.000000 0.016426
0.645509 0.000000 0.030082
0.789997 0.000000 0.048834
0.928073 0.000000 0.071151
1.000000 0.000000 0.089518
1.000000 0.000000 0.100713
1.000000 0.000000 0.106585
1.000000 0.000000 0.109013
1.000000 0.000000 0.109876
1.000000 0.000000 0.111052
0.000000 0.034753 0.000000
0.029360 0.033840 0.000000
0.079878 0.032618 0.000000
0.140967 0.030268 0.000000
0.223765 0.024944 0.000000
0.348488 0.011102 0.004250
0.496615 0.000000 0.013120
0.644794 0.000000 0.026776
0.789472 0.000000 0.045529
0.927662 0.000000 0.068294
1.000000 0.000000 0.087137
1.000000 0.000000 0.098564
1.000000 0.000000 0.104543
1.000000 0.000000 0.107013
1.000000 0.000000 0.107890
1.000000 0.000000 0.109086
0.000000 0.078363 0.000000
0.014830 0.077636 0.000000
0.067839 0.076656 0.000000
0.133992 0.074744 0.000000
0.219657 0.070271 0.000000
0.346173 0.057553 0.000000
0.495206 0.029797 0.008701
0.643836 0.000000 0.022357
0.788768 0.000000 0.041110
0.927114 0.000000 0.064335
1.000000 0.000000 0.083868
1.000000 0.000000 0.095624
1.000000 0.000000 0.101755
1.000000 0.000000 0.104284
1.000000 0.000000 0.105182
1.000000 0.000000 0.106405
0.000000 0.133262 0.000000
0.000000 0.132808 0.000000
0.040658 0.132200 0.000000
0.119443 0.131022 0.000000
0.211484 0.128312 0.000000
0.341658 0.120990 0.000000
0.492481 0.104864 0.000200
0.641988 0.074498 0.013856
0.787411 0.017728 0.032609
0.926058 0.000000 0.056209
1.000000 0.000000 0.077277
1.000000 0.000000 0.089742
1.000000 0.000000 0.096194
1.000000 0.000000 0.098848
1.000000 0.000000 0.099789
1.000000 0.000000 0.101070
0.000000 0.209854 0.000000
0.000000 0.209578 0.000000
0.000000 0.209208 0.000000
0.078028 0.208495 0.000000
0.191439 0.206868 0.000000
0.331122 0.202567 0.000000
0.486226 0.193602 0.000000
0.637771 0.178786 0.000000
0.784323 0.155877 0.013351
0.923659 0.120660 0.036950
1.000000 0.071058 0.060491
1.000000 0.020552 0.075075
1.000000 0.000000 0.082453
1.000000 0.000000 0.085460
1.000000 0.000000 0.086522
1.000000 0.000000 0.087966
0.000000 0.326830 0.000000
0.000000 0.326672 0.000000
0.000000 0.326460 0.000000
0.000000 0.326053 0.000000
0.122933 0.325128 0.000000
0.301395 0.322706 0.000000
0.469398 0.317773 0.000000
0.626605 0.309976 0.000000
0.776207 0.298828 0.000000
0.917374 0.283980 0.000000
1.000000 0.268029 0.010524
1.000000 0.256114 0.027063
1.000000 0.249060 0.036412
1.000000 0.245961 0.040417
1.000000 0.244832 0.041860
1.000000 0.243270 0.043844
0.000000 0.466578 0.000000
0.000000 0.466481 0.000000
0.000000 0.466352 0.000000
0.000000 0.466103 0.000000
0.000000 0.465539 0.000000
0.226173 0.464067 0.000000
0.432756 0.461094 0.000000
0.603266 0.456463 0.000000
0.759521 0.449993 0.000000
0.904562 0.441658 0.000000
1.000000 0.433077 0.000000
1.000000 0.426930 0.000000
1.000000 0.423399 0.000000
1.000000 0.421874 0.000000
1.000000 0.421322 0.000000
1.000000 0.420563 0.000000
0.000000 0.606695 0.000000
0.000000 0.606629 0.000000
0.000000 0.606541 0.000000
0.000000 0.606371 0.000000
0.000000 0.605987 0.000000
0.000000 0.604986 0.000000
0.365865 0.602970 0.000000
0.564464 0.599847 0.000000
0.732681 0.595519 0.000000
0.884267 0.590006 0.000000
1.000000 0.584404 0.000000
1.000000 0.580437 0.000000
1.000000 0.578178 0.000000
1.000000 0.577205 0.000000
1.000000 0.576855 0.000000
1.000000 0.576371 0.000000
0.000000 0.743630 0.000000
0.000000 0.743582 0.000000
0.000000 0.743517 0.000000
0.000000 0.743392 0.000000
0.000000 0.743110 0.000000
0.000000 0.742374 0.000000
0.230462 0.740894 0.000000
0.503743 0.738608 0.000000
0.693181 0.735450 0.000000
0.855155 0.731447 0.000000
0.980042 0.727403 0.000000
1.000000 0.724554 0.000000
1.000000 0.722935 0.000000
1.000000 0.722240 0.000000
1.000000 0.721990 0.000000
1.000000 0.721645 0.000000
0.000000 0.874487 0.000000
0.000000 0.874449 0.000000
0.000000 0.874399 0.000000
0.000000 0.874302 0.000000
0.000000 0.874081 0.000000
0.000000 0.873508 0.000000
0.000000 0.872357 0.000000
0.407810 0.870581 0.000000
0.638042 0.868131 0.000000
0.816185 0.865034 0.000000
0.948864 0.861913 0.000000
1.000000 0.859720 0.000000
1.000000 0.858477 0.000000
1.000000 0.857942 0.000000
1.000000 0.857750 0.000000
1.000000 0.857486 0.000000
0.000000 0.980600 0.000000
0.000000 0.980569 0.000000
0.000000 0.980526 0.000000
0.000000 0.980445 0.000000
0.000000 0.980260 0.000000
0.000000 0.979782 0.000000
0.000000 0.978820 0.000000
0.261085 0.977336 0.000000
0.574527 0.975292 0.000000
0.774030 0.972711 0.000000
0.915930 0.970114 0.000000
0.997790 0.968291 0.000000
1.000000 0.967258 0.000000
1.000000 0.966815 0.000000
1.000000 0.966655 0.000000
1.000000 0.966436 0.000000
0.000000 1.000000 0.000000
0.000000 1.000000 0.000000
0.000000 1.000000 0.000000
0.000000 1.000000 0.000000
0.000000 1.000000 0.000000
0.000000 1.000000 0.000000
0.000000 1.000000 0.000000
0.000000 1.000000 0.000000
0.523050 1.000000 0.000000
0.742310 1.000000 0.000000
0.891747 1.000000 0.000000
0.976726 1.000000 0.000000
1.000000 1.000000 0.000000
1.000000 1.000000 0.000000
1.000000 1.000000 0.000000
1.000000 1.000000 0.000000
0.000000 1.000000 0.000000
0.000000 1.000000 0.000000
0.000000 1.000000 0.000000
0.000000 1.000000 0.000000
0.000000 1.000000 0.000000
0.000000 1.000000 0.000000
0.000000 1.000000 0.000000
0.000000 1.000000 0.000000
0.490359 1.000000 0.000000
0.723425 1.000000 0.000000
0.877612 1.000000 0.000000
0.964496 1.000000 0.000000
1.000000 1.000000 0.000000
1.000000 1.000000 0.000000
1.000000 1.000000 0.000000
1.000000 1.000000 0.000000
0.000000 1.000000 0.000000
0.000000 1.000000 0.000000
0.000000 1.000000 0.000000
0.000000 1.000000 0.000000
0.000000 1.000000 0.000000
0.000000 1.000000 0.000000
0.000000 1.000000 0.000000
0.000000 1.000000 0.000000
0.475346 1.000000 0.000000
0.715102 1.000000 0.000000
0.871449 1.000000 0.000000
0.959183 1.000000 0.000000
1.000000 1.000000 0.000000
1.000000 1.000000 0.000000
1.000000 1.000000 0.000000
1.000000 1.000000 0.000000
0.000000 1.000000 0.000000
0.000000 1.000000 0.000000
0.000000 1.000000 0.000000
0.000000 1.000000 0.000000
0.000000 1.000000 0.000000
0.000000 1.000000 0.000000
0.000000 1.000000 0.000000
0.000000 1.000000 0.000000
0.469767 1.000000 0.000000
0.712066 1.000000 0.000000
0.869211 1.000000 0.000000
0.957257 1.000000 0.000000
1.000000 1.000000 0.000000
1.000000 1.000000 0.000000
1.000000 1.000000 0.000000
1.000000 1.000000 0.000000
0.000000 1.000000 0.000000
0.000000 1.000000 0.000000
0.000000 1.000000 0.000000
0.000000 1.000000 0.000000
0.000000 1.000000 0.000000
0.000000 1.000000 0.000000
0.000000 1.000000 0.000000
0.000000 1.000000 0.000000
0.461935 1.000000 0.000000
0.707860 1.000000 0.000000
0.866119 1.000000 0.000000
0.954598 1.000000 0.000000
0.999397 1.000000 0.000000
1.000000 1.000000 0.000000
1.000000 1.000000 0.000000
1.000000 1.000000 0.000000
0.000000 0.000000 0.030104
0.037959 0.000000 0.030395
0.086382 0.000000 0.030786
0.144934 0.000000 0.031537
0.226154 0.000000 0.033238
0.349849 0.000000 0.037659
0.497445 0.000000 0.046529
0.645360 0.000000 0.060100
0.789888 0.000000 0.076542
0.927987 0.000000 0.094026
1.000000 0.000000 0.109139
1.000000 0.000000 0.118670
1.000000 0.000000 0.123751
1.000000 0.000000 0.125867
1.000000 0.000000 0.126621
1.000000 0.000000 0.127650
0.000000 0.028004 0.026798
0.027090 0.027090 0.027090
0.078090 0.025868 0.027480
0.139901 0.023518 0.028231
0.223130 0.018194 0.029932
0.348128 0.004353 0.034354
0.496395 0.000000 0.043224
0.644644 0.000000 0.056877
0.789362 0.000000 0.073839
0.927577 0.000000 0.091742
1.000000 0.000000 0.107141
1.000000 0.000000 0.116824
1.000000 0.000000 0.121978
1.000000 0.000000 0.124123
1.000000 0.000000 0.124887
1.000000 0.000000 0.125931
0.000000 0.072866 0.022379
0.012560 0.072099 0.022671
0.065816 0.071063 0.023061
0.132869 0.069037 0.023812
0.219007 0.064285 0.025513
0.345809 0.050814 0.029935
0.494986 0.023048 0.038805
0.643687 0.000000 0.052461
0.788657 0.000000 0.070107
0.927028 0.000000 0.088613
1.000000 0.000000 0.104416
1.000000 0.000000 0.114311
1.000000 0.000000 0.119568
1.000000 0.000000 0.121754
1.000000 0.000000 0.122533
1.000000 0.000000 0.123595
0.000000 0.129876 0.013878
0.000000 0.129411 0.014170
0.038388 0.128786 0.014560
0.118186 0.127577 0.015311
0.210804 0.124794 0.017011
0.341288 0.117261 0.021434
0.492259 0.100591 0.030304
0.641837 0.068777 0.043959
0.787300 0.010979 0.062489
0.925973 0.000000 0.082324
1.000000 0.000000 0.098986
1.000000 0.000000 0.109327
1.000000 0.000000 0.114798
1.000000 0.000000 0.117068
1.000000 0.000000 0.117876
1.000000 0.000000 0.118979
0.000000 0.207805 0.000000
0.000000 0.207526 0.000000
0.000000 0.207152 0.000000
0.076207 0.206430 0.000000
0.190675 0.204784 0.000000
0.330736 0.200430 0.002176
0.486000 0.191349 0.011045
0.637619 0.176318 0.024701
0.784212 0.153005 0.043453
0.923572 0.116921 0.066455
1.000000 0.065123 0.085615
1.000000 0.013802 0.097193
1.000000 0.000000 0.103242
1.000000 0.000000 0.105739
1.000000 0.000000 0.106626
1.000000 0.000000 0.107835
0.000000 0.325660 0.000000
0.000000 0.325501 0.000000
0.000000 0.325289 0.000000
0.000000 0.324879 0.000000
0.121710 0.323950 0.000000
0.300958 0.321516 0.000000
0.469160 0.316558 0.000000
0.626449 0.308720 0.000000
0.776094 0.297511 0.000000
0.917288 0.282573 0.016983
1.000000 0.266514 0.040627
1.000000 0.254508 0.057162
1.000000 0.247397 0.065973
1.000000 0.244272 0.069508
1.000000 0.243134 0.070750
1.000000 0.241558 0.072433
0.000000 0.465863 0.000000
0.000000 0.465767 0.000000
0.000000 0.465637 0.000000
0.000000 0.465388 0.000000
0.000000 0.464822 0.000000
0.225545 0.463347 0.000000
0.432489 0.460367 0.000000
0.603101 0.455726 0.000000
0.759404 0.449240 0.000000
0.904473 0.440884 0.000000
1.000000 0.432283 0.000000
1.000000 0.426119 0.000000
1.000000 0.422579 0.000000
1.000000 0.421050 0.000000
1.000000 0.420496 0.000000
1.000000 0.419735 0.000000
0.000000 0.606207 0.000000
0.000000 0.606141 0.000000
0.000000 0.606054 0.000000
0.000000 0.605884 0.000000
0.000000 0.605499 0.000000
0.000000 0.604496 0.000000
0.365527 0.602479 0.000000
0.564281 0.599352 0.000000
0.732557 0.595019 0.000000
0.884174 0.589498 0.000000
1.000000 0.583889 0.000000
1.000000 0.579917 0.000000
1.000000 0.577654 0.000000
1.000000 0.576681 0.000000
1.000000 0.576330 0.000000
1.000000 0.575846 0.000000
0.000000 0.743272 0.000000
0.000000 0.743224 0.000000
0.000000 0.743159 0.000000
0.000000 0.743034 0.000000
0.000000 0.742751 0.000000
0.000000 0.742015 0.000000
0.229849 0.740534 0.000000
0.503529 0.738246 0.000000
0.693048 0.735086 0.000000
0.855058 0.731080 0.000000
0.979963 0.727033 0.000000
1.000000 0.724181 0.000000
1.000000 0.722561 0.000000
1.000000 0.721866 0.000000
1.000000 0.721615 0.000000
1.000000 0.721269 0.000000
0.000000 0.874208 0.000000
0.000000 0.874170 0.000000
0.000000 0.874120 0.000000
0.000000 0.874022 0.000000
0.000000 0.873802 0.000000
0.000000 0.873229 0.000000
0.000000 0.872077 0.000000
0.407519 0.870299 0.000000
0.637890 0.867849 0.000000
0.816081 0.864750 0.000000
0.948780 0.861628 0.000000
1.000000 0.859434 0.000000
1.000000 0.858189 0.000000
1.000000 0.857655 0.000000
1.000000 0.857462 0.000000
1.000000 0.857198 0.000000
0.000000 0.980367 0.000000
0.000000 0.980335 0.000000
0.000000 0.980293 0.000000
0.000000 0.980211 0.000000
0.000000 0.980027 0.000000
0.000000 0.979548 0.000000
0.000000 0.978586 0.000000
0.260560 0.977101 0.000000
0.574350 0.975057 0.000000
0.773918 0.972475 0.000000
0.915842 0.969877 0.000000
0.997714 0.968053 0.000000
1.000000 0.967020 0.000000
1.000000 0.966576 0.000000
1.000000 0.966416 0.000000
1.000000 0.966197 0.000000
0.000000 1.000000 0.000000
0.000000 1.000000 0.000000
0.000000 1.000000 0.000000
0.000000 1.000000 0.000000
0.000000 1.000000 0.000000
0.000000 1.000000 0.000000
0.000000 1.000000 0.000000
0.000000 1.000000 0.000000
0.522847 1.000000 0.000000
0.742189 1.000000 0.000000
0.891656 1.000000 0.000000
0.976647 1.000000 0.000000
1.000000 1.000000 0.000000
1.000000 1.000000 0.000000
1.000000 1.000000 0.000000
1.000000 1.000000 0.000000
0.000000 1.000000 0.000000
0.000000 1.000000 0.000000
0.000000 1.000000 0.000000
0.000000 1.000000 0.000000
0.000000 1.000000 0.000000
0.000000 1.000000 0.000000
0.000000 1.000000 0.000000
0.000000 1.000000 0.000000
0.490135 1.000000 0.000000
0.723299 1.000000 0.000000
0.877518 1.000000 0.000000
0.964416 1.000000 0.000000
1.000000 1.000000 0.000000
1.000000 1.000000 0.000000
1.000000 1.000000 0.000000
1.000000 1.000000 0.000000
0.000000 1.000000 0.000000
0.000000 1.000000 0.000000
0.000000 1.000000 0.000000
0.000000 1.000000 0.000000
0.000000 1.000000 0.000000
0.000000 1.000000 0.000000
0.000000 1.000000 0.000000
0.000000 1.000000 0.000000
0.475112 1.000000 0.000000
0.714974 1.000000 0.000000
0.871354 1.000000 0.000000
0.959102 1.000000 0.000000
1.000000 1.000000 0.000000
1.000000 1.000000 0.000000
1.000000 1.000000 0.000000
1.000000 1.000000 0.000000
0.000000 1.000000 0.000000
0.000000 1.000000 0.000000
0.000000 1.000000 0.000000
0.000000 1.000000 0.000000
0.000000 1.000000 0.000000
0.000000 1.000000 0.000000
0.000000 1.000000 0.000000
0.000000 1.000000 0.000000
0.469528 1.000000 0.000000
0.711937 1.000000 0.000000
0.869116 1.000000 0.000000
0.957175 1.000000 0.000000
1.000000 1.000000 0.000000
1.000000 1.000000 0.000000
1.000000 1.000000 0.000000
1.000000 1.000000 0.000000
0.000000 1.000000 0.000000
0.000000 1.000000 0.000000
0.000000 1.000000 0.000000
0.000000 1.000000 0.000000
0.000000 1.000000 0.000000
0.000000 1.000000 0.000000
0.000000 1.000000 0.000000
0.000000 1.000000 0.000000
0.461691 1.000000 0.000000
0.707730 1.000000 0.000000
0.866024 1.000000 0.000000
0.954517 1.000000 0.000000
0.999321 1.000000 0.000000
1.000000 1.000000 0.000000
1.000000 1.000000 0.000000
1.000000 1.000000 0.000000
0.000000 0.000000 0.069359
0.034925 0.000000 0.069611
0.084133 0.000000 0.069949
0.143547 0.000000 0.070594
0.225314 0.000000 0.072041
0.349370 0.000000 0.075704
0.497152 0.000000 0.082676
0.645161 0.000000 0.092576
0.789741 0.000000 0.104868
0.927872 0.000000 0.118705
1.000000 0.000000 0.131182
1.000000 0.000000 0.139255
1.000000 0.000000 0.143615
1.000000 0.000000 0.145442
1.000000 0.000000 0.146094
1.000000 0.000000 0.146986
0.000000 0.018981 0.066446
0.024055 0.018067 0.066707
0.075650 0.016845 0.067055
0.138462 0.014495 0.067720
0.222276 0.009170 0.069210
0.347646 0.000000 0.072978
0.496101 0.000000 0.080133
0.644445 0.000000 0.090262
0.789215 0.000000 0.102795
0.927463 0.000000 0.116859
1.000000 0.000000 0.129508
1.000000 0.000000 0.137679
1.000000 0.000000 0.142089
1.000000 0.000000 0.143936
1.000000 0.000000 0.144595
1.000000 0.000000 0.145497
0.000000 0.065003 0.062407
0.009525 0.064168 0.062679
0.063042 0.063042 0.063042
0.131353 0.060835 0.063736
0.218134 0.055632 0.065289
0.345322 0.041790 0.069212
0.494691 0.014024 0.076632
0.643486 0.000000 0.087088
0.788510 0.000000 0.099964
0.926914 0.000000 0.114347
1.000000 0.000000 0.127237
1.000000 0.000000 0.135544
1.000000 0.000000 0.140022
1.000000 0.000000 0.141897
1.000000 0.000000 0.142566
1.000000 0.000000 0.143481
0.000000 0.125208 0.054123
0.000000 0.124727 0.054414
0.035353 0.124079 0.054805
0.116485 0.122824 0.055556
0.209891 0.119934 0.057251
0.340792 0.112093 0.061520
0.491962 0.094616 0.069532
0.641636 0.060552 0.080704
0.787153 0.001955 0.094313
0.925858 0.000000 0.109364
1.000000 0.000000 0.122751
1.000000 0.000000 0.131339
1.000000 0.000000 0.135956
1.000000 0.000000 0.137887
1.000000 0.000000 0.138576
1.000000 0.000000 0.139517
0.000000 0.205028 0.034865
0.000000 0.204744 0.035156
0.000000 0.204365 0.035547
0.073721 0.203631 0.036297
0.189648 0.201958 0.037998
0.330219 0.197531 0.042420
0.485697 0.188289 0.051290
0.637415 0.172957 0.064551
0.784064 0.149074 0.080312
0.923457 0.111738 0.097234
1.000000 0.056551 0.111960
1.000000 0.004779 0.121283
1.000000 0.000000 0.126263
1.000000 0.000000 0.128338
1.000000 0.000000 0.129078
1.000000 0.000000 0.130089
0.000000 0.324088 0.000000
0.000000 0.323928 0.000000
0.000000 0.323714 0.000000
0.000000 0.323302 0.000000
0.120057 0.322366 0.000000
0.300372 0.319916 0.000000
0.468841 0.314925 0.001220
0.626241 0.307032 0.014876
0.775943 0.295739 0.033629
0.917171 0.280677 0.057223
1.000000 0.264470 0.078091
1.000000 0.252342 0.090464
1.000000 0.245152 0.096876
1.000000 0.241991 0.099514
1.000000 0.240840 0.100449
1.000000 0.239245 0.101724
0.000000 0.464905 0.000000
0.000000 0.464808 0.000000
0.000000 0.464679 0.000000
0.000000 0.464429 0.000000
0.000000 0.463861 0.000000
0.224704 0.462382 0.000000
0.432132 0.459393 0.000000
0.602880 0.454737 0.000000
0.759249 0.448232 0.000000
0.904354 0.439849 0.000000
1.000000 0.431217 0.000000
1.000000 0.425032 0.000000
1.000000 0.421479 0.006324
1.000000 0.419944 0.010328
1.000000 0.419389 0.011771
1.000000 0.418624 0.013755
0.000000 0.605556 0.000000
0.000000 0.605490 0.000000
0.000000 0.605401 0.000000
0.000000 0.605231 0.000000
0.000000 0.604846 0.000000
0.000000 0.603842 0.000000
0.365075 0.601821 0.000000
0.564038 0.598689 0.000000
0.732393 0.594348 0.000000
0.884051 0.588818 0.000000
1.000000 0.583199 0.000000
1.000000 0.579221 0.000000
1.000000 0.576954 0.000000
1.000000 0.575979 0.000000
1.000000 0.575627 0.000000
1.000000 0.575142 0.000000
0.000000 0.742793 0.000000
0.000000 0.742744 0.000000
0.000000 0.742679 0.000000
0.000000 0.742554 0.000000
0.000000 0.742271 0.000000
0.000000 0.741534 0.000000
0.229025 0.740052 0.000000
0.503241 0.737762 0.000000
0.692869 0.734598 0.000000
0.854928 0.730589 0.000000
0.979858 0.726536 0.000000
1.000000 0.723682 0.000000
1.000000 0.722060 0.000000
1.000000 0.721364 0.000000
1.000000 0.721113 0.000000
1.000000 0.720768 0.000000
0.000000 0.873834 0.000000
0.000000 0.873797 0.000000
0.000000 0.873746 0.000000
0.000000 0.873648 0.000000
0.000000 0.873428 0.000000
0.000000 0.872855 0.000000
0.000000 0.871702 0.000000
0.407131 0.869923 0.000000
0.637688 0.867472 0.000000
0.815941 0.864370 0.000000
0.948670 0.861246 0.000000
1.000000 0.859050 0.000000
1.000000 0.857805 0.000000
1.000000 0.857271 0.000000
1.000000 0.857078 0.000000
1.000000 0.856813 0.000000
0.000000 0.980054 0.000000
0.000000 0.980023 0.000000
0.000000 0.979980 0.000000
0.000000 0.979899 0.000000
0.000000 0.979715 0.000000
0.000000 0.979235 0.000000
0.000000 0.978272 0.000000
0.259854 0.976787 0.000000
0.574112 0.974742 0.000000
0.773766 0.972158 0.000000
0.915726 0.969559 0.000000
0.997612 0.967735 0.000000
1.000000 0.966701 0.000000
1.000000 0.966257 0.000000
1.000000 0.966098 0.000000
1.000000 0.965877 0.000000
0.000000 1.000000 0.000000
0.000000 1.000000 0.000000
0.000000 1.000000 0.000000
0.000000 1.000000 0.000000
0.000000 1.000000 0.000000
0.000000 1.000000 0.000000
0.000000 1.000000 0.000000
0.000000 1.000000 0.000000
0.522574 1.000000 0.000000
0.742028 1.000000 0.000000
0.891534 1.000000 0.000000
0.976541 1.000000 0.000000
1.000000 1.000000 0.000000
1.000000 1.000000 0.000000
1.000000 1.000000 0.000000
1.000000 1.000000 0.000000
0.000000 1.000000 0.000000
0.000000 1.000000 0.000000
0.000000 1.000000 0.000000
0.000000 1.000000 0.000000
0.000000 1.000000 0.000000
0.000000 1.000000 0.000000
0.000000 1.000000 0.000000
0.000000 1.000000 0.000000
0.489835 1.000000 0.000000
0.723131 1.000000 0.000000
0.877394 1.000000 0.000000
0.964308 1.000000 0.000000
1.000000 1.000000 0.000000
1.000000 1.000000 0.000000
1.000000 1.000000 0.000000
1.000000 1.000000 0.000000
0.000000 1.000000 0.000000
0.000000 1.000000 0.000000
0.000000 1.000000 0.000000
0.000000 1.000000 0.000000
0.000000 1.000000 0.000000
0.000000 1.000000 0.000000
0.000000 1.000000 0.000000
0.000000 1.000000 0.000000
0.474799 1.000000 0.000000
0.714803 1.000000 0.000000
0.871228 1.000000 0.000000
0.958993 1.000000 0.000000
1.000000 1.000000 0.000000
1.000000 1.000000 0.000000
1.000000 1.000000 0.000000
1.000000 1.000000 0.000000
0.000000 1.000000 0.000000
0.000000 1.000000 0.000000
0.000000 1.000000 0.000000
0.000000 1.000000 0.000000
0.000000 1.000000 0.000000
0.000000 1.000000 0.000000
0.000000 1.000000 0.000000
0.000000 1.000000 0.000000
0.469210 1.000000 0.000000
0.711765 1.000000 0.000000
0.868989 1.000000 0.000000
0.957066 1.000000 0.000000
1.000000 1.000000 0.000000
1.000000 1.000000 0.000000
1.000000 1.000000 0.000000
1.000000 1.000000 0.000000
0.000000 1.000000 0.000000
0.000000 1.000000 0.000000
0.000000 1.000000 0.000000
0.000000 1.000000 0.000000
0.000000 1.000000 0.000000
0.000000 1.000000 0.000000
0.000000 1.000000 0.000000
0.000000 1.000000 0.000000
0.461365 1.000000 0.000000
0.707556 1.000000 0.000000
0.865897 1.000000 0.000000
0.954408 1.000000 0.000000
0.999219 1.000000 0.000000
1.000000 1.000000 0.000000
1.000000 1.000000 0.000000
1.000000 1.000000 0.000000
0.000000 0.000000 0.121439
0.029087 0.000000 0.121598
0.079664 0.000000 0.121809
0.140839 0.000000 0.122214
0.223688 0.000000 0.123128
0.348445 0.000000 0.125473
0.496588 0.000000 0.130054
0.644776 0.000000 0.136809
0.789458 0.000000 0.145571
0.927652 0.000000 0.155874
1.000000 0.000000 0.165518
1.000000 0.000000 0.171917
1.000000 0.000000 0.175421
1.000000 0.000000 0.176898
1.000000 0.000000 0.177427
1.000000 0.000000 0.178152
0.000000 0.001622 0.119633
0.018218 0.000708 0.119794
0.070780 0.000000 0.120008
0.135651 0.000000 0.120420
0.220623 0.000000 0.121346
0.346715 0.000000 0.123724
0.495535 0.000000 0.128366
0.644059 0.000000 0.135205
0.788932 0.000000 0.144065
0.927242 0.000000 0.154475
1.000000 0.000000 0.164207
1.000000 0.000000 0.170659
1.000000 0.000000 0.174191
1.000000 0.000000 0.175680
1.000000 0.000000 0.176213
1.000000 0.000000 0.176943
0.000000 0.048082 0.117178
0.003688 0.047169 0.117341
0.057460 0.045947 0.117559
0.128386 0.043597 0.117979
0.216444 0.038273 0.118924
0.344383 0.024432 0.121348
0.494123 0.000000 0.126075
0.643101 0.000000 0.133030
0.788228 0.000000 0.142028
0.926694 0.000000 0.152582
1.000000 0.000000 0.162435
1.000000 0.000000 0.168962
1.000000 0.000000 0.172532
1.000000 0.000000 0.174036
1.000000 0.000000 0.174575
1.000000 0.000000 0.175312
0.000000 0.115719 0.112312
0.000000 0.115200 0.112482
0.029515 0.114501 0.112709
0.113146 0.113146 0.113146
0.208121 0.110018 0.114128
0.339836 0.101480 0.116646
0.491390 0.082120 0.121548
0.641249 0.043298 0.128743
0.786869 0.000000 0.138023
0.925637 0.000000 0.148871
1.000000 0.000000 0.158968
1.000000 0.000000 0.165642
1.000000 0.000000 0.169289
1.000000 0.000000 0.170825
1.000000 0.000000 0.171375
1.000000 0.000000 0.172127
0.000000 0.199558 0.100499
0.000000 0.199265 0.100687
0.000000 0.198873 0.100939
0.068752 0.198116 0.101420
0.187654 0.196389 0.102504
0.329222 0.191813 0.105276
0.485114 0.182237 0.110646
0.637024 0.166280 0.118474
0.783778 0.141190 0.128484
0.923235 0.101091 0.140083
1.000000 0.039192 0.150797
1.000000 0.000000 0.157842
1.000000 0.000000 0.161679
1.000000 0.000000 0.163294
1.000000 0.000000 0.163870
1.000000 0.000000 0.164661
0.000000 0.321033 0.062024
0.000000 0.320871 0.062298
0.000000 0.320655 0.062662
0.000000 0.320238 0.063359
0.116813 0.319290 0.064918
0.299241 0.316809 0.068856
0.468227 0.311752 0.076302
0.625839 0.303749 0.086790
0.775652 0.292289 0.099699
0.916947 0.276985 0.114112
1.000000 0.260483 0.127025
1.000000 0.248109 0.135345
1.000000 0.240762 0.139830
1.000000 0.237529 0.141706
1.000000 0.236351 0.142376
1.000000 0.234718 0.143293
0.000000 0.463055 0.000000
0.000000 0.462957 0.000000
0.000000 0.462827 0.000000
0.000000 0.462575 0.000000
0.000000 0.462005 0.000000
0.223072 0.460517 0.000000
0.431442 0.457510 0.000000
0.602455 0.452827 0.000000
0.758949 0.446281 0.010612
0.904125 0.437846 0.034212
1.000000 0.429157 0.057841
1.000000 0.422930 0.072808
1.000000 0.419351 0.080347
1.000000 0.417806 0.083414
1.000000 0.417247 0.084497
1.000000 0.416476 0.085968
0.000000 0.604298 0.000000
0.000000 0.604233 0.000000
0.000000 0.604144 0.000000
0.000000 0.603973 0.000000
