Vibe/Lumetri/LUTs/Technical/AlexaV3_K1S1_LogC2Video_DCIP3_EE.cube
# Alexa conversion LUT, logc2video, p3. Full in/full out.
# created by alexalutconv (2.05)
LUT_3D_SIZE 6
0.000000 0.000000 0.000000
0.158273 0.003569 0.005754
0.497396 0.040907 0.065425
0.887321 0.136115 0.178952
1.000000 0.183179 0.234142
1.000000 0.189057 0.241034
0.000000 0.153142 0.000000
0.144043 0.154567 0.000000
0.494730 0.168641 0.059401
0.886333 0.211687 0.176770
1.000000 0.241992 0.232605
1.000000 0.246112 0.239557
0.000000 0.485828 0.000000
0.000000 0.486110 0.000000
0.465314 0.489041 0.000000
0.875877 0.499747 0.151649
1.000000 0.508912 0.215633
1.000000 0.510265 0.223300
0.000000 0.868351 0.000000
0.000000 0.868456 0.000000
0.313143 0.869551 0.000000
0.834711 0.873620 0.000000
1.000000 0.877191 0.127137
1.000000 0.877725 0.141042
0.000000 1.000000 0.000000
0.000000 1.000000 0.000000
0.000000 1.000000 0.000000
0.795060 1.000000 0.000000
1.000000 1.000000 0.000000
1.000000 1.000000 0.000000
0.000000 1.000000 0.000000
0.000000 1.000000 0.000000
0.000000 1.000000 0.000000
0.788804 1.000000 0.000000
1.000000 1.000000 0.000000
1.000000 1.000000 0.000000
0.000000 0.000000 0.136199
0.150964 0.000000 0.138809
0.495993 0.000000 0.163345
0.886801 0.114108 0.229767
1.000000 0.168224 0.272315
1.000000 0.174723 0.277936
0.000000 0.134209 0.133187
0.135860 0.135860 0.135860
0.493316 0.151947 0.160905
0.885811 0.199409 0.228190
1.000000 0.231821 0.271070
1.000000 0.236184 0.276726
0.000000 0.482343 0.095902
0.000000 0.482628 0.099594
0.463751 0.485594 0.132250
0.875345 0.496420 0.210737
1.000000 0.505685 0.257527
1.000000 0.507050 0.263596
0.000000 0.867061 0.000000
0.000000 0.867166 0.000000
0.310249 0.868264 0.000000
0.834130 0.872344 0.117719
1.000000 0.875924 0.195109
1.000000 0.876459 0.203792
0.000000 1.000000 0.000000
0.000000 1.000000 0.000000
0.000000 1.000000 0.000000
0.794428 1.000000 0.000000
1.000000 1.000000 0.103130
1.000000 1.000000 0.119977
0.000000 1.000000 0.000000
0.000000 1.000000 0.000000
0.000000 1.000000 0.000000
0.788164 1.000000 0.000000
1.000000 1.000000 0.080240
1.000000 1.000000 0.100764
0.000000 0.000000 0.447627
0.022158 0.000000 0.448145
0.480917 0.000000 0.453510
0.881322 0.000000 0.472702
1.000000 0.000000 0.488682
1.000000 0.000000 0.491009
0.000000 0.000000 0.447041
0.000000 0.000000 0.447561
0.478101 0.000000 0.452936
0.880321 0.000000 0.472165
1.000000 0.021013 0.488174
1.000000 0.039522 0.490504
0.000000 0.443140 0.440836
0.000000 0.443467 0.441367
0.446861 0.446861 0.446861
0.869736 0.459192 0.466490
1.000000 0.469670 0.482802
1.000000 0.471210 0.485173
0.000000 0.853355 0.416323
0.000000 0.853463 0.416904
0.277249 0.854592 0.422910
0.828018 0.858788 0.444236
1.000000 0.862468 0.461819
1.000000 0.863018 0.464367
0.000000 1.000000 0.392570
0.000000 1.000000 0.393208
0.000000 1.000000 0.399780
0.787763 1.000000 0.422952
1.000000 1.000000 0.441892
1.000000 1.000000 0.444624
0.000000 1.000000 0.388808
0.000000 1.000000 0.389456
0.000000 1.000000 0.396124
0.781404 1.000000 0.419609
1.000000 1.000000 0.438776
1.000000 1.000000 0.441539
0.000000 0.000000 0.805707
0.000000 0.000000 0.805900
0.416386 0.000000 0.807913
0.860299 0.000000 0.815354
1.000000 0.000000 0.821837
1.000000 0.000000 0.822801
0.000000 0.000000 0.805489
0.000000 0.000000 0.805682
0.412832 0.000000 0.807696
0.859255 0.000000 0.815140
1.000000 0.000000 0.821626
1.000000 0.000000 0.822592
0.000000 0.183861 0.803205
0.000000 0.185007 0.803399
0.372351 0.196503 0.805423
0.848198 0.233303 0.812904
1.000000 0.260332 0.819420
1.000000 0.264063 0.820391
0.000000 0.798350 0.794570
0.000000 0.798471 0.794768
0.000000 0.799740 0.796830
0.804451 0.804451 0.804451
1.000000 0.808579 0.811088
1.000000 0.809194 0.812076
0.000000 1.000000 0.786795
0.000000 1.000000 0.786995
0.000000 1.000000 0.789093
0.761947 1.000000 0.796845
0.993194 1.000000 0.803591
1.000000 1.000000 0.804595
0.000000 1.000000 0.785616
0.000000 1.000000 0.785817
0.000000 1.000000 0.787921
0.755202 1.000000 0.795692
0.988992 1.000000 0.802456
1.000000 1.000000 0.803462
0.000000 0.000000 0.979784
0.000000 0.000000 0.979920
0.342109 0.000000 0.981344
0.840918 0.000000 0.986628
1.000000 0.000000 0.991261
1.000000 0.000000 0.991952
0.000000 0.000000 0.979630
0.000000 0.000000 0.979766
0.337278 0.000000 0.981190
0.839831 0.000000 0.986477
1.000000 0.000000 0.991110
1.000000 0.000000 0.991802
0.000000 0.000000 0.978018
0.000000 0.000000 0.978155
0.278942 0.000000 0.979583
0.828310 0.000000 0.984885
1.000000 0.000000 0.989531
1.000000 0.000000 0.990226
0.000000 0.743462 0.971955
0.000000 0.743599 0.972093
0.000000 0.745036 0.973537
0.782550 0.750363 0.978897
1.000000 0.755019 0.983595
1.000000 0.755714 0.984296
0.000000 0.971030 0.966535
0.000000 0.971116 0.966674
0.000000 0.972014 0.968133
0.737770 0.975354 0.973547
0.978291 0.978291 0.978291
1.000000 0.978730 0.978998
0.000000 0.997833 0.965717
0.000000 0.997915 0.965857
0.000000 0.998770 0.967318
0.730632 1.000000 0.972740
0.973974 1.000000 0.977490
1.000000 1.000000 0.978199
0.000000 0.000000 1.000000
0.000000 0.000000 1.000000
0.328646 0.000000 1.000000
0.837941 0.000000 1.000000
1.000000 0.000000 1.000000
1.000000 0.000000 1.000000
0.000000 0.000000 1.000000
0.000000 0.000000 1.000000
0.323511 0.000000 1.000000
0.836848 0.000000 1.000000
1.000000 0.000000 1.000000
1.000000 0.000000 1.000000
0.000000 0.000000 0.999826
0.000000 0.000000 0.999957
0.260451 0.000000 1.000000
0.825253 0.000000 1.000000
1.000000 0.000000 1.000000
1.000000 0.000000 1.000000
0.000000 0.734595 0.994000
0.000000 0.734736 0.994132
0.000000 0.736203 0.995519
0.779170 0.741640 1.000000
1.000000 0.746392 1.000000
1.000000 0.747100 1.000000
0.000000 0.965528 0.988795
0.000000 0.965614 0.988930
0.000000 0.966522 0.990329
0.734023 0.969895 0.995530
0.976019 0.972862 1.000000
1.000000 0.973305 1.000000
0.000000 0.992595 0.988011
0.000000 0.992678 0.988144
0.000000 0.993541 0.989547
0.726820 0.996752 0.994754
0.971684 0.999578 0.999318
1.000000 1.000000 1.000000
