Vibe/Lumetri/LUTs/Technical/ALEXA_Default_LogC2Rec709.cube
# Alexa conversion LUT, logc2video, itu709. Full in/full out.
# created by alexalutconv (2.09)
LUT_3D_SIZE 32
0.000000 0.000000 0.000000
0.000000 0.000000 0.000000
0.005885 0.000000 0.000043
0.029407 0.000000 0.000213
0.056990 0.000000 0.000413
0.088679 0.000000 0.000689
0.123087 0.000000 0.001094
0.161439 0.000000 0.001695
0.204744 0.000000 0.002586
0.258197 0.000000 0.004033
0.322273 0.000000 0.006338
0.392823 0.000000 0.009682
0.465816 0.000000 0.014138
0.538362 0.000000 0.019673
0.610442 0.000000 0.026366
0.681780 0.000000 0.034256
0.752063 0.000000 0.043350
0.820969 0.000000 0.053622
0.888166 0.000000 0.064605
0.953082 0.000000 0.075254
1.000000 0.000000 0.084406
1.000000 0.000000 0.091722
1.000000 0.000000 0.097420
1.000000 0.000000 0.101712
1.000000 0.000000 0.104812
1.000000 0.000000 0.106933
1.000000 0.000000 0.108288
1.000000 0.000000 0.109092
1.000000 0.000000 0.109557
1.000000 0.000000 0.109897
1.000000 0.000000 0.110324
1.000000 0.000000 0.111052
0.000000 0.000000 0.000000
0.000000 0.000000 0.000000
0.005885 0.000000 0.000043
0.029407 0.000000 0.000213
0.056990 0.000000 0.000413
0.088679 0.000000 0.000689
0.123087 0.000000 0.001094
0.161439 0.000000 0.001695
0.204744 0.000000 0.002586
0.258197 0.000000 0.004033
0.322273 0.000000 0.006338
0.392823 0.000000 0.009682
0.465816 0.000000 0.014138
0.538362 0.000000 0.019673
0.610442 0.000000 0.026366
0.681780 0.000000 0.034256
0.752063 0.000000 0.043350
0.820969 0.000000 0.053622
0.888166 0.000000 0.064605
0.953082 0.000000 0.075254
1.000000 0.000000 0.084406
1.000000 0.000000 0.091722
1.000000 0.000000 0.097420
1.000000 0.000000 0.101712
1.000000 0.000000 0.104812
1.000000 0.000000 0.106933
1.000000 0.000000 0.108288
1.000000 0.000000 0.109092
1.000000 0.000000 0.109557
1.000000 0.000000 0.109897
1.000000 0.000000 0.110324
1.000000 0.000000 0.111052
0.000000 0.005084 0.000000
0.000000 0.005084 0.000000
0.004296 0.004951 0.000000
0.027816 0.004417 0.000000
0.055403 0.003790 0.000000
0.087531 0.002929 0.000205
0.122233 0.001659 0.000611
0.160793 0.000000 0.001212
0.204250 0.000000 0.002103
0.257824 0.000000 0.003550
0.321992 0.000000 0.005854
0.392609 0.000000 0.009199
0.465648 0.000000 0.013654
0.538226 0.000000 0.019189
0.610328 0.000000 0.025882
0.681684 0.000000 0.033773
0.751980 0.000000 0.042867
0.820896 0.000000 0.053139
0.888102 0.000000 0.064163
0.953025 0.000000 0.074859
1.000000 0.000000 0.084043
1.000000 0.000000 0.091385
1.000000 0.000000 0.097100
1.000000 0.000000 0.101403
1.000000 0.000000 0.104511
1.000000 0.000000 0.106637
1.000000 0.000000 0.107996
1.000000 0.000000 0.108802
1.000000 0.000000 0.109268
1.000000 0.000000 0.109608
1.000000 0.000000 0.110036
1.000000 0.000000 0.110767
0.000000 0.025404 0.000000
0.000000 0.025404 0.000000
0.000000 0.025271 0.000000
0.021462 0.024736 0.000000
0.049048 0.024109 0.000000
0.082816 0.023248 0.000000
0.118760 0.021978 0.000000
0.158179 0.020096 0.000000
0.202258 0.017309 0.000170
0.256325 0.012779 0.001617
0.320869 0.005565 0.003922
0.391751 0.000000 0.007266
0.464973 0.000000 0.011722
0.537678 0.000000 0.017257
0.609874 0.000000 0.023950
0.681298 0.000000 0.031840
0.751648 0.000000 0.040934
0.820606 0.000000 0.051205
0.887845 0.000000 0.062375
0.952795 0.000000 0.073259
1.000000 0.000000 0.082584
1.000000 0.000000 0.090023
1.000000 0.000000 0.095807
1.000000 0.000000 0.100158
1.000000 0.000000 0.103299
1.000000 0.000000 0.105448
1.000000 0.000000 0.106820
1.000000 0.000000 0.107634
1.000000 0.000000 0.108105
1.000000 0.000000 0.108449
1.000000 0.000000 0.108881
1.000000 0.000000 0.109618
0.000000 0.049236 0.000000
0.000000 0.049236 0.000000
0.000000 0.049103 0.000000
0.014008 0.048568 0.000000
0.041595 0.047941 0.000000
0.076999 0.047080 0.000000
0.114559 0.045809 0.000000
0.155054 0.043928 0.000000
0.199893 0.041140 0.000000
0.254554 0.036611 0.000000
0.319545 0.029397 0.001655
0.390741 0.018927 0.004999
0.464180 0.004980 0.009455
0.537036 0.000000 0.014990
0.609341 0.000000 0.021683
0.680847 0.000000 0.029573
0.751259 0.000000 0.038667
0.820267 0.000000 0.048939
0.887545 0.000000 0.060232
0.952526 0.000000 0.071351
1.000000 0.000000 0.080845
1.000000 0.000000 0.088404
1.000000 0.000000 0.094271
1.000000 0.000000 0.098682
1.000000 0.000000 0.101863
1.000000 0.000000 0.104038
1.000000 0.000000 0.105427
1.000000 0.000000 0.106250
1.000000 0.000000 0.106726
1.000000 0.000000 0.107074
1.000000 0.000000 0.107511
1.000000 0.000000 0.108257
0.000000 0.078973 0.000000
0.000000 0.078973 0.000000
0.000000 0.078868 0.000000
0.003766 0.078445 0.000000
0.031352 0.077948 0.000000
0.068412 0.077260 0.000000
0.108540 0.076238 0.000000
0.150647 0.074704 0.000000
0.196589 0.072386 0.000000
0.252094 0.068499 0.000000
0.317713 0.061961 0.000000
0.389348 0.051678 0.001885
0.463087 0.037731 0.006340
0.536150 0.020406 0.011875
0.608606 0.000000 0.018568
0.680225 0.000000 0.026458
0.750724 0.000000 0.035553
0.819799 0.000000 0.045823
0.887130 0.000000 0.057202
0.952155 0.000000 0.068667
1.000000 0.000000 0.078408
1.000000 0.000000 0.086137
1.000000 0.000000 0.092125
1.000000 0.000000 0.096620
1.000000 0.000000 0.099858
1.000000 0.000000 0.102071
1.000000 0.000000 0.103484
1.000000 0.000000 0.104320
1.000000 0.000000 0.104805
1.000000 0.000000 0.105158
1.000000 0.000000 0.105603
1.000000 0.000000 0.106360
0.000000 0.111582 0.000000
0.000000 0.111582 0.000000
0.000000 0.111504 0.000000
0.000000 0.111189 0.000000
0.016243 0.110819 0.000000
0.054155 0.110309 0.000000
0.099064 0.109552 0.000000
0.143889 0.108423 0.000000
0.191594 0.106729 0.000000
0.248409 0.103925 0.000000
0.314986 0.099314 0.000000
0.387280 0.092269 0.000000
0.461468 0.082118 0.001745
0.534841 0.067931 0.007280
0.607520 0.047764 0.013973
0.679306 0.023065 0.021863
0.749933 0.000000 0.030958
0.819108 0.000000 0.041229
0.886519 0.000000 0.052612
0.951607 0.000000 0.064563
1.000000 0.000000 0.074702
1.000000 0.000000 0.082704
1.000000 0.000000 0.088881
1.000000 0.000000 0.093508
1.000000 0.000000 0.096836
1.000000 0.000000 0.099108
1.000000 0.000000 0.100557
1.000000 0.000000 0.101415
1.000000 0.000000 0.101911
1.000000 0.000000 0.102274
1.000000 0.000000 0.102730
1.000000 0.000000 0.103507
0.000000 0.147929 0.000000
0.000000 0.147929 0.000000
0.000000 0.147870 0.000000
0.000000 0.147632 0.000000
0.000000 0.147352 0.000000
0.031775 0.146966 0.000000
0.083374 0.146396 0.000000
0.133231 0.145546 0.000000
0.183910 0.144278 0.000000
0.242825 0.142192 0.000000
0.310887 0.138805 0.000000
0.384188 0.133734 0.000000
0.459054 0.126664 0.000000
0.532892 0.117307 0.000474
0.605906 0.104956 0.007167
0.677941 0.088478 0.015057
0.748759 0.065650 0.024151
0.818083 0.034005 0.034423
0.885613 0.000000 0.045806
0.950796 0.000000 0.058132
1.000000 0.000000 0.068943
1.000000 0.000000 0.077400
1.000000 0.000000 0.083889
1.000000 0.000000 0.088730
1.000000 0.000000 0.092204
1.000000 0.000000 0.094570
1.000000 0.000000 0.096079
1.000000 0.000000 0.096972
1.000000 0.000000 0.097487
1.000000 0.000000 0.097864
1.000000 0.000000 0.098338
1.000000 0.000000 0.099145
0.000000 0.188971 0.000000
0.000000 0.188971 0.000000
0.000000 0.188926 0.000000
0.000000 0.188744 0.000000
0.000000 0.188529 0.000000
0.000000 0.188235 0.000000
0.054537 0.187799 0.000000
0.115668 0.187152 0.000000
0.171809 0.186189 0.000000
0.234246 0.184611 0.000000
0.304680 0.182066 0.000000
0.379543 0.178300 0.000000
0.455444 0.173140 0.000000
0.529986 0.166484 0.000000
0.603504 0.158027 0.000000
0.675912 0.147391 0.004973
0.747015 0.134046 0.014068
0.816561 0.117170 0.024339
0.884267 0.095290 0.035722
0.949592 0.065282 0.048068
1.000000 0.029068 0.059717
1.000000 0.000000 0.068986
1.000000 0.000000 0.076023
1.000000 0.000000 0.081235
1.000000 0.000000 0.084957
1.000000 0.000000 0.087486
1.000000 0.000000 0.089094
1.000000 0.000000 0.090045
1.000000 0.000000 0.090595
1.000000 0.000000 0.090996
1.000000 0.000000 0.091499
1.000000 0.000000 0.092357
0.000000 0.239629 0.000000
0.000000 0.239629 0.000000
0.000000 0.239594 0.000000
0.000000 0.239457 0.000000
0.000000 0.239296 0.000000
0.000000 0.239074 0.000000
0.000655 0.238746 0.000000
0.080149 0.238259 0.000000
0.149859 0.237536 0.000000
0.219427 0.236354 0.000000
0.294226 0.234457 0.000000
0.371825 0.231670 0.000000
0.449491 0.227894 0.000000
0.525213 0.223094 0.000000
0.599569 0.217118 0.000000
0.672595 0.209813 0.000000
0.744168 0.201001 0.000000
0.814078 0.190476 0.007952
0.882074 0.177976 0.019335
0.947629 0.163206 0.031682
1.000000 0.147706 0.043399
1.000000 0.132785 0.053534
1.000000 0.119056 0.061737
1.000000 0.107077 0.067745
1.000000 0.097284 0.071991
1.000000 0.089891 0.074856
1.000000 0.084811 0.076670
1.000000 0.081651 0.077741
1.000000 0.079768 0.078359
1.000000 0.078367 0.078809
1.000000 0.076569 0.079373
1.000000 0.073411 0.080335
0.000000 0.300356 0.000000
0.000000 0.300356 0.000000
0.000000 0.300329 0.000000
0.000000 0.300226 0.000000
0.000000 0.300105 0.000000
0.000000 0.299938 0.000000
0.000000 0.299692 0.000000
0.000000 0.299328 0.000000
0.105633 0.298785 0.000000
0.193001 0.297902 0.000000
0.276509 0.296489 0.000000
0.359061 0.294422 0.000000
0.439773 0.291639 0.000000
0.517481 0.288132 0.000000
0.593222 0.283817 0.000000
0.667262 0.278620 0.000000
0.739598 0.272471 0.000000
0.810100 0.265307 0.000000
0.878563 0.257071 0.000000
0.944491 0.247747 0.005588
1.000000 0.238477 0.017306
1.000000 0.230087 0.027440
1.000000 0.222862 0.035816
1.000000 0.216968 0.042410
1.000000 0.212446 0.047329
1.000000 0.209211 0.050771
1.000000 0.207082 0.053003
1.000000 0.205795 0.054339
1.000000 0.205043 0.055115
1.000000 0.204490 0.055685
1.000000 0.203788 0.056403
1.000000 0.202580 0.057623
0.000000 0.367218 0.000000
0.000000 0.367218 0.000000
0.000000 0.367198 0.000000
0.000000 0.367120 0.000000
0.000000 0.367026 0.000000
0.000000 0.366899 0.000000
0.000000 0.366711 0.000000
0.000000 0.366432 0.000000
0.000000 0.366019 0.000000
0.144986 0.365346 0.000000
0.247871 0.364270 0.000000
0.339359 0.362701 0.000000
0.425103 0.360596 0.000000
0.505949 0.357959 0.000000
0.583828 0.354733 0.000000
0.659404 0.350879 0.000000
0.732889 0.346364 0.000000
0.804273 0.341168 0.000000
0.873427 0.335283 0.000000
0.939908 0.328739 0.000000
0.996839 0.322363 0.000000
1.000000 0.316712 0.000000
1.000000 0.311938 0.000000
1.000000 0.308110 0.004537
1.000000 0.305214 0.009456
1.000000 0.303166 0.012897
1.000000 0.301828 0.015129
1.000000 0.301024 0.016465
1.000000 0.300555 0.017242
1.000000 0.300211 0.017811
1.000000 0.299775 0.018529
1.000000 0.299028 0.019760
0.000000 0.436395 0.000000
0.000000 0.436395 0.000000
0.000000 0.436379 0.000000
0.000000 0.436317 0.000000
0.000000 0.436244 0.000000
0.000000 0.436145 0.000000
0.000000 0.435996 0.000000
0.000000 0.435777 0.000000
0.000000 0.435452 0.000000
0.029435 0.434924 0.000000
0.201805 0.434079 0.000000
0.310458 0.432850 0.000000
0.404384 0.431205 0.000000
0.489971 0.429148 0.000000
0.570956 0.426644 0.000000
0.648714 0.423664 0.000000
0.723804 0.420192 0.000000
0.796409 0.416223 0.000000
0.866515 0.411760 0.000000
0.933747 0.406842 0.000000
0.991225 0.402097 0.000000
1.000000 0.397930 0.000000
1.000000 0.394440 0.000000
1.000000 0.391661 0.000000
1.000000 0.389571 0.000000
1.000000 0.388099 0.000000
1.000000 0.387140 0.000000
1.000000 0.386565 0.000000
1.000000 0.386229 0.000000
1.000000 0.385984 0.000000
1.000000 0.385673 0.000000
1.000000 0.385140 0.000000
0.000000 0.505149 0.000000
0.000000 0.505149 0.000000
0.000000 0.505136 0.000000
0.000000 0.505086 0.000000
0.000000 0.505027 0.000000
0.000000 0.504945 0.000000
0.000000 0.504825 0.000000
0.000000 0.504648 0.000000
0.000000 0.504384 0.000000
0.000000 0.503956 0.000000
0.117671 0.503271 0.000000
0.268724 0.502277 0.000000
0.376387 0.500948 0.000000
0.469012 0.499290 0.000000
0.554344 0.497273 0.000000
0.635054 0.494881 0.000000
0.712270 0.492103 0.000000
0.786469 0.488938 0.000000
0.857805 0.485395 0.000000
0.926004 0.481511 0.000000
0.984181 0.477782 0.000000
1.000000 0.474523 0.000000
1.000000 0.471805 0.000000
1.000000 0.469649 0.000000
1.000000 0.468032 0.000000
1.000000 0.466896 0.000000
1.000000 0.466157 0.000000
1.000000 0.465713 0.000000
1.000000 0.465455 0.000000
1.000000 0.465266 0.000000
1.000000 0.465028 0.000000
1.000000 0.464618 0.000000
0.000000 0.573461 0.000000
0.000000 0.573461 0.000000
0.000000 0.573450 0.000000
0.000000 0.573409 0.000000
0.000000 0.573359 0.000000
0.000000 0.573292 0.000000
0.000000 0.573193 0.000000
0.000000 0.573045 0.000000
0.000000 0.572826 0.000000
0.000000 0.572470 0.000000
0.000000 0.571903 0.000000
0.203584 0.571078 0.000000
0.338173 0.569976 0.000000
0.441730 0.568604 0.000000
0.533224 0.566937 0.000000
0.617924 0.564963 0.000000
0.697933 0.562675 0.000000
0.774186 0.560074 0.000000
0.847086 0.557171 0.000000
0.916505 0.553997 0.000000
0.975555 0.550960 0.000000
1.000000 0.548313 0.000000
1.000000 0.546112 0.000000
1.000000 0.544369 0.000000
1.000000 0.543064 0.000000
1.000000 0.542148 0.000000
1.000000 0.541552 0.000000
1.000000 0.541196 0.000000
1.000000 0.540988 0.000000
1.000000 0.540836 0.000000
1.000000 0.540644 0.000000
1.000000 0.540315 0.000000
0.000000 0.641069 0.000000
0.000000 0.641069 0.000000
0.000000 0.641060 0.000000
0.000000 0.641025 0.000000
0.000000 0.640983 0.000000
0.000000 0.640926 0.000000
0.000000 0.640842 0.000000
0.000000 0.640716 0.000000
0.000000 0.640531 0.000000
0.000000 0.640230 0.000000
0.000000 0.639750 0.000000
0.058851 0.639051 0.000000
0.283998 0.638120 0.000000
0.406153 0.636960 0.000000
0.506645 0.635553 0.000000
0.596776 0.633887 0.000000
0.680436 0.631960 0.000000
0.759310 0.629773 0.000000
0.834174 0.627335 0.000000
0.905105 0.624675 0.000000
0.965230 0.622136 0.000000
1.000000 0.619926 0.000000
1.000000 0.618092 0.000000
1.000000 0.616641 0.000000
1.000000 0.615556 0.000000
1.000000 0.614796 0.000000
1.000000 0.614301 0.000000
1.000000 0.614005 0.000000
1.000000 0.613833 0.000000
1.000000 0.613706 0.000000
1.000000 0.613547 0.000000
1.000000 0.613273 0.000000
0.000000 0.707678 0.000000
0.000000 0.707678 0.000000
0.000000 0.707671 0.000000
0.000000 0.707640 0.000000
0.000000 0.707604 0.000000
0.000000 0.707555 0.000000
0.000000 0.707483 0.000000
0.000000 0.707375 0.000000
0.000000 0.707215 0.000000
0.000000 0.706955 0.000000
0.000000 0.706542 0.000000
0.000000 0.705941 0.000000
0.197724 0.705139 0.000000
0.358856 0.704141 0.000000
0.473264 0.702932 0.000000
0.570931 0.701502 0.000000
0.659388 0.699849 0.000000
0.741592 0.697974 0.000000
0.818898 0.695887 0.000000
0.891681 0.693613 0.000000
0.953111 0.691444 0.000000
1.000000 0.689561 0.000000
1.000000 0.687998 0.000000
1.000000 0.686763 0.000000
1.000000 0.685840 0.000000
1.000000 0.685193 0.000000
1.000000 0.684774 0.000000
1.000000 0.684522 0.000000
1.000000 0.684376 0.000000
1.000000 0.684268 0.000000
1.000000 0.684133 0.000000
1.000000 0.683900 0.000000
0.000000 0.772983 0.000000
0.000000 0.772983 0.000000
0.000000 0.772976 0.000000
0.000000 0.772949 0.000000
0.000000 0.772918 0.000000
0.000000 0.772875 0.000000
0.000000 0.772811 0.000000
0.000000 0.772717 0.000000
0.000000 0.772577 0.000000
0.000000 0.772350 0.000000
0.000000 0.771989 0.000000
0.000000 0.771464 0.000000
0.000000 0.770764 0.000000
0.292507 0.769893 0.000000
0.430977 0.768838 0.000000
0.539498 0.767590 0.000000
0.634331 0.766149 0.000000
0.720772 0.764517 0.000000
0.801100 0.762701 0.000000
0.876131 0.760724 0.000000
0.939126 0.758841 0.000000
0.988721 0.757206 0.000000
1.000000 0.755851 0.000000
1.000000 0.754782 0.000000
1.000000 0.753982 0.000000
1.000000 0.753422 0.000000
1.000000 0.753058 0.000000
1.000000 0.752841 0.000000
1.000000 0.752714 0.000000
1.000000 0.752622 0.000000
1.000000 0.752504 0.000000
1.000000 0.752303 0.000000
0.000000 0.836667 0.000000
0.000000 0.836667 0.000000
0.000000 0.836661 0.000000
0.000000 0.836638 0.000000
0.000000 0.836610 0.000000
0.000000 0.836572 0.000000
0.000000 0.836515 0.000000
0.000000 0.836432 0.000000
0.000000 0.836308 0.000000
0.000000 0.836108 0.000000
0.000000 0.835788 0.000000
0.000000 0.835323 0.000000
0.000000 0.834704 0.000000
0.183028 0.833934 0.000000
0.375998 0.833001 0.000000
0.501200 0.831899 0.000000
0.604709 0.830626 0.000000
0.696574 0.829184 0.000000
0.780635 0.827582 0.000000
0.858382 0.825839 0.000000
0.923238 0.824179 0.000000
0.974087 0.822740 0.000000
1.000000 0.821548 0.000000
1.000000 0.820606 0.000000
1.000000 0.819904 0.000000
1.000000 0.819411 0.000000
1.000000 0.819092 0.000000
1.000000 0.818900 0.000000
1.000000 0.818789 0.000000
1.000000 0.818708 0.000000
1.000000 0.818604 0.000000
1.000000 0.818428 0.000000
0.000000 0.898190 0.000000
0.000000 0.898190 0.000000
0.000000 0.898185 0.000000
0.000000 0.898163 0.000000
0.000000 0.898139 0.000000
0.000000 0.898105 0.000000
0.000000 0.898054 0.000000
0.000000 0.897979 0.000000
0.000000 0.897869 0.000000
0.000000 0.897689 0.000000
0.000000 0.897403 0.000000
0.000000 0.896987 0.000000
0.000000 0.896432 0.000000
0.000000 0.895742 0.000000
0.300144 0.894907 0.000000
0.454211 0.893921 0.000000
0.569931 0.892783 0.000000
0.668803 0.891494 0.000000
0.757466 0.890062 0.000000
0.838465 0.888506 0.000000
0.905508 0.887025 0.000000
0.957815 0.885740 0.000000
0.997892 0.884677 0.000000
1.000000 0.883838 0.000000
1.000000 0.883211 0.000000
1.000000 0.882773 0.000000
1.000000 0.882488 0.000000
1.000000 0.882318 0.000000
1.000000 0.882219 0.000000
1.000000 0.882146 0.000000
1.000000 0.882054 0.000000
1.000000 0.881897 0.000000
0.000000 0.951062 0.000000
0.000000 0.951062 0.000000
0.000000 0.951057 0.000000
0.000000 0.951038 0.000000
0.000000 0.951015 0.000000
0.000000 0.950984 0.000000
0.000000 0.950937 0.000000
0.000000 0.950870 0.000000
0.000000 0.950768 0.000000
0.000000 0.950604 0.000000
0.000000 0.950341 0.000000
0.000000 0.949961 0.000000
0.000000 0.949455 0.000000
0.000000 0.948824 0.000000
0.192095 0.948061 0.000000
0.402119 0.947160 0.000000
0.533749 0.946120 0.000000
0.640734 0.944943 0.000000
0.734426 0.943636 0.000000
0.818861 0.942215 0.000000
0.888165 0.940864 0.000000
0.941960 0.939692 0.000000
0.983043 0.938722 0.000000
1.000000 0.937958 0.000000
1.000000 0.937386 0.000000
1.000000 0.936987 0.000000
1.000000 0.936728 0.000000
1.000000 0.936572 0.000000
1.000000 0.936482 0.000000
1.000000 0.936416 0.000000
1.000000 0.936332 0.000000
1.000000 0.936189 0.000000
0.000000 0.993337 0.000000
0.000000 0.993337 0.000000
0.000000 0.993333 0.000000
0.000000 0.993314 0.000000
0.000000 0.993294 0.000000
0.000000 0.993264 0.000000
0.000000 0.993221 0.000000
0.000000 0.993157 0.000000
0.000000 0.993063 0.000000
0.000000 0.992910 0.000000
0.000000 0.992664 0.000000
0.000000 0.992310 0.000000
0.000000 0.991836 0.000000
0.000000 0.991247 0.000000
0.000000 0.990534 0.000000
0.347981 0.989694 0.000000
0.499285 0.988723 0.000000
0.614880 0.987625 0.000000
0.713572 0.986405 0.000000
0.801302 0.985080 0.000000
0.872729 0.983819 0.000000
0.927903 0.982727 0.000000
0.969912 0.981824 0.000000
1.000000 0.981111 0.000000
1.000000 0.980579 0.000000
1.000000 0.980206 0.000000
1.000000 0.979964 0.000000
1.000000 0.979820 0.000000
1.000000 0.979735 0.000000
1.000000 0.979674 0.000000
1.000000 0.979596 0.000000
1.000000 0.979462 0.000000
0.000000 1.000000 0.000000
0.000000 1.000000 0.000000
0.000000 1.000000 0.000000
0.000000 1.000000 0.000000
0.000000 1.000000 0.000000
0.000000 1.000000 0.000000
0.000000 1.000000 0.000000
0.000000 1.000000 0.000000
0.000000 1.000000 0.000000
0.000000 1.000000 0.000000
0.000000 1.000000 0.000000
0.000000 1.000000 0.000000
0.000000 1.000000 0.000000
0.000000 1.000000 0.000000
0.000000 1.000000 0.000000
0.292652 1.000000 0.000000
0.467962 1.000000 0.000000
0.592221 1.000000 0.000000
0.695612 1.000000 0.000000
0.786331 1.000000 0.000000
0.859645 1.000000 0.000000
0.916030 1.000000 0.000000
0.958845 1.000000 0.000000
0.990564 1.000000 0.000000
1.000000 1.000000 0.000000
1.000000 1.000000 0.000000
1.000000 1.000000 0.000000
1.000000 1.000000 0.000000
1.000000 1.000000 0.000000
1.000000 1.000000 0.000000
1.000000 1.000000 0.000000
1.000000 1.000000 0.000000
0.000000 1.000000 0.000000
0.000000 1.000000 0.000000
0.000000 1.000000 0.000000
0.000000 1.000000 0.000000
0.000000 1.000000 0.000000
0.000000 1.000000 0.000000
0.000000 1.000000 0.000000
0.000000 1.000000 0.000000
0.000000 1.000000 0.000000
0.000000 1.000000 0.000000
0.000000 1.000000 0.000000
0.000000 1.000000 0.000000
0.000000 1.000000 0.000000
0.000000 1.000000 0.000000
0.000000 1.000000 0.000000
0.236934 1.000000 0.000000
0.441004 1.000000 0.000000
0.573430 1.000000 0.000000
0.680959 1.000000 0.000000
0.774226 1.000000 0.000000
0.849120 1.000000 0.000000
0.906508 1.000000 0.000000
0.949988 1.000000 0.000000
0.982152 1.000000 0.000000
1.000000 1.000000 0.000000
1.000000 1.000000 0.000000
1.000000 1.000000 0.000000
1.000000 1.000000 0.000000
1.000000 1.000000 0.000000
1.000000 1.000000 0.000000
1.000000 1.000000 0.000000
1.000000 1.000000 0.000000
0.000000 1.000000 0.000000
0.000000 1.000000 0.000000
0.000000 1.000000 0.000000
0.000000 1.000000 0.000000
0.000000 1.000000 0.000000
0.000000 1.000000 0.000000
0.000000 1.000000 0.000000
0.000000 1.000000 0.000000
0.000000 1.000000 0.000000
0.000000 1.000000 0.000000
0.000000 1.000000 0.000000
0.000000 1.000000 0.000000
0.000000 1.000000 0.000000
0.000000 1.000000 0.000000
0.000000 1.000000 0.000000
0.181565 1.000000 0.000000
0.419271 1.000000 0.000000
0.558799 1.000000 0.000000
0.669712 1.000000 0.000000
0.765006 1.000000 0.000000
0.841138 1.000000 0.000000
0.899305 1.000000 0.000000
0.943296 1.000000 0.000000
0.975804 1.000000 0.000000
0.998985 1.000000 0.000000
1.000000 1.000000 0.000000
1.000000 1.000000 0.000000
1.000000 1.000000 0.000000
1.000000 1.000000 0.000000
1.000000 1.000000 0.000000
1.000000 1.000000 0.000000
1.000000 1.000000 0.000000
0.000000 1.000000 0.000000
0.000000 1.000000 0.000000
0.000000 1.000000 0.000000
0.000000 1.000000 0.000000
0.000000 1.000000 0.000000
0.000000 1.000000 0.000000
0.000000 1.000000 0.000000
0.000000 1.000000 0.000000
0.000000 1.000000 0.000000
0.000000 1.000000 0.000000
0.000000 1.000000 0.000000
0.000000 1.000000 0.000000
0.000000 1.000000 0.000000
0.000000 1.000000 0.000000
0.000000 1.000000 0.000000
0.127130 1.000000 0.000000
0.403070 1.000000 0.000000
0.548218 1.000000 0.000000
0.661670 1.000000 0.000000
0.758453 1.000000 0.000000
0.835482 1.000000 0.000000
0.894210 1.000000 0.000000
0.938570 1.000000 0.000000
0.971324 1.000000 0.000000
0.994667 1.000000 0.000000
1.000000 1.000000 0.000000
1.000000 1.000000 0.000000
1.000000 1.000000 0.000000
1.000000 1.000000 0.000000
1.000000 1.000000 0.000000
1.000000 1.000000 0.000000
1.000000 1.000000 0.000000
0.000000 1.000000 0.000000
0.000000 1.000000 0.000000
0.000000 1.000000 0.000000
0.000000 1.000000 0.000000
0.000000 1.000000 0.000000
0.000000 1.000000 0.000000
0.000000 1.000000 0.000000
0.000000 1.000000 0.000000
0.000000 1.000000 0.000000
0.000000 1.000000 0.000000
0.000000 1.000000 0.000000
0.000000 1.000000 0.000000
0.000000 1.000000 0.000000
0.000000 1.000000 0.000000
0.000000 1.000000 0.000000
0.073630 1.000000 0.000000
0.392059 1.000000 0.000000
0.541191 1.000000 0.000000
0.656374 1.000000 0.000000
0.754154 1.000000 0.000000
0.831781 1.000000 0.000000
0.890881 1.000000 0.000000
0.935485 1.000000 0.000000
0.968400 1.000000 0.000000
0.991852 1.000000 0.000000
1.000000 1.000000 0.000000
1.000000 1.000000 0.000000
1.000000 1.000000 0.000000
1.000000 1.000000 0.000000
1.000000 1.000000 0.000000
1.000000 1.000000 0.000000
1.000000 1.000000 0.000000
0.000000 1.000000 0.000000
0.000000 1.000000 0.000000
0.000000 1.000000 0.000000
0.000000 1.000000 0.000000
0.000000 1.000000 0.000000
0.000000 1.000000 0.000000
0.000000 1.000000 0.000000
0.000000 1.000000 0.000000
0.000000 1.000000 0.000000
0.000000 1.000000 0.000000
0.000000 1.000000 0.000000
0.000000 1.000000 0.000000
0.000000 1.000000 0.000000
0.000000 1.000000 0.000000
0.000000 1.000000 0.000000
0.025653 1.000000 0.000000
0.385261 1.000000 0.000000
0.536923 1.000000 0.000000
0.653175 1.000000 0.000000
0.751564 1.000000 0.000000
