Vibe/Lumetri/LUTs/Technical/ALEXA_Default_LogC2Rec709.cube
# Alexa conversion LUT, logc2video, itu709. Full in/full out.
# created by alexalutconv (2.09)
LUT_3D_SIZE 8
DOMAIN_MIN 0.000000 0.000000 0.000000
DOMAIN_MAX 0.903226 0.903226 0.903226
0.000000 0.000000 0.000000
0.056990 0.000000 0.000413
0.204744 0.000000 0.002586
0.465816 0.000000 0.014138
0.752063 0.000000 0.043350
1.000000 0.000000 0.084406
1.000000 0.000000 0.104812
1.000000 0.000000 0.109557
0.000000 0.049236 0.000000
0.041595 0.047941 0.000000
0.199893 0.041140 0.000000
0.464180 0.004980 0.009455
0.751259 0.000000 0.038667
1.000000 0.000000 0.080845
1.000000 0.000000 0.101863
1.000000 0.000000 0.106726
0.000000 0.188971 0.000000
0.000000 0.188529 0.000000
0.171809 0.186189 0.000000
0.455444 0.173140 0.000000
0.747015 0.134046 0.014068
1.000000 0.029068 0.059717
1.000000 0.000000 0.084957
1.000000 0.000000 0.090595
0.000000 0.436395 0.000000
0.000000 0.436244 0.000000
0.000000 0.435452 0.000000
0.404384 0.431205 0.000000
0.723804 0.420192 0.000000
0.991225 0.402097 0.000000
1.000000 0.389571 0.000000
1.000000 0.386229 0.000000
0.000000 0.707678 0.000000
0.000000 0.707604 0.000000
0.000000 0.707215 0.000000
0.197724 0.705139 0.000000
0.659388 0.699849 0.000000
0.953111 0.691444 0.000000
1.000000 0.685840 0.000000
1.000000 0.684376 0.000000
0.000000 0.951062 0.000000
0.000000 0.951015 0.000000
0.000000 0.950768 0.000000
0.000000 0.949455 0.000000
0.533749 0.946120 0.000000
0.888165 0.940864 0.000000
1.000000 0.937386 0.000000
1.000000 0.936482 0.000000
0.000000 1.000000 0.000000
0.000000 1.000000 0.000000
0.000000 1.000000 0.000000
0.000000 1.000000 0.000000
0.419271 1.000000 0.000000
0.841138 1.000000 0.000000
0.998985 1.000000 0.000000
1.000000 1.000000 0.000000
0.000000 1.000000 0.000000
0.000000 1.000000 0.000000
0.000000 1.000000 0.000000
0.000000 1.000000 0.000000
0.381229 1.000000 0.000000
0.828256 1.000000 0.000000
0.989175 1.000000 0.000000
1.000000 1.000000 0.000000
0.000000 0.000000 0.042649
0.053777 0.000000 0.043062
0.203743 0.000000 0.045235
0.465475 0.000000 0.056784
0.751895 0.000000 0.082085
1.000000 0.000000 0.112414
1.000000 0.000000 0.128803
1.000000 0.000000 0.132733
0.000000 0.039674 0.037966
0.038379 0.038379 0.038379
0.198863 0.031579 0.040552
0.463837 0.000000 0.052103
0.751091 0.000000 0.078443
1.000000 0.000000 0.109650
1.000000 0.000000 0.126382
1.000000 0.000000 0.130383
0.000000 0.185679 0.013365
0.000000 0.185228 0.013778
0.170585 0.182840 0.015951
0.455092 0.169503 0.027503
0.746846 0.129253 0.056714
1.000000 0.019506 0.093955
1.000000 0.000000 0.112845
1.000000 0.000000 0.117290
0.000000 0.435281 0.000000
0.000000 0.435130 0.000000
0.000000 0.434335 0.000000
0.403968 0.430072 0.000000
0.723626 0.419017 0.000000
0.991116 0.400848 0.000000
1.000000 0.388265 0.001656
1.000000 0.384907 0.009443
0.000000 0.707131 0.000000
0.000000 0.707057 0.000000
0.000000 0.706667 0.000000
0.196681 0.704589 0.000000
0.659183 0.699292 0.000000
0.952994 0.690877 0.000000
1.000000 0.685266 0.000000
1.000000 0.683800 0.000000
0.000000 0.950715 0.000000
0.000000 0.950668 0.000000
0.000000 0.950421 0.000000
0.000000 0.949107 0.000000
0.533469 0.945770 0.000000
0.888034 0.940511 0.000000
1.000000 0.937032 0.000000
1.000000 0.936126 0.000000
0.000000 1.000000 0.000000
0.000000 1.000000 0.000000
0.000000 1.000000 0.000000
0.000000 1.000000 0.000000
0.418875 1.000000 0.000000
0.840996 1.000000 0.000000
0.998877 1.000000 0.000000
1.000000 1.000000 0.000000
0.000000 1.000000 0.000000
0.000000 1.000000 0.000000
0.000000 1.000000 0.000000
0.000000 1.000000 0.000000
0.380777 1.000000 0.000000
0.828111 1.000000 0.000000
0.989065 1.000000 0.000000
1.000000 1.000000 0.000000
0.000000 0.000000 0.174288
0.036884 0.000000 0.174442
0.198381 0.000000 0.175251
0.463677 0.000000 0.179480
0.751013 0.000000 0.189705
1.000000 0.000000 0.204549
1.000000 0.000000 0.213649
1.000000 0.000000 0.215935
0.000000 0.000000 0.172530
0.021486 0.000000 0.172686
0.193344 0.000000 0.173503
0.462030 0.000000 0.177779
0.750207 0.000000 0.188108
1.000000 0.000000 0.203086
1.000000 0.000000 0.212259
1.000000 0.000000 0.214564
0.000000 0.167185 0.162952
0.000000 0.166678 0.163119
0.163987 0.163987 0.163987
0.453235 0.148806 0.168529
0.745954 0.100565 0.179454
1.000000 0.000000 0.195192
1.000000 0.000000 0.204778
1.000000 0.000000 0.207181
0.000000 0.429361 0.096772
0.000000 0.429208 0.097047
0.000000 0.428397 0.098484
0.401771 0.424049 0.105833
0.722691 0.412767 0.122620
0.990541 0.394191 0.145149
1.000000 0.381302 0.158171
1.000000 0.377859 0.161368
0.000000 0.704245 0.000000
0.000000 0.704170 0.000000
0.000000 0.703778 0.000000
0.191089 0.701687 0.000000
0.658105 0.696356 0.000000
0.952383 0.687886 0.000000
1.000000 0.682238 0.000000
1.000000 0.680762 0.000000
0.000000 0.948889 0.000000
0.000000 0.948842 0.000000
0.000000 0.948595 0.000000
0.000000 0.947276 0.000000
0.531994 0.943929 0.000000
0.887353 0.938654 0.000000
1.000000 0.935164 0.000000
1.000000 0.934256 0.000000
0.000000 1.000000 0.000000
0.000000 1.000000 0.000000
0.000000 1.000000 0.000000
0.000000 1.000000 0.000000
0.416787 1.000000 0.000000
0.840254 1.000000 0.000000
0.998309 1.000000 0.000000
1.000000 1.000000 0.000000
0.000000 1.000000 0.000000
0.000000 1.000000 0.000000
0.000000 1.000000 0.000000
0.000000 1.000000 0.000000
0.378391 1.000000 0.000000
0.827351 1.000000 0.000000
0.988489 1.000000 0.000000
1.000000 1.000000 0.000000
0.000000 0.000000 0.409008
0.000000 0.000000 0.409061
0.166546 0.000000 0.409337
0.453947 0.000000 0.410803
0.746296 0.000000 0.414478
1.000000 0.000000 0.420140
1.000000 0.000000 0.423801
1.000000 0.000000 0.424743
0.000000 0.000000 0.408411
0.000000 0.000000 0.408464
0.160380 0.000000 0.408741
0.452249 0.000000 0.410209
0.745482 0.000000 0.413892
1.000000 0.000000 0.419565
1.000000 0.000000 0.423233
1.000000 0.000000 0.424177
0.000000 0.000000 0.405254
0.000000 0.000000 0.405308
0.122734 0.000000 0.405588
0.443177 0.000000 0.407073
0.741188 0.000000 0.410794
1.000000 0.000000 0.416526
1.000000 0.000000 0.420231
1.000000 0.000000 0.421184
0.000000 0.395759 0.387864
0.000000 0.395586 0.387921
0.000000 0.394677 0.388218
0.389796 0.389796 0.389796
0.717686 0.377059 0.393746
0.987477 0.355851 0.399820
1.000000 0.340935 0.403740
1.000000 0.336920 0.404748
0.000000 0.688586 0.338244
0.000000 0.688509 0.338312
0.000000 0.688103 0.338671
0.157597 0.685939 0.340568
0.652332 0.680420 0.345305
0.949124 0.671646 0.352547
1.000000 0.665788 0.357195
1.000000 0.664255 0.358387
0.000000 0.939088 0.231540
0.000000 0.939040 0.231652
0.000000 0.938788 0.232233
0.000000 0.937449 0.235296
0.524046 0.934046 0.242834
0.883711 0.928683 0.254081
1.000000 0.925134 0.261142
1.000000 0.924210 0.262935
0.000000 1.000000 0.098635
0.000000 1.000000 0.098906
0.000000 1.000000 0.100319
0.000000 1.000000 0.107556
0.405428 1.000000 0.124125
0.836289 1.000000 0.146423
0.995283 1.000000 0.159336
1.000000 1.000000 0.162507
0.000000 1.000000 0.021255
0.000000 1.000000 0.021668
0.000000 1.000000 0.023841
0.000000 1.000000 0.035392
0.365344 1.000000 0.064239
0.823289 1.000000 0.099227
0.985414 1.000000 0.117347
1.000000 1.000000 0.121637
0.000000 0.000000 0.666362
0.000000 0.000000 0.666388
0.019306 0.000000 0.666525
0.427917 0.000000 0.667247
0.734158 0.000000 0.669071
0.997628 0.000000 0.671908
1.000000 0.000000 0.673763
1.000000 0.000000 0.674243
0.000000 0.000000 0.666068
0.000000 0.000000 0.666095
0.003908 0.000000 0.666231
0.426070 0.000000 0.666954
0.733324 0.000000 0.668779
0.997109 0.000000 0.671619
1.000000 0.000000 0.673475
1.000000 0.000000 0.673954
0.000000 0.000000 0.664523
0.000000 0.000000 0.664549
0.000000 0.000000 0.664687
0.416180 0.000000 0.665412
0.728920 0.000000 0.667243
0.994379 0.000000 0.670093
1.000000 0.000000 0.671955
1.000000 0.000000 0.672436
0.000000 0.285642 0.656215
0.000000 0.285374 0.656241
0.000000 0.283966 0.656380
0.356991 0.276319 0.657121
0.704788 0.255666 0.658986
0.979661 0.218374 0.661890
1.000000 0.189011 0.663786
1.000000 0.180488 0.664276
0.000000 0.646374 0.634465
0.000000 0.646289 0.634493
0.000000 0.645843 0.634639
0.000000 0.643462 0.635417
0.637379 0.637379 0.637379
0.940801 0.627681 0.640431
1.000000 0.621189 0.642423
1.000000 0.619489 0.642938
0.000000 0.913559 0.597997
0.000000 0.913509 0.598028
0.000000 0.913246 0.598188
0.000000 0.911847 0.599037
0.503124 0.908294 0.601178
0.874395 0.902690 0.604507
1.000000 0.898979 0.606677
1.000000 0.898013 0.607238
0.000000 1.000000 0.572129
0.000000 1.000000 0.572161
0.000000 1.000000 0.572332
0.000000 1.000000 0.573239
0.374525 1.000000 0.575523
0.826130 1.000000 0.579072
0.987564 1.000000 0.581385
1.000000 1.000000 0.581982
0.000000 1.000000 0.565131
0.000000 1.000000 0.565164
0.000000 1.000000 0.565338
0.000000 1.000000 0.566262
0.329140 1.000000 0.568587
0.812878 1.000000 0.572200
0.977572 1.000000 0.574554
1.000000 1.000000 0.575162
0.000000 0.000000 0.897249
0.000000 0.000000 0.897265
0.000000 0.000000 0.897352
0.382029 0.000000 0.897811
0.714524 0.000000 0.898969
0.985550 0.000000 0.900776
1.000000 0.000000 0.901961
1.000000 0.000000 0.902268
0.000000 0.000000 0.897063
0.000000 0.000000 0.897079
0.000000 0.000000 0.897166
0.379865 0.000000 0.897625
0.713656 0.000000 0.898783
0.985022 0.000000 0.900591
1.000000 0.000000 0.901776
1.000000 0.000000 0.902083
0.000000 0.000000 0.896085
0.000000 0.000000 0.896102
0.000000 0.000000 0.896188
0.368208 0.000000 0.896647
0.709064 0.000000 0.897808
0.982239 0.000000 0.899619
1.000000 0.000000 0.900806
1.000000 0.000000 0.901113
0.000000 0.000000 0.890855
0.000000 0.000000 0.890872
0.000000 0.000000 0.890959
0.295435 0.000000 0.891422
0.683852 0.000000 0.892593
0.967229 0.000000 0.894422
1.000000 0.000000 0.895619
1.000000 0.000000 0.895929
0.000000 0.570522 0.877410
0.000000 0.570419 0.877427
0.000000 0.569881 0.877517
0.000000 0.567010 0.877992
0.612864 0.559652 0.879191
0.927541 0.547841 0.881062
1.000000 0.539878 0.882288
1.000000 0.537784 0.882605
0.000000 0.871216 0.855704
0.000000 0.871162 0.855722
0.000000 0.870879 0.855815
0.000000 0.869372 0.856308
0.467601 0.865544 0.857555
0.859500 0.859500 0.859500
1.000000 0.855494 0.860773
1.000000 0.854450 0.861103
0.000000 1.000000 0.840972
0.000000 1.000000 0.840990
0.000000 1.000000 0.841086
0.000000 1.000000 0.841592
0.317639 0.999161 0.842873
0.809833 0.994339 0.844871
0.975289 0.991151 0.846178
1.000000 0.990322 0.846517
0.000000 1.000000 0.837086
0.000000 1.000000 0.837104
0.000000 1.000000 0.837200
0.000000 1.000000 0.837711
0.258574 1.000000 0.839000
0.796158 1.000000 0.841011
0.965097 1.000000 0.842329
1.000000 1.000000 0.842670
0.000000 0.000000 1.000000
0.000000 0.000000 1.000000
0.000000 0.000000 1.000000
0.347202 0.000000 1.000000
0.701172 0.000000 1.000000
0.977491 0.000000 1.000000
1.000000 0.000000 1.000000
1.000000 0.000000 1.000000
0.000000 0.000000 1.000000
0.000000 0.000000 1.000000
0.000000 0.000000 1.000000
0.344735 0.000000 1.000000
0.700278 0.000000 1.000000
0.976955 0.000000 1.000000
1.000000 0.000000 1.000000
1.000000 0.000000 1.000000
0.000000 0.000000 1.000000
0.000000 0.000000 1.000000
0.000000 0.000000 1.000000
0.331365 0.000000 1.000000
0.695551 0.000000 1.000000
0.974136 0.000000 1.000000
1.000000 0.000000 1.000000
1.000000 0.000000 1.000000
0.000000 0.000000 1.000000
0.000000 0.000000 1.000000
0.000000 0.000000 1.000000
0.243630 0.000000 1.000000
0.669559 0.000000 1.000000
0.958926 0.000000 1.000000
1.000000 0.000000 1.000000
1.000000 0.000000 1.000000
0.000000 0.511254 0.992658
0.000000 0.511134 0.992672
0.000000 0.510502 0.992746
0.000000 0.507126 0.993137
0.595935 0.498440 0.994127
0.918670 0.484389 0.995672
1.000000 0.474834 0.996684
1.000000 0.472311 0.996947
0.000000 0.841572 0.974851
0.000000 0.841515 0.974865
0.000000 0.841217 0.974941
0.000000 0.839626 0.975344
0.441997 0.835585 0.976362
0.849496 0.829198 0.977951
1.000000 0.824963 0.978992
1.000000 0.823859 0.979262
0.000000 0.980129 0.962873
0.000000 0.980085 0.962888
0.000000 0.979849 0.962965
0.000000 0.978596 0.963376
0.271388 0.975417 0.964413
0.798849 0.970407 0.966034
0.967096 0.967096 0.967096
1.000000 0.966234 0.967370
0.000000 1.000000 0.959728
0.000000 1.000000 0.959743
0.000000 1.000000 0.959821
0.000000 1.000000 0.960234
0.194370 1.000000 0.961276
0.784878 1.000000 0.962906
0.956766 0.999016 0.963972
0.994167 0.998198 0.964249
0.000000 0.000000 1.000000
0.000000 0.000000 1.000000
0.000000 0.000000 1.000000
0.337360 0.000000 1.000000
0.697645 0.000000 1.000000
0.975384 0.000000 1.000000
1.000000 0.000000 1.000000
1.000000 0.000000 1.000000
0.000000 0.000000 1.000000
0.000000 0.000000 1.000000
0.000000 0.000000 1.000000
0.334795 0.000000 1.000000
0.696744 0.000000 1.000000
0.974847 0.000000 1.000000
1.000000 0.000000 1.000000
1.000000 0.000000 1.000000
0.000000 0.000000 1.000000
0.000000 0.000000 1.000000
0.000000 0.000000 1.000000
0.320867 0.000000 1.000000
0.691981 0.000000 1.000000
0.972018 0.000000 1.000000
1.000000 0.000000 1.000000
1.000000 0.000000 1.000000
0.000000 0.000000 1.000000
0.000000 0.000000 1.000000
0.000000 0.000000 1.000000
0.227734 0.000000 1.000000
0.665776 0.000000 1.000000
0.956754 0.000000 1.000000
1.000000 0.000000 1.000000
1.000000 0.000000 1.000000
0.000000 0.494149 1.000000
0.000000 0.494023 1.000000
0.000000 0.493360 1.000000
0.000000 0.489811 1.000000
0.591427 0.480668 1.000000
0.916347 0.465837 1.000000
1.000000 0.455719 1.000000
1.000000 0.453041 1.000000
0.000000 0.833615 1.000000
0.000000 0.833558 1.000000
0.000000 0.833255 1.000000
0.000000 0.831641 1.000000
0.435003 0.827539 1.000000
0.846872 0.821055 1.000000
1.000000 0.816754 1.000000
1.000000 0.815633 1.000000
0.000000 0.973869 0.990800
0.000000 0.973824 0.990815
0.000000 0.973586 0.990888
0.000000 0.972321 0.991281
0.257615 0.969108 0.992273
0.795963 0.964047 0.993823
0.964952 0.960701 0.994839
1.000000 0.959830 0.995102
0.000000 1.000000 0.987794
0.000000 1.000000 0.987809
0.000000 1.000000 0.987883
0.000000 1.000000 0.988277
0.173069 1.000000 0.989274
0.781911 0.996120 0.990831
0.954586 0.992943 0.991852
0.992116 0.992116 0.992116
