Vibe/Lumetri/LUTs/Technical/AMIRA_Default_LogC2Rec709.cube
# 
# created by ACT (1.0)
LUT_3D_SIZE 32
0.000000 0.000000 0.000000
0.000240 0.000039 0.000047
0.001604 0.000032 0.000093
0.004993 0.000000 0.000008
0.011122 0.000000 0.000000
0.020743 0.000000 0.000000
0.034430 0.000000 0.000000
0.052512 0.000000 0.000000
0.073342 0.000000 0.000000
0.093801 0.000000 0.000000
0.116803 0.000000 0.000000
0.142833 0.000000 0.000000
0.171350 0.000000 0.000000
0.201568 0.000000 0.000000
0.232450 0.000000 0.000000
0.262956 0.000000 0.000000
0.293516 0.000000 0.000000
0.324067 0.000000 0.000000
0.354442 0.000000 0.000000
0.384565 0.000000 0.000000
0.414459 0.000000 0.000000
0.444227 0.000000 0.000000
0.473996 0.000000 0.000000
0.503577 0.000000 0.000000
0.532753 0.000000 0.000000
0.561394 0.000000 0.000000
0.589365 0.000000 0.000000
0.616530 0.000000 0.000000
0.642753 0.000000 0.000000
0.667934 0.000000 0.000000
0.692099 0.000000 0.000000
0.715299 0.000000 0.000000
0.000448 0.001058 0.000566
0.001588 0.001738 0.000557
0.004606 0.002325 0.000236
0.010311 0.002646 0.000000
0.019426 0.002296 0.000000
0.032810 0.001224 0.000000
0.051022 0.000000 0.000000
0.072672 0.000000 0.000000
0.093683 0.000000 0.000000
0.117190 0.000000 0.000000
0.143775 0.000000 0.000000
0.173524 0.000000 0.000000
0.205884 0.000000 0.000000
0.240043 0.000000 0.000000
0.274949 0.000000 0.000000
0.309303 0.000000 0.000000
0.342470 0.000000 0.000000
0.375199 0.000000 0.000000
0.407283 0.000000 0.000000
0.438587 0.000000 0.000000
0.469132 0.000000 0.000000
0.499040 0.000000 0.000000
0.528530 0.000000 0.000000
0.557790 0.000000 0.000000
0.586507 0.000000 0.000000
0.614516 0.000000 0.000000
0.641683 0.000000 0.000000
0.667885 0.000000 0.000000
0.693111 0.000000 0.000000
0.717413 0.000000 0.000000
0.740841 0.000000 0.000000
0.763447 0.000000 0.000000
0.000453 0.005164 0.001366
0.002531 0.006823 0.000658
0.007194 0.008333 0.000000
0.015100 0.009286 0.000000
0.026923 0.009501 0.000000
0.043470 0.008938 0.000000
0.064875 0.007463 0.000000
0.087149 0.005005 0.000000
0.111773 0.001372 0.000000
0.139779 0.000000 0.000000
0.170613 0.000000 0.000000
0.204074 0.000000 0.000000
0.240059 0.000000 0.000000
0.277955 0.000000 0.000000
0.316693 0.000000 0.000000
0.354902 0.000000 0.000000
0.391123 0.000000 0.000000
0.425826 0.000000 0.000000
0.459442 0.000000 0.000000
0.491877 0.000000 0.000000
0.523138 0.000000 0.000000
0.553333 0.000000 0.000000
0.582669 0.000000 0.000000
0.611441 0.000000 0.000000
0.639658 0.000000 0.000000
0.666993 0.000000 0.000000
0.693391 0.000000 0.000000
0.718791 0.000000 0.000000
0.743298 0.000000 0.000000
0.767011 0.000000 0.000000
0.789979 0.000000 0.000000
0.812227 0.000000 0.000000
0.000000 0.013611 0.001210
0.001370 0.016513 0.000000
0.007664 0.019054 0.000000
0.017690 0.020700 0.000000
0.032183 0.021666 0.000000
0.051773 0.021808 0.000000
0.074963 0.021000 0.000000
0.099482 0.019058 0.000000
0.127863 0.015683 0.000000
0.159758 0.010741 0.000000
0.194565 0.004175 0.000000
0.231893 0.000000 0.000000
0.271776 0.000000 0.000000
0.313434 0.000000 0.000000
0.355842 0.000000 0.000000
0.397740 0.000000 0.000000
0.437654 0.000000 0.000000
0.474640 0.000000 0.000000
0.510021 0.000000 0.000000
0.543793 0.000000 0.000000
0.575928 0.000000 0.000000
0.606543 0.000000 0.000000
0.635834 0.000000 0.000000
0.664087 0.000000 0.000000
0.691648 0.000000 0.000000
0.718414 0.000000 0.000000
0.744351 0.000000 0.000000
0.769513 0.000000 0.000000
0.793847 0.000000 0.000000
0.817149 0.000000 0.000000
0.839422 0.000000 0.000000
0.860666 0.000000 0.000000
0.000000 0.027619 0.000000
0.000000 0.031934 0.000000
0.004445 0.035160 0.000000
0.016715 0.037774 0.000000
0.033882 0.039647 0.000000
0.056483 0.040656 0.000000
0.081703 0.040668 0.000000
0.110025 0.039331 0.000000
0.142176 0.036316 0.000000
0.177773 0.031390 0.000000
0.216257 0.024451 0.000000
0.257003 0.015450 0.000000
0.300177 0.004027 0.000000
0.345167 0.000000 0.000000
0.390981 0.000000 0.000000
0.436394 0.000000 0.000000
0.479966 0.000000 0.000000
0.520131 0.000000 0.000000
0.557588 0.000000 0.000000
0.593015 0.000000 0.000000
0.626394 0.000000 0.000000
0.657811 0.000000 0.000000
0.687459 0.000000 0.000000
0.715732 0.000000 0.000000
0.743156 0.000000 0.000000
0.769823 0.000000 0.000000
0.795373 0.000000 0.000000
0.819812 0.000000 0.000000
0.843163 0.000000 0.000000
0.865445 0.000000 0.000000
0.886663 0.000000 0.000000
0.906825 0.000000 0.000000
0.000000 0.048142 0.000000
0.000000 0.053225 0.000000
0.000000 0.057617 0.000000
0.010973 0.061187 0.000000
0.030916 0.063881 0.000000
0.056504 0.065615 0.000000
0.085495 0.066264 0.000000
0.117872 0.065493 0.000000
0.153766 0.063015 0.000000
0.192979 0.058449 0.000000
0.235056 0.051401 0.000000
0.279336 0.041969 0.000000
0.325857 0.029845 0.000000
0.374159 0.014861 0.000000
0.423304 0.000000 0.000000
0.472117 0.000000 0.000000
0.519208 0.000000 0.000000
0.563001 0.000000 0.000000
0.602876 0.000000 0.000000
0.640263 0.000000 0.000000
0.675180 0.000000 0.000000
0.707721 0.000000 0.000000
0.737945 0.000000 0.000000
0.766207 0.000000 0.000000
0.792984 0.000000 0.000000
0.818778 0.000000 0.000000
0.843506 0.000000 0.000000
0.867088 0.000000 0.000000
0.889551 0.000000 0.000000
0.910903 0.000000 0.000000
0.931159 0.000000 0.000000
0.950369 0.000000 0.000000
0.000000 0.072991 0.000000
0.000000 0.078564 0.000000
0.000000 0.083290 0.000000
0.000000 0.087329 0.000000
0.021125 0.090641 0.000000
0.049303 0.093190 0.000000
0.084044 0.094791 0.000000
0.121443 0.095162 0.000000
0.161709 0.094074 0.000000
0.204922 0.091255 0.000000
0.250804 0.086394 0.000000
0.298796 0.079121 0.000000
0.348858 0.068628 0.000000
0.400555 0.053607 0.000000
0.453024 0.034648 0.000000
0.505156 0.013209 0.000000
0.555626 0.000000 0.000000
0.602924 0.000000 0.000000
0.645599 0.000000 0.000000
0.684710 0.000000 0.000000
0.720706 0.000000 0.000000
0.753774 0.000000 0.000000
0.784207 0.000000 0.000000
0.812389 0.000000 0.000000
0.838777 0.000000 0.000000
0.863893 0.000000 0.000000
0.888013 0.000000 0.000000
0.910928 0.000000 0.000000
0.932652 0.000000 0.000000
0.953207 0.000000 0.000000
0.972654 0.000000 0.000000
0.991023 0.000000 0.000000
0.000000 0.100217 0.000000
0.000000 0.107128 0.000000
0.000000 0.113154 0.000000
0.000000 0.118372 0.000000
0.000491 0.122867 0.000000
0.030921 0.126629 0.000000
0.073321 0.129496 0.000000
0.118478 0.131269 0.000000
0.164629 0.131787 0.000000
0.212750 0.130878 0.000000
0.262985 0.128371 0.000000
0.315074 0.124101 0.000000
0.368994 0.117759 0.000000
0.424282 0.108976 0.000000
0.480151 0.097347 0.000000
0.535340 0.082162 0.000000
0.588468 0.062707 0.000000
0.638081 0.040010 0.000000
0.682733 0.019874 0.000000
0.723175 0.002927 0.000000
0.760275 0.000000 0.000000
0.794199 0.000000 0.000000
0.825223 0.000000 0.000000
0.853710 0.000000 0.000000
0.880102 0.000000 0.000000
0.904897 0.000000 0.000000
0.928579 0.000000 0.000000
0.951025 0.010549 0.000000
0.972174 0.027187 0.000000
0.992117 0.049312 0.000000
1.000000 0.075154 0.000000
1.000000 0.098474 0.000000
0.000000 0.132578 0.000000
0.000000 0.140933 0.000000
0.000000 0.148639 0.000000
0.000000 0.155351 0.000000
0.000000 0.161322 0.000000
0.000000 0.166563 0.000000
0.046144 0.170944 0.000000
0.106166 0.174334 0.000000
0.161304 0.176636 0.000000
0.215971 0.177753 0.000000
0.271526 0.177607 0.000000
0.328343 0.176086 0.000000
0.386182 0.172842 0.000000
0.444596 0.167745 0.000000
0.502873 0.160773 0.000000
0.560048 0.152056 0.000000
0.614987 0.141972 0.000000
0.666468 0.131292 0.000000
0.713165 0.121424 0.000000
0.755211 0.113353 0.000000
0.793711 0.107311 0.000000
0.828808 0.104147 0.000000
0.860756 0.104478 0.000000
0.889897 0.108483 0.000000
0.916649 0.115860 0.000000
0.941492 0.125943 0.000000
0.964951 0.137913 0.000000
0.987114 0.149227 0.000000
1.000000 0.162139 0.000000
1.000000 0.176144 0.000000
1.000000 0.190359 0.000000
1.000000 0.204513 0.000000
0.000000 0.170809 0.000000
0.000000 0.180766 0.000000
0.000000 0.190170 0.000000
0.000000 0.198592 0.000000
0.000000 0.206317 0.000000
0.000000 0.213329 0.000000
0.000000 0.219492 0.000000
0.077560 0.224728 0.000000
0.149388 0.228846 0.000000
0.213205 0.231618 0.000000
0.274949 0.233006 0.000000
0.336295 0.232972 0.000000
0.397662 0.231499 0.000000
0.458870 0.228613 0.000000
0.519384 0.224424 0.000000
0.578458 0.219158 0.000000
0.635167 0.213211 0.000000
0.688440 0.207223 0.000000
0.737089 0.202142 0.000000
0.780943 0.198681 0.000000
0.821066 0.196888 0.000000
0.857585 0.197139 0.000000
0.890730 0.199667 0.000000
0.920817 0.204516 0.000000
0.948242 0.211549 0.000000
0.973459 0.220476 0.000000
0.996934 0.229889 0.000000
1.000000 0.239940 0.000000
1.000000 0.250741 0.000000
1.000000 0.261925 0.000000
1.000000 0.273295 0.000000
1.000000 0.284811 0.000000
0.000000 0.215268 0.000000
0.000000 0.227137 0.000000
0.000000 0.238406 0.000000
0.000000 0.248760 0.000000
0.000000 0.258370 0.000000
0.000000 0.267038 0.000000
0.000000 0.274548 0.000000
0.011543 0.280824 0.000000
0.120834 0.285823 0.000000
0.199944 0.289524 0.000000
0.270126 0.291918 0.000000
0.337121 0.293021 0.000000
0.402571 0.292876 0.000000
0.466859 0.291574 0.000000
0.529807 0.289262 0.000000
0.590906 0.286172 0.000000
0.649417 0.282655 0.000000
0.704430 0.279219 0.000000
0.754904 0.276550 0.000000
0.800672 0.275159 0.000000
0.842564 0.275135 0.000000
0.880682 0.276738 0.000000
0.915227 0.280125 0.000000
0.946490 0.285337 0.000000
0.974817 0.292274 0.000000
1.000000 0.300245 0.000000
1.000000 0.308353 0.000000
1.000000 0.317118 0.000000
1.000000 0.326392 0.000000
1.000000 0.335992 0.000000
1.000000 0.345866 0.000000
1.000000 0.355973 0.000000
0.000000 0.266073 0.000000
0.000000 0.280112 0.000000
0.000000 0.293161 0.000000
0.000000 0.304903 0.000000
0.000000 0.315514 0.000000
0.000000 0.324996 0.000000
0.000000 0.333249 0.000000
0.000000 0.340235 0.000000
0.050667 0.345940 0.000000
0.171180 0.350367 0.000000
0.255340 0.353540 0.000000
0.330158 0.355513 0.000000
0.400764 0.356371 0.000000
0.468744 0.356230 0.000000
0.534483 0.355246 0.000000
0.597799 0.353640 0.000000
0.658186 0.351719 0.000000
0.714918 0.349896 0.000000
0.767118 0.348700 0.000000
0.814849 0.348482 0.000000
0.858584 0.349410 0.000000
0.898346 0.351637 0.000000
0.934263 0.355243 0.000000
0.966610 0.360286 0.000000
0.996111 0.366590 0.000000
1.000000 0.372911 0.000000
1.000000 0.380096 0.000000
1.000000 0.387878 0.000000
1.000000 0.396042 0.000000
1.000000 0.404568 0.000000
1.000000 0.413411 0.000000
1.000000 0.422531 0.000000
0.000000 0.321467 0.000000
0.000000 0.336835 0.000000
0.000000 0.351006 0.000000
0.000000 0.363755 0.000000
0.000000 0.375252 0.000000
0.000000 0.385482 0.000000
0.000000 0.394386 0.000000
0.000000 0.401962 0.000000
0.000000 0.408224 0.000000
0.114096 0.413210 0.000000
0.227902 0.416987 0.000000
0.314702 0.419639 0.000000
0.392227 0.421266 0.000000
0.464792 0.421992 0.000000
0.533807 0.421974 0.000000
0.599602 0.421421 0.000000
0.661980 0.420602 0.000000
0.720431 0.419857 0.000000
0.774270 0.419518 0.000000
0.823768 0.419832 0.000000
0.869069 0.421022 0.000000
0.910253 0.423282 0.000000
0.947629 0.426704 0.000000
0.981989 0.431182 0.000000
1.000000 0.436108 0.000000
1.000000 0.441726 0.000000
1.000000 0.448139 0.000000
1.000000 0.455038 0.000000
1.000000 0.462327 0.000000
1.000000 0.470003 0.000000
1.000000 0.478024 0.000000
1.000000 0.488744 0.000000
0.000000 0.378257 0.000000
0.000000 0.394818 0.000000
0.000000 0.410110 0.000000
0.000000 0.423912 0.000000
0.000000 0.436295 0.000000
0.000000 0.447247 0.000000
0.000000 0.456751 0.000000
0.000000 0.464839 0.000000
0.000000 0.471576 0.000000
0.000000 0.477046 0.000000
0.182068 0.481336 0.000000
0.289733 0.484543 0.000000
0.376985 0.486775 0.000000
0.455375 0.488163 0.000000
0.528264 0.488836 0.000000
0.596734 0.488917 0.000000
0.661031 0.488653 0.000000
0.720939 0.488351 0.000000
0.776353 0.488340 0.000000
0.827485 0.488868 0.000000
0.874377 0.490150 0.000000
0.917546 0.492272 0.000000
0.957372 0.495279 0.000000
0.994122 0.498914 0.000000
1.000000 0.503080 0.000000
1.000000 0.508099 0.000000
1.000000 0.513763 0.000000
1.000000 0.519904 0.000000
1.000000 0.526453 0.000000
1.000000 0.533407 0.000000
1.000000 0.543957 0.000000
1.000000 0.555246 0.000000
0.000000 0.436219 0.000000
0.000000 0.453317 0.000000
0.000000 0.469247 0.000000
0.000000 0.483931 0.000000
0.000000 0.497221 0.000000
0.000000 0.508907 0.000000
0.000000 0.519021 0.000000
0.000000 0.527652 0.000000
0.000000 0.534896 0.000000
0.000000 0.540852 0.000000
0.097691 0.545622 0.000000
0.253588 0.549253 0.000000
0.355056 0.551826 0.000000
0.440678 0.553487 0.000000
0.517906 0.554406 0.000000
0.589251 0.554776 0.000000
0.655586 0.554832 0.000000
0.717208 0.554850 0.000000
0.774360 0.555098 0.000000
0.827327 0.555784 0.000000
0.876499 0.557043 0.000000
0.922089 0.558979 0.000000
0.964309 0.561520 0.000000
1.000000 0.564465 0.000000
1.000000 0.568210 0.000000
1.000000 0.572651 0.000000
1.000000 0.577656 0.000000
1.000000 0.583143 0.000000
1.000000 0.589051 0.000000
1.000000 0.598570 0.000000
1.000000 0.608743 0.000000
1.000000 0.619102 0.000000
0.000000 0.494553 0.000000
0.000000 0.512152 0.000000
0.000000 0.528396 0.000000
0.000000 0.543390 0.000000
0.000000 0.557012 0.000000
0.000000 0.569201 0.000000
0.000000 0.579938 0.000000
0.000000 0.589214 0.000000
0.000000 0.596953 0.000000
0.000000 0.603252 0.000000
0.000000 0.608239 0.000000
0.202455 0.612049 0.000000
0.326498 0.614824 0.000000
0.421443 0.616715 0.000000
0.503852 0.617894 0.000000
0.578464 0.618559 0.000000
0.647140 0.618950 0.000000
0.710759 0.619302 0.000000
0.769975 0.619831 0.000000
0.825163 0.620680 0.000000
0.876578 0.621974 0.000000
0.924419 0.623696 0.000000
0.968878 0.625735 0.000000
1.000000 0.628449 0.000000
1.000000 0.631809 0.000000
1.000000 0.635737 0.000000
1.000000 0.640192 0.000000
1.000000 0.645117 0.000000
1.000000 0.653015 0.000000
1.000000 0.662133 0.000000
1.000000 0.671503 0.000000
1.000000 0.681097 0.000000
0.000000 0.552806 0.000000
0.000000 0.570546 0.000000
0.000000 0.587103 0.000000
0.000000 0.602147 0.000000
0.000000 0.615855 0.000000
0.000000 0.628113 0.000000
0.000000 0.638904 0.000000
0.000000 0.648238 0.000000
0.000000 0.656150 0.000000
0.000000 0.662705 0.000000
0.000000 0.667990 0.000000
0.127791 0.672120 0.000000
0.293270 0.675232 0.000000
0.399872 0.677484 0.000000
0.488072 0.679054 0.000000
0.566208 0.680137 0.000000
0.637401 0.680994 0.000000
0.703219 0.681792 0.000000
0.764497 0.682669 0.000000
0.821712 0.683755 0.000000
0.875136 0.684980 0.000000
0.925022 0.686484 0.000000
0.971618 0.688490 0.000000
1.000000 0.691014 0.000000
1.000000 0.694038 0.000000
1.000000 0.697564 0.000000
1.000000 0.701575 0.000000
1.000000 0.707512 0.000000
1.000000 0.715635 0.000000
1.000000 0.724059 0.000000
1.000000 0.732768 0.000000
1.000000 0.741737 0.000000
0.000000 0.610790 0.000000
0.000000 0.628114 0.000000
0.000000 0.644268 0.000000
0.000000 0.659179 0.000000
0.000000 0.672737 0.000000
0.000000 0.684784 0.000000
0.000000 0.695485 0.000000
0.000000 0.704841 0.000000
0.000000 0.712879 0.000000
0.000000 0.719649 0.000000
0.000000 0.725227 0.000000
0.000000 0.729712 0.000000
0.256732 0.733226 0.000000
0.377947 0.735914 0.000000
0.472320 0.738005 0.000000
0.553919 0.739712 0.000000
0.627574 0.741154 0.000000
0.695421 0.742458 0.000000
0.758523 0.743658 0.000000
0.817482 0.744814 0.000000
0.872716 0.746171 0.000000
0.924493 0.747832 0.000000
0.973021 0.749832 0.000000
1.000000 0.752214 0.000000
1.000000 0.755014 0.000000
1.000000 0.758249 0.000000
1.000000 0.762096 0.000000
1.000000 0.769322 0.000000
1.000000 0.776846 0.000000
1.000000 0.784572 0.000000
1.000000 0.792422 0.000000
1.000000 0.800315 0.000000
0.000000 0.667489 0.000000
0.000000 0.684010 0.000000
0.000000 0.699472 0.000000
0.000000 0.713816 0.000000
0.000000 0.726995 0.000000
0.000000 0.738962 0.000000
0.000000 0.749687 0.000000
0.000000 0.759162 0.000000
0.000000 0.767311 0.000000
0.000000 0.774283 0.000000
0.000000 0.780147 0.000000
0.000000 0.784989 0.000000
0.219000 0.788957 0.000000
0.357195 0.792297 0.000000
0.457559 0.795111 0.000000
0.542423 0.797418 0.000000
0.618281 0.799355 0.000000
0.687874 0.801059 0.000000
0.752562 0.802646 0.000000
0.813097 0.804232 0.000000
0.869922 0.805898 0.000000
0.923336 0.807720 0.000000
0.973573 0.809774 0.000000
1.000000 0.812125 0.000000
1.000000 0.814820 0.000000
1.000000 0.817828 0.000000
1.000000 0.822846 0.000000
1.000000 0.829201 0.000000
1.000000 0.835589 0.000000
1.000000 0.841934 0.000000
1.000000 0.848161 0.000000
1.000000 0.854195 0.000000
0.000000 0.722461 0.000000
0.000000 0.738128 0.000000
0.000000 0.752871 0.000000
0.000000 0.766633 0.000000
0.000000 0.779354 0.000000
0.000000 0.790987 0.000000
0.000000 0.801504 0.000000
0.000000 0.810901 0.000000
0.000000 0.819181 0.000000
0.000000 0.826372 0.000000
0.000000 0.832532 0.000000
0.000000 0.837895 0.000000
0.179428 0.842567 0.000000
0.338021 0.846605 0.000000
0.444350 0.850082 0.000000
0.532287 0.853080 0.000000
0.610145 0.855692 0.000000
0.681267 0.858008 0.000000
0.747289 0.860122 0.000000
0.809104 0.862127 0.000000
0.867250 0.864126 0.000000
0.922048 0.866182 0.000000
0.973678 0.868302 0.000000
1.000000 0.870478 0.000000
1.000000 0.872692 0.000000
1.000000 0.875048 0.000000
1.000000 0.879945 0.000000
1.000000 0.884671 0.000000
1.000000 0.889165 0.000000
1.000000 0.893360 0.000000
1.000000 0.897193 0.000000
1.000000 0.900599 0.000000
0.000000 0.775765 0.000000
0.000000 0.790673 0.000000
0.000000 0.804694 0.000000
0.000000 0.817803 0.000000
0.000000 0.830004 0.000000
0.000000 0.841264 0.000000
0.000000 0.851545 0.000000
0.000000 0.860827 0.000000
0.000000 0.869110 0.000000
0.000000 0.876536 0.000000
0.000000 0.883257 0.000000
0.000000 0.889287 0.000000
0.139333 0.894653 0.000000
0.322124 0.899398 0.000000
0.433900 0.903576 0.000000
0.524406 0.907253 0.000000
0.603837 0.910503 0.000000
0.676136 0.913419 0.000000
0.743147 0.916039 0.000000
0.805825 0.918375 0.000000
0.864702 0.920443 0.000000
0.920087 0.922253 0.000000
0.972174 0.923809 0.000000
1.000000 0.925107 0.000000
1.000000 0.926128 0.000000
1.000000 0.927800 0.000000
1.000000 0.930584 0.000000
1.000000 0.932919 0.000000
1.000000 0.934809 0.000000
1.000000 0.936549 0.000000
1.000000 0.938213 0.000000
1.000000 0.939821 0.000000
0.000000 0.827421 0.000000
0.000000 0.841612 0.000000
0.000000 0.854985 0.000000
0.000000 0.867520 0.000000
0.000000 0.879199 0.000000
0.000000 0.890009 0.000000
0.000000 0.899951 0.000000
0.000000 0.909091 0.000000
0.000000 0.917616 0.000000
0.000000 0.925517 0.000000
0.000000 0.932779 0.000000
0.000000 0.939401 0.000000
0.101360 0.945397 0.000000
0.310666 0.950798 0.000000
0.426826 0.955643 0.000000
0.519184 0.959918 0.000000
0.599534 0.963611 0.000000
0.672232 0.966719 0.000000
0.739313 0.969246 0.000000
0.801839 0.971198 0.000000
0.860401 0.972582 0.000000
0.915340 0.973406 0.000000
0.966861 0.973670 0.000000
1.000000 0.973330 0.000000
1.000000 0.972380 0.000000
1.000000 0.972196 0.000000
1.000000 0.972747 0.000000
1.000000 0.973140 0.000000
1.000000 0.973412 0.000000
1.000000 0.973599 0.000000
1.000000 0.973729 0.000000
1.000000 0.973824 0.000000
0.000000 0.877499 0.000000
0.000000 0.891006 0.000000
0.000000 0.903757 0.000000
0.000000 0.915741 0.000000
0.000000 0.926944 0.000000
0.000000 0.937372 0.000000
0.000000 0.947237 0.000000
0.000000 0.956589 0.000000
0.000000 0.965401 0.000000
0.000000 0.973662 0.000000
0.000000 0.981371 0.000000
0.000000 0.988487 0.000000
0.070233 0.994939 0.000000
0.303868 1.000000 0.000000
0.422471 1.000000 0.000000
0.515304 1.000000 0.000000
0.595364 1.000000 0.000000
0.667350 1.000000 0.000000
0.733446 1.000000 0.000000
0.794794 1.000000 0.000000
0.852030 1.000000 0.000000
0.905522 1.000000 0.000000
0.955669 1.000000 0.000000
1.000000 1.000000 0.000000
1.000000 1.000000 0.000000
1.000000 1.000000 0.000000
1.000000 1.000000 0.000000
1.000000 1.000000 0.000000
1.000000 1.000000 0.000000
1.000000 1.000000 0.000000
1.000000 1.000000 0.000000
1.000000 1.000000 0.000000
0.000000 0.926065 0.000000
0.000000 0.938920 0.000000
0.000000 0.951077 0.000000
0.000000 0.962528 0.000000
0.000000 0.973421 0.000000
0.000000 0.983905 0.000000
0.000000 0.993956 0.000000
0.000000 1.000000 0.000000
0.000000 1.000000 0.000000
0.000000 1.000000 0.000000
0.000000 1.000000 0.000000
0.000000 1.000000 0.000000
0.041708 1.000000 0.000000
0.297982 1.000000 0.000000
0.417481 1.000000 0.000000
0.509657 1.000000 0.000000
0.588423 1.000000 0.000000
0.658742 1.000000 0.000000
0.722984 1.000000 0.000000
0.782702 1.000000 0.000000
0.838699 1.000000 0.000000
0.891303 1.000000 0.000000
0.940673 1.000000 0.000000
0.986881 1.000000 0.000000
1.000000 1.000000 0.000000
1.000000 1.000000 0.000000
1.000000 1.000000 0.000000
1.000000 1.000000 0.000000
1.000000 1.000000 0.000000
1.000000 1.000000 0.000000
1.000000 1.000000 0.000000
1.000000 1.000000 0.000000
0.000000 0.973188 0.000000
0.000000 0.985420 0.000000
0.000000 0.997077 0.000000
0.000000 1.000000 0.000000
0.000000 1.000000 0.000000
0.000000 1.000000 0.000000
0.000000 1.000000 0.000000
0.000000 1.000000 0.000000
0.000000 1.000000 0.000000
0.000000 1.000000 0.000000
0.000000 1.000000 0.000000
0.000000 1.000000 0.000000
0.003450 1.000000 0.000000
0.287523 1.000000 0.000000
0.407663 1.000000 0.000000
0.498834 1.000000 0.000000
0.576325 1.000000 0.000000
0.645454 1.000000 0.000000
0.708895 1.000000 0.000000
0.767916 1.000000 0.000000
0.823147 1.000000 0.000000
0.874937 1.000000 0.000000
0.923463 1.000000 0.000000
0.968803 1.000000 0.000000
1.000000 1.000000 0.000000
1.000000 1.000000 0.000000
1.000000 1.000000 0.000000
1.000000 1.000000 0.000000
1.000000 1.000000 0.000000
1.000000 1.000000 0.000000
1.000000 1.000000 0.000000
1.000000 1.000000 0.146505
0.000000 1.000000 0.000000
0.000000 1.000000 0.000000
0.000000 1.000000 0.000000
0.000000 1.000000 0.000000
0.000000 1.000000 0.000000
0.000000 1.000000 0.000000
0.000000 1.000000 0.000000
0.000000 1.000000 0.000000
0.000000 1.000000 0.000000
0.000000 1.000000 0.000000
0.000000 1.000000 0.000000
0.000000 1.000000 0.000000
0.066152 1.000000 0.000000
0.304267 1.000000 0.000000
0.419060 1.000000 0.000000
0.506567 1.000000 0.000000
0.580807 1.000000 0.000000
0.646994 1.000000 0.000000
0.707457 1.000000 0.000000
0.763440 1.000000 0.000000
0.815641 1.000000 0.000000
0.864451 1.000000 0.000000
0.910077 1.000000 0.000000
0.952613 1.000000 0.000000
0.992078 1.000000 0.000000
1.000000 1.000000 0.000000
1.000000 1.000000 0.000000
1.000000 1.000000 0.000000
1.000000 1.000000 0.000000
1.000000 1.000000 0.000000
1.000000 1.000000 0.140962
1.000000 1.000000 0.244268
0.000000 1.000000 0.000000
0.000000 1.000000 0.000000
0.000000 1.000000 0.000000
0.000000 1.000000 0.000000
0.000000 1.000000 0.000000
0.000000 1.000000 0.000000
0.000000 1.000000 0.000000
0.000000 1.000000 0.000000
0.000000 1.000000 0.000000
0.000000 1.000000 0.000000
0.000000 1.000000 0.000000
0.000000 1.000000 0.000000
0.225794 1.000000 0.000000
0.359453 1.000000 0.000000
0.452312 1.000000 0.000000
0.528771 1.000000 0.000000
0.595882 1.000000 0.000000
0.656721 1.000000 0.000000
0.712875 1.000000 0.000000
0.765220 1.000000 0.000000
0.814251 1.000000 0.000000
0.860233 1.000000 0.000000
0.903289 1.000000 0.000000
0.943453 1.000000 0.000000
0.980698 1.000000 0.000000
1.000000 1.000000 0.000000
1.000000 1.000000 0.000000
1.000000 1.000000 0.000000
1.000000 1.000000 0.000000
1.000000 1.000000 0.155430
1.000000 1.000000 0.252759
1.000000 1.000000 0.323234
0.000000 1.000000 0.000000
0.000000 1.000000 0.000000
0.000000 1.000000 0.000000
0.000000 1.000000 0.000000
0.000000 1.000000 0.000000
0.000000 1.000000 0.000000
0.000000 1.000000 0.000000
0.000000 1.000000 0.000000
0.000000 1.000000 0.000000
0.000000 1.000000 0.000000
0.000000 1.000000 0.000000
0.112715 1.000000 0.000000
0.294588 1.000000 0.000000
0.396913 1.000000 0.000000
0.476930 1.000000 0.000000
0.545561 1.000000 0.000000
0.607051 1.000000 0.000000
0.663471 1.000000 0.000000
0.715943 1.000000 0.000000
0.765100 1.000000 0.000000
0.811291 1.000000 0.000000
0.854689 1.000000 0.000000
0.895356 1.000000 0.000000
