Vibe/Lumetri/LUTs/Technical/AMIRA_Default_LogC2Rec709.cube
# 
# created by ACT (1.0)
LUT_3D_SIZE 5
DOMAIN_MIN 0.000000 0.000000 0.000000
DOMAIN_MAX 0.903226 0.903226 0.903226
0.000000 0.000000 0.000000
0.052512 0.000000 0.000000
0.232450 0.000000 0.000000
0.444227 0.000000 0.000000
0.642753 0.000000 0.000000
0.000000 0.100217 0.000000
0.118478 0.131269 0.000000
0.480151 0.097347 0.000000
0.794199 0.000000 0.000000
0.972174 0.027187 0.000000
0.000000 0.436219 0.000000
0.000000 0.527652 0.000000
0.517906 0.554406 0.000000
0.922089 0.558979 0.000000
1.000000 0.589051 0.000000
0.000000 0.827421 0.000000
0.000000 0.909091 0.000000
0.426826 0.955643 0.000000
0.915340 0.973406 0.000000
1.000000 0.973412 0.000000
0.000000 1.000000 0.000000
0.000000 1.000000 0.000000
0.495890 1.000000 0.000000
0.848683 1.000000 0.000000
1.000000 1.000000 0.314738
0.000000 0.000000 0.019029
0.099972 0.000000 0.081444
0.341588 0.000000 0.118254
0.572586 0.000000 0.113107
0.741106 0.000000 0.112627
0.000000 0.106605 0.101948
0.117312 0.117312 0.117312
0.557319 0.012688 0.109037
0.933041 0.000000 0.117931
1.000000 0.000000 0.202365
0.000000 0.490545 0.000000
0.000000 0.559466 0.000000
0.529916 0.564999 0.000000
1.000000 0.541372 0.000000
1.000000 0.569786 0.182124
0.000000 0.869953 0.000000
0.000000 0.960311 0.000000
0.000000 1.000000 0.000000
0.935349 0.993360 0.000000
1.000000 0.965851 0.000000
0.000000 1.000000 0.415109
0.000000 1.000000 0.299781
0.288582 1.000000 0.063963
0.807096 1.000000 0.207494
1.000000 1.000000 0.515767
0.000000 0.000000 0.109838
0.117781 0.000000 0.255467
0.381575 0.000000 0.336558
0.615687 0.000000 0.330208
0.772928 0.000000 0.309724
0.000000 0.000000 0.345601
0.012864 0.000000 0.467322
0.569806 0.000000 0.509879
0.956413 0.000000 0.493326
1.000000 0.000000 0.481407
0.000000 0.473578 0.460528
0.000000 0.520915 0.507621
0.516574 0.516574 0.516574
1.000000 0.477576 0.521434
1.000000 0.504412 0.556348
0.000000 0.875048 0.513042
0.000000 0.973863 0.467386
0.000000 1.000000 0.415853
0.928314 0.973131 0.417168
1.000000 0.934211 0.524661
0.000000 1.000000 0.657156
0.000000 1.000000 0.589762
0.000000 1.000000 0.492961
0.756984 1.000000 0.520980
1.000000 1.000000 0.686199
0.000000 0.000000 0.226825
0.074138 0.000000 0.415022
0.346721 0.000000 0.519010
0.581490 0.000000 0.517668
0.745209 0.000000 0.484719
0.000000 0.000000 0.564506
0.000000 0.000000 0.776971
0.508320 0.000000 0.840017
0.877669 0.000000 0.788809
1.000000 0.000000 0.734988
0.000000 0.352407 0.757870
0.000000 0.331261 0.905948
0.465035 0.282831 0.953508
1.000000 0.184042 0.954628
1.000000 0.337489 0.921465
0.000000 0.835351 0.814543
0.000000 0.918600 0.896646
0.000000 0.938549 0.921334
0.898591 0.898591 0.898591
1.000000 0.877469 0.885732
0.000000 1.000000 0.884282
0.000000 1.000000 0.867548
0.000000 1.000000 0.825018
0.758041 1.000000 0.825360
1.000000 1.000000 0.882704
0.000000 0.000000 0.355658
0.000000 0.000000 0.544571
0.287108 0.000000 0.642547
0.516697 0.000000 0.645480
0.696301 0.000000 0.621679
0.000000 0.000000 0.692997
0.000000 0.000000 0.874040
0.414038 0.000000 0.951518
0.768444 0.000000 0.949785
1.000000 0.000000 0.923169
0.000000 0.133649 0.922984
0.000000 0.000000 1.000000
0.457732 0.121835 1.000000
0.982293 0.051085 1.000000
1.000000 0.329640 1.000000
0.000000 0.772348 1.000000
0.000000 0.869417 1.000000
0.000000 0.898975 1.000000
0.884567 0.862450 1.000000
1.000000 0.858817 1.000000
0.000000 1.000000 1.000000
0.000000 1.000000 1.000000
0.252206 1.000000 1.000000
0.809994 1.000000 1.000000
0.993917 0.993917 0.993917
