Vibe/Lumetri/LUTs/Technical/AMIRA_Default_LogC2Rec709.cube
# 
# created by ACT (1.0)
LUT_3D_SIZE 8
DOMAIN_MIN 0.000000 0.000000 0.000000
DOMAIN_MAX 0.903226 0.903226 0.903226
0.000000 0.000000 0.000000
0.011122 0.000000 0.000000
0.073342 0.000000 0.000000
0.171350 0.000000 0.000000
0.293516 0.000000 0.000000
0.414459 0.000000 0.000000
0.532753 0.000000 0.000000
0.642753 0.000000 0.000000
0.000000 0.027619 0.000000
0.033882 0.039647 0.000000
0.142176 0.036316 0.000000
0.300177 0.004027 0.000000
0.479966 0.000000 0.000000
0.626394 0.000000 0.000000
0.743156 0.000000 0.000000
0.843163 0.000000 0.000000
0.000000 0.132578 0.000000
0.000000 0.161322 0.000000
0.161304 0.176636 0.000000
0.386182 0.172842 0.000000
0.614987 0.141972 0.000000
0.793711 0.107311 0.000000
0.916649 0.115860 0.000000
1.000000 0.162139 0.000000
0.000000 0.321467 0.000000
0.000000 0.375252 0.000000
0.000000 0.408224 0.000000
0.392227 0.421266 0.000000
0.661980 0.420602 0.000000
0.869069 0.421022 0.000000
1.000000 0.436108 0.000000
1.000000 0.462327 0.000000
0.000000 0.552806 0.000000
0.000000 0.615855 0.000000
0.000000 0.656150 0.000000
0.293270 0.675232 0.000000
0.637401 0.680994 0.000000
0.875136 0.684980 0.000000
1.000000 0.694038 0.000000
1.000000 0.715635 0.000000
0.000000 0.775765 0.000000
0.000000 0.830004 0.000000
0.000000 0.869110 0.000000
0.139333 0.894653 0.000000
0.603837 0.910503 0.000000
0.864702 0.920443 0.000000
1.000000 0.926128 0.000000
1.000000 0.934809 0.000000
0.000000 0.973188 0.000000
0.000000 1.000000 0.000000
0.000000 1.000000 0.000000
0.003450 1.000000 0.000000
0.576325 1.000000 0.000000
0.823147 1.000000 0.000000
1.000000 1.000000 0.000000
1.000000 1.000000 0.000000
0.000000 1.000000 0.000000
0.000000 1.000000 0.000000
0.000000 1.000000 0.000000
0.338792 1.000000 0.000000
0.615532 1.000000 0.000000
0.807628 1.000000 0.000000
0.956049 1.000000 0.000000
1.000000 1.000000 0.314738
0.000000 0.000000 0.003743
0.024287 0.000000 0.018555
0.104758 0.000000 0.034242
0.226873 0.000000 0.040873
0.369455 0.000000 0.036993
0.496218 0.000000 0.030336
0.608564 0.000000 0.026890
0.706372 0.000000 0.030466
0.000000 0.028930 0.027162
0.033302 0.033302 0.033302
0.165500 0.020895 0.029532
0.352567 0.000000 0.013780
0.557511 0.000000 0.000000
0.717175 0.000000 0.000000
0.822209 0.000000 0.016547
0.904478 0.000000 0.051946
0.000000 0.145964 0.018700
0.000000 0.170952 0.000000
0.166534 0.181913 0.000000
0.419620 0.168455 0.000000
0.672588 0.112997 0.000000
0.881315 0.000000 0.000000
0.998970 0.000000 0.000000
1.000000 0.092494 0.069618
0.000000 0.352313 0.000000
0.000000 0.400095 0.000000
0.000000 0.425070 0.000000
0.400668 0.430209 0.000000
0.699079 0.421110 0.000000
0.938801 0.408030 0.000000
1.000000 0.412639 0.000000
1.000000 0.441759 0.000000
0.000000 0.590465 0.000000
0.000000 0.651615 0.000000
0.000000 0.684350 0.000000
0.227289 0.695110 0.000000
0.649629 0.693668 0.000000
0.926537 0.687870 0.000000
1.000000 0.687474 0.000000
1.000000 0.712278 0.000000
0.000000 0.805765 0.000000
0.000000 0.861430 0.000000
0.000000 0.901231 0.000000
0.000000 0.925668 0.000000
0.563874 0.936075 0.000000
0.880286 0.936561 0.000000
1.000000 0.931515 0.000000
1.000000 0.932630 0.000000
0.000000 0.994658 0.000000
0.000000 1.000000 0.000000
0.000000 1.000000 0.000000
0.000000 1.000000 0.000000
0.488907 1.000000 0.000000
0.796738 1.000000 0.000000
1.000000 1.000000 0.000000
1.000000 1.000000 0.000000
0.000000 1.000000 0.293959
0.000000 1.000000 0.226353
0.000000 1.000000 0.055823
0.101828 1.000000 0.000000
0.554185 1.000000 0.000000
0.780224 1.000000 0.000000
0.945591 1.000000 0.233419
1.000000 1.000000 0.438839
0.000000 0.000000 0.027647
0.037096 0.000000 0.070468
0.132786 0.000000 0.111171
0.273882 0.000000 0.140496
0.426760 0.000000 0.149142
0.556433 0.000000 0.144799
0.662365 0.000000 0.139662
0.749915 0.000000 0.140756
0.000000 0.017867 0.093796
0.023636 0.002997 0.130515
0.182976 0.000000 0.158928
0.389743 0.000000 0.173388
0.608202 0.000000 0.171447
0.776957 0.000000 0.167588
0.876136 0.000000 0.176176
0.945568 0.000000 0.199128
0.000000 0.144242 0.138725
0.000000 0.160151 0.154520
0.162190 0.162190 0.162190
0.433021 0.137688 0.162716
0.706667 0.027537 0.158202
0.931111 0.000000 0.165567
1.000000 0.000000 0.200685
1.000000 0.000000 0.253334
0.000000 0.367893 0.132957
0.000000 0.408323 0.106624
0.000000 0.424441 0.085540
0.401282 0.425525 0.072178
0.715842 0.412088 0.058625
0.976998 0.388356 0.092583
1.000000 0.373518 0.160882
1.000000 0.418419 0.261182
0.000000 0.613644 0.052085
0.000000 0.669288 0.000000
0.000000 0.694285 0.000000
0.166839 0.700411 0.000000
0.653871 0.695141 0.000000
0.958020 0.682922 0.000000
1.000000 0.676276 0.000000
1.000000 0.699663 0.202921
0.000000 0.825784 0.106022
0.000000 0.883119 0.000000
0.000000 0.925814 0.000000
0.000000 0.946713 0.000000
0.519082 0.951697 0.000000
0.889632 0.944581 0.000000
1.000000 0.930555 0.000000
1.000000 0.923665 0.115852
0.000000 1.000000 0.280507
0.000000 1.000000 0.173528
0.000000 1.000000 0.000000
0.000000 1.000000 0.000000
0.366143 1.000000 0.000000
0.766862 1.000000 0.000000
1.000000 1.000000 0.000000
1.000000 1.000000 0.280140
0.000000 1.000000 0.451593
0.000000 1.000000 0.402003
0.000000 1.000000 0.321982
0.000000 1.000000 0.219651
0.469534 1.000000 0.137305
0.745907 1.000000 0.219620
0.932228 1.000000 0.381885
1.000000 1.000000 0.539377
0.000000 0.000000 0.078392
0.041013 0.000000 0.148515
0.149895 0.000000 0.216463
0.300728 0.000000 0.263316
0.454869 0.000000 0.277548
0.585409 0.000000 0.271387
0.688221 0.000000 0.260045
0.770816 0.000000 0.254025
0.000000 0.000000 0.193462
0.000000 0.000000 0.268980
0.184904 0.000000 0.326287
0.405032 0.000000 0.357808
0.627765 0.000000 0.363289
0.795558 0.000000 0.348980
0.895370 0.000000 0.336544
0.961915 0.000000 0.338982
0.000000 0.092777 0.289710
0.000000 0.068255 0.345099
0.133788 0.020244 0.375484
0.436882 0.000000 0.394258
0.716117 0.000000 0.401075
0.945248 0.000000 0.398634
1.000000 0.000000 0.401926
1.000000 0.000000 0.419672
0.000000 0.355684 0.345331
0.000000 0.385750 0.374709
0.000000 0.395164 0.386078
0.392399 0.392399 0.392398
0.711518 0.375656 0.397110
0.994126 0.339656 0.401060
1.000000 0.315879 0.416822
1.000000 0.371832 0.454737
0.000000 0.613871 0.359272
0.000000 0.662959 0.354690
0.000000 0.683426 0.347897
0.118038 0.684879 0.349868
0.649474 0.678356 0.353763
0.970803 0.663877 0.352246
1.000000 0.654457 0.376199
1.000000 0.674643 0.437020
0.000000 0.830060 0.394561
0.000000 0.889165 0.354531
0.000000 0.930973 0.294721
0.000000 0.948236 0.249558
0.481451 0.950241 0.221089
0.888909 0.937004 0.231502
1.000000 0.916341 0.295550
1.000000 0.905424 0.402812
0.000000 1.000000 0.480161
0.000000 1.000000 0.437101
0.000000 1.000000 0.361627
0.000000 1.000000 0.238890
0.165188 1.000000 0.097667
0.734559 1.000000 0.094460
1.000000 1.000000 0.276570
1.000000 1.000000 0.459841
0.000000 1.000000 0.590085
0.000000 1.000000 0.551449
0.000000 1.000000 0.493088
0.000000 1.000000 0.423714
0.358325 1.000000 0.380305
0.708614 1.000000 0.414390
0.916230 1.000000 0.510293
1.000000 1.000000 0.634436
0.000000 0.000000 0.142313
0.028272 0.000000 0.238975
0.145487 0.000000 0.325644
0.298265 0.000000 0.381562
0.452647 0.000000 0.400944
0.583298 0.000000 0.393069
0.687678 0.000000 0.376729
0.770013 0.000000 0.363531
0.000000 0.000000 0.308800
0.000000 0.000000 0.418675
0.153435 0.000000 0.500421
0.393191 0.000000 0.543300
0.611167 0.000000 0.544554
0.773888 0.000000 0.515972
0.879730 0.000000 0.486168
0.958110 0.000000 0.472793
0.000000 0.000000 0.450894
0.000000 0.000000 0.543973
0.012388 0.000000 0.603691
0.422405 0.000000 0.629639
0.701203 0.000000 0.630089
0.931083 0.000000 0.615955
1.000000 0.000000 0.595263
1.000000 0.000000 0.584533
0.000000 0.296926 0.539498
0.000000 0.305454 0.605262
0.000000 0.302534 0.637978
0.368167 0.294996 0.643875
0.703524 0.265459 0.650136
0.991428 0.201204 0.652816
1.000000 0.164353 0.650235
1.000000 0.276199 0.653408
0.000000 0.586097 0.570474
0.000000 0.627324 0.610815
0.000000 0.644614 0.628965
0.000000 0.645036 0.634246
0.637649 0.637649 0.637649
0.963280 0.621187 0.640066
1.000000 0.609300 0.644502
1.000000 0.633807 0.665768
0.000000 0.816468 0.595697
0.000000 0.874090 0.605991
0.000000 0.913862 0.602926
0.000000 0.929815 0.596210
0.459096 0.925626 0.596547
0.878382 0.908828 0.600584
1.000000 0.886729 0.605402
1.000000 0.877217 0.642938
0.000000 1.000000 0.652475
0.000000 1.000000 0.641502
0.000000 1.000000 0.612139
0.000000 1.000000 0.564100
0.000000 1.000000 0.531096
0.710401 1.000000 0.528005
0.999446 1.000000 0.576918
1.000000 1.000000 0.654731
0.000000 1.000000 0.723417
0.000000 1.000000 0.699374
0.000000 1.000000 0.658747
0.000000 1.000000 0.609635
0.251423 1.000000 0.581070
0.685425 1.000000 0.601951
0.903788 1.000000 0.662422
1.000000 1.000000 0.745074
0.000000 0.000000 0.209566
0.001942 0.000000 0.319750
0.121135 0.000000 0.416710
0.276360 0.000000 0.480374
0.428521 0.000000 0.504176
0.560234 0.000000 0.498411
0.667088 0.000000 0.480168
0.751673 0.000000 0.462228
0.000000 0.000000 0.404186
0.000000 0.000000 0.536747
0.074292 0.000000 0.635508
0.350079 0.000000 0.680504
0.560292 0.000000 0.677534
0.723937 0.000000 0.647116
0.841832 0.000000 0.612624
0.938438 0.000000 0.594166
0.000000 0.000000 0.579509
0.000000 0.000000 0.711331
0.000000 0.000000 0.792936
0.380819 0.000000 0.827168
0.664487 0.000000 0.825046
0.890270 0.000000 0.801172
1.000000 0.000000 0.764247
1.000000 0.000000 0.736651
0.000000 0.161193 0.694195
0.000000 0.017841 0.801215
0.000000 0.000000 0.857280
0.319459 0.000000 0.883204
0.684618 0.000000 0.890370
0.970412 0.000000 0.884421
1.000000 0.000000 0.869837
1.000000 0.000000 0.844959
0.000000 0.533600 0.742072
0.000000 0.560149 0.820046
0.000000 0.569480 0.867073
0.000000 0.566530 0.888887
0.615806 0.557049 0.890725
0.951909 0.536190 0.893381
1.000000 0.527800 0.890986
1.000000 0.572306 0.883418
0.000000 0.787293 0.767376
0.000000 0.837146 0.816363
0.000000 0.873141 0.852373
0.000000 0.886459 0.868161
0.431134 0.879599 0.868199
0.861901 0.861901 0.861901
1.000000 0.842164 0.853151
1.000000 0.840685 0.851790
0.000000 1.000000 0.811026
0.000000 1.000000 0.829433
0.000000 1.000000 0.834543
0.000000 1.000000 0.818229
0.000000 1.000000 0.796579
0.707091 1.000000 0.790340
0.982119 1.000000 0.803951
1.000000 0.981095 0.826552
0.000000 1.000000 0.853005
0.000000 1.000000 0.844586
0.000000 1.000000 0.822776
0.000000 1.000000 0.793070
0.255766 1.000000 0.774270
0.691344 1.000000 0.781850
0.899834 1.000000 0.811721
1.000000 1.000000 0.857852
0.000000 0.000000 0.280749
0.000000 0.000000 0.395668
0.080932 0.000000 0.494781
0.245376 0.000000 0.560586
0.395175 0.000000 0.586705
0.525955 0.000000 0.583390
0.634316 0.000000 0.565525
0.724601 0.000000 0.547707
0.000000 0.000000 0.483509
0.000000 0.000000 0.612377
0.000000 0.000000 0.707653
0.294453 0.000000 0.755583
0.500440 0.000000 0.760816
0.664470 0.000000 0.738485
0.797373 0.000000 0.714495
0.908959 0.000000 0.698950
0.000000 0.000000 0.668221
0.000000 0.000000 0.800539
0.000000 0.000000 0.898654
0.327506 0.000000 0.946148
0.607870 0.000000 0.950060
0.825434 0.000000 0.928091
0.992085 0.000000 0.895059
1.000000 0.000000 0.865447
0.000000 0.000000 0.801667
0.000000 0.000000 0.921352
0.000000 0.000000 1.000000
0.259844 0.000000 1.000000
0.651199 0.000000 1.000000
0.934670 0.000000 1.000000
1.000000 0.000000 1.000000
1.000000 0.000000 1.000000
0.000000 0.467948 0.869348
0.000000 0.471536 0.970168
0.000000 0.461509 1.000000
0.000000 0.476573 1.000000
0.595979 0.468714 1.000000
0.937109 0.448207 1.000000
1.000000 0.451567 1.000000
1.000000 0.515469 1.000000
0.000000 0.747874 0.909852
0.000000 0.784697 0.986584
0.000000 0.821641 1.000000
0.000000 0.842395 1.000000
0.409303 0.837380 1.000000
0.846519 0.815738 1.000000
1.000000 0.796568 1.000000
1.000000 0.803161 1.000000
0.000000 0.976430 0.953288
0.000000 1.000000 0.995154
0.000000 1.000000 1.000000
0.000000 1.000000 1.000000
0.000000 1.000000 1.000000
0.717274 0.993700 0.985125
0.966444 0.966444 0.966444
1.000000 0.954801 0.957659
0.000000 1.000000 0.973648
0.000000 1.000000 0.977815
0.000000 1.000000 0.971239
0.000000 1.000000 0.955220
0.356433 1.000000 0.936300
0.717322 1.000000 0.925676
0.906347 1.000000 0.929794
0.999642 1.000000 0.945367
0.000000 0.000000 0.355658
0.000000 0.000000 0.470497
0.016833 0.000000 0.565554
0.209900 0.000000 0.626205
0.358909 0.000000 0.650806
0.487669 0.000000 0.648749
0.596783 0.000000 0.632751
0.696301 0.000000 0.621679
0.000000 0.000000 0.556983
0.000000 0.000000 0.671131
0.000000 0.000000 0.753759
0.245291 0.000000 0.799812
0.448165 0.000000 0.812247
0.613027 0.000000 0.805359
0.753894 0.000000 0.794859
0.875741 0.000000 0.786734
0.000000 0.000000 0.734916
0.000000 0.000000 0.848427
0.000000 0.000000 0.935508
0.287476 0.000000 0.986550
0.552122 0.000000 1.000000
0.761569 0.000000 1.000000
0.932681 0.000000 0.988517
1.000000 0.000000 0.966350
0.000000 0.000000 0.874787
0.000000 0.000000 0.981360
0.000000 0.000000 1.000000
0.283160 0.000000 1.000000
0.630004 0.000000 1.000000
0.890266 0.000000 1.000000
1.000000 0.000000 1.000000
1.000000 0.000000 1.000000
0.000000 0.399719 0.962453
0.000000 0.398149 1.000000
0.000000 0.454633 1.000000
0.000000 0.479564 1.000000
0.603061 0.480370 1.000000
0.918562 0.473958 1.000000
1.000000 0.490157 1.000000
1.000000 0.564712 1.000000
0.000000 0.704908 1.000000
0.000000 0.760969 1.000000
0.000000 0.809466 1.000000
0.000000 0.834923 1.000000
0.465020 0.832554 1.000000
0.845603 0.814602 1.000000
1.000000 0.802505 1.000000
1.000000 0.817671 1.000000
0.000000 0.962072 1.000000
0.000000 1.000000 1.000000
0.000000 1.000000 1.000000
0.000000 1.000000 1.000000
0.263865 1.000000 1.000000
0.744480 0.977810 1.000000
0.960129 0.953082 1.000000
1.000000 0.945615 1.000000
0.000000 1.000000 1.000000
0.000000 1.000000 1.000000
0.000000 1.000000 1.000000
0.000000 1.000000 1.000000
0.492391 1.000000 1.000000
0.762055 1.000000 1.000000
0.918960 1.000000 1.000000
0.993917 0.993917 0.993917
