Vibe/Lumetri/LUTs/Technical/ARRI_Universal_HD.cube
LUT_3D_SIZE 16
0 0 0.003983
0.015035 0.001433 0.00787
0.027259 0.011939 0.010209
0.044193 0.02054 0.012389
0.071477 0.030112 0.014948
0.117568 0.041565 0.013989
0.18677 0.052395 0
0.264772 0.063311 0
0.3324 0.08597 0
0.393845 0.099888 0.020123
0.449962 0.102387 0
0.488803 0.109404 0
0.513585 0.113612 0
0.532705 0.117119 0.009192
0.547611 0.120232 0.007315
0.556546 0.122217 0
0.013656 0.022041 0.019422
0.020239 0.02253 0.015983
0.031634 0.02464 0.017058
0.049372 0.030678 0.019456
0.07938 0.039924 0.021491
0.13013 0.051591 0.019742
0.204039 0.06334 0
0.28419 0.075293 0
0.354233 0.099941 0.017842
0.42648 0.109391 0
0.476979 0.119683 0.018808
0.511057 0.126458 0.029567
0.543421 0.121903 0
0.560985 0.125389 0
0.573701 0.128415 0
0.579567 0.142767 0.031665
0.018142 0.039613 0.025089
0.024105 0.040298 0.024931
0.035966 0.042326 0.025539
0.055429 0.047504 0.027234
0.089112 0.057142 0.028756
0.145335 0.070356 0.026118
0.225414 0.082248 0
0.308308 0.094681 0
0.38225 0.116652 0.00539
0.455231 0.127859 0
0.506804 0.139323 0.026137
0.547796 0.139073 0
0.572541 0.144539 0
0.589241 0.14844 0
0.601807 0.151874 0
0.606972 0.165063 0.035704
0.013529 0.062383 0.036663
0.017419 0.063772 0.035273
0.034948 0.066123 0.035614
0.060523 0.072346 0.036567
0.099385 0.083272 0.037296
0.15903 0.096965 0.033007
0.245839 0.109508 0
0.332656 0.124686 0
0.412916 0.140648 0
0.482922 0.155296 0.013999
0.54084 0.162996 0
0.576344 0.171513 0.026379
0.598489 0.177121 0.033906
0.615448 0.182174 0.033749
0.630069 0.187341 0.025834
0.641484 0.192067 0
0.017678 0.090778 0.053562
0.019245 0.091622 0.052503
0 0.097891 0.045904
0.058491 0.105868 0.046079
0.106132 0.11821 0.045435
0.16985 0.132147 0.037106
0.263593 0.146394 0
0.36098 0.161493 0
0.441904 0.178802 0
0.514814 0.192791 0.017994
0.570584 0.20292 0.029265
0.609624 0.206795 0.011213
0.630244 0.212299 0.033118
0.647478 0.218442 0.029799
0.664035 0.225701 0
0.671404 0.237805 0.037863
0.016748 0.127116 0.072453
0.017049 0.128372 0.07133
0.017234 0.134266 0.068195
0.008822 0.149227 0.052307
0.102516 0.162552 0.048284
0.181678 0.17954 0.030252
0.281909 0.196958 0
0.383708 0.214877 0
0.473556 0.23435 0.025968
0.55182 0.246634 0.015043
0.608301 0.25484 0.020895
0.645787 0.260615 0.02891
0.671881 0.263226 0
0.687471 0.269481 0
0.697094 0.281407 0.027383
0.707566 0.294719 0.040351
0 0.170944 0.09271
0.019525 0.172747 0.09285
0 0.180714 0.088884
0 0.195944 0.079143
0.078458 0.220471 0.037219
0.188165 0.242641 0
0.300346 0.265242 0
0.410685 0.286157 0
0.508584 0.305355 0.027798
0.589763 0.318266 0.025364
0.647268 0.327052 0.03543
0.687929 0.332907 0.01686
0.713053 0.337631 0
0.727605 0.344436 0
0.737443 0.356288 0.027842
0.749793 0.371424 0.023742
0.006047 0.224367 0.11728
0 0.228057 0.11594
0.020283 0.237569 0.115543
0.028879 0.256007 0.108392
0 0.290937 0.030519
0.185056 0.320726 0
0.31682 0.348956 0
0.435375 0.373834 0
0.543879 0.39455 0
0.629046 0.409483 0.023491
0.691746 0.418507 0
0.730151 0.42441 0.028425
0.75436 0.430432 0.032879
0.769424 0.438692 0.036712
0.783566 0.450275 0
0.791892 0.466729 0.044364
0.030492 0.284343 0.143221
0 0.289744 0.141588
0.022117 0.302513 0.141371
0 0.326064 0.131858
0.010642 0.360368 0.096809
0.179378 0.404499 0
0.33321 0.437314 0
0.463706 0.469021 0
0.577514 0.494237 0.018884
0.669072 0.512593 0
0.733219 0.522742 0
0.773596 0.527437 0
0.797964 0.533797 0.038112
0.815999 0.542468 0
0.826448 0.554126 0.028596
0.836077 0.568179 0.034184
0.037977 0.339246 0.164675
0 0.348173 0.163425
0 0.363116 0.162796
0.020592 0.388683 0.155712
0 0.43031 0.116276
0.178276 0.478908 0
0.347685 0.517469 0
0.488899 0.55601 0
0.608841 0.586382 0
0.702637 0.607359 0
0.769997 0.620278 0
0.813811 0.627916 0
0.840527 0.633853 0
0.855369 0.640538 0.030225
0.866345 0.649708 0.021979
0.876148 0.661336 0
0 0.381208 0.178796
0 0.392324 0.177087
0 0.408753 0.175508
0 0.437447 0.165472
0.017718 0.482472 0.129545
0.1885 0.534734 0
0.362173 0.578341 0
0.508976 0.621425 0.026205
0.633463 0.655942 0
0.729995 0.680051 0.004595
0.799666 0.695717 0.005119
0.84517 0.705178 0.033755
0.87201 0.71115 0.035091
0.887489 0.716539 0.032112
0.896951 0.723016 0.04369
0.90445 0.73078 0.044187
0.035261 0.407377 0.190333
0 0.420199 0.188517
0 0.438459 0.186784
0 0.468819 0.175914
0.059222 0.515946 0.137145
0.206038 0.570887 0
0.377864 0.617129 0.03168
0.524017 0.662968 0
0.650375 0.699845 0
0.750174 0.727185 0
0.820838 0.74465 0.046045
0.865646 0.754336 0.06125
0.892598 0.760757 0.061944
0.90785 0.765981 0.075674
0.917749 0.770789 0.069623
0.923188 0.774493 0.072792
0 0.424875 0.192001
0.032936 0.439707 0.19633
0.051975 0.46112 0.1949
0 0.494943 0.172958
0 0.54174 0.119724
0.22533 0.59193 0.033026
0.390631 0.639517 0.03549
0.535612 0.685666 0.033539
0.661821 0.724085 0
0.762114 0.752697 0.028472
0.833911 0.771784 0.054027
0.879919 0.782949 0.067212
0.906599 0.789438 0.079774
0.922427 0.794508 0.08113
0.931401 0.798353 0.086818
0.93705 0.800535 0.079733
0 0.434104 0.196
0 0.45518 0.195334
0 0.480146 0.192811
0.020729 0.512666 0.176083
0.073996 0.558476 0.118289
0.243043 0.6074 0
0.404228 0.654277 0.017792
0.547594 0.69998 0.031994
0.671612 0.737668 0
0.77028 0.765828 0.036352
0.842051 0.785572 0.059655
0.889421 0.798043 0.074291
0.917656 0.805178 0.081248
0.93299 0.80956 0.091041
0.94215 0.812758 0.087842
0.94735 0.814738 0.091062
0.050626 0.454956 0.211904
0.035026 0.484056 0.205218
0.043952 0.515799 0.192113
0 0.552853 0.150983
0.04377 0.598274 0
0.293919 0.632821 0.03343
0.437649 0.676627 0
0.571707 0.718353 0
0.689039 0.752305 0
0.783691 0.778293 0.041457
0.854111 0.797308 0.06409
0.901921 0.809913 0.078727
0.931023 0.81724 0.08623
0.946783 0.821314 0.095969
0.955998 0.824097 0.093104
0.961491 0.826216 0.096332
0.047398 0.496792 0.231594
0.042097 0.537064 0.214467
0 0.577418 0.179198
0 0.620818 0
0.193428 0.648203 0
0.357678 0.678694 0
0.49169 0.712227 0
0.610119 0.743624 0.028471
0.716275 0.772333 0.019534
0.80518 0.79538 0.047217
0.873407 0.812742 0.070943
0.920589 0.824504 0.085895
0.949205 0.831109 0.093649
0.965985 0.835415 0.095235
0.975427 0.83842 0.100895
0.981024 0.840117 0.104235
0.007003 0 0.014639
0.016129 0.010707 0.015915
0.028611 0.015142 0.017272
0.045719 0.021972 0.019163
0.074586 0.032052 0.021804
0.12402 0.043377 0.022857
0.195202 0.053479 0
0.27213 0.063325 0
0.347259 0.072972 0
0.407472 0.093159 0
0.460541 0.10301 0
0.499765 0.109679 0.018641
0.524471 0.114265 0.023593
0.542515 0.117488 0.027394
0.557515 0.12012 0.030462
0.569262 0.12264 0.030066
0.016253 0.023603 0.021035
0.021284 0.02435 0.021977
0.032291 0.026809 0.023031
0.05088 0.03268 0.024896
0.082778 0.042358 0.027198
0.135865 0.054298 0.025914
0.212949 0.064065 0
0.29252 0.075473 0
0.368772 0.090997 0
0.433845 0.109479 0.019317
0.492438 0.11111 0
0.528663 0.11786 0
0.553934 0.122598 0
0.570879 0.125928 0
0.583999 0.128836 0
0.59813 0.132264 0
0.018131 0.041368 0.030063
0.024949 0.042022 0.02957
0.036355 0.044065 0.030199
0.056471 0.04946 0.032133
0.091968 0.059348 0.033744
0.150262 0.072871 0.031587
0.233 0.083988 0
0.317662 0.095499 0
0.391139 0.117997 0.022369
0.464402 0.128882 0.018535
0.523566 0.133044 0
0.559141 0.140477 0
0.58159 0.144979 0.013547
0.598492 0.148928 0.014801
0.612913 0.153003 0
0.625606 0.156812 0
0.006812 0.064581 0.041177
0.017002 0.065799 0.039028
0.035648 0.068595 0.039667
0.061118 0.074768 0.041471
0.101299 0.084838 0.041954
0.164077 0.099191 0.038543
0.252689 0.111541 0
0.346136 0.123348 0
0.425143 0.142912 0
0.494985 0.157877 0.02765
0.55328 0.165455 0.018033
0.595663 0.166802 0
0.616384 0.171382 0
0.633536 0.176114 0
0.649786 0.181587 0
0.6546 0.194362 0.02827
0.016228 0.09323 0.057215
0.019931 0.094251 0.056177
0 0.101187 0.050491
0.058864 0.109046 0.051109
0.107843 0.120523 0.050019
0.175546 0.134771 0.042854
0.271369 0.148831 0
0.370246 0.164108 0
0.455664 0.182356 0
0.528153 0.196542 0.031397
0.589572 0.201656 0
0.624182 0.210693 0.028725
0.652522 0.21086 0
0.662191 0.222337 0.039499
0.677721 0.229042 0.024071
0.692705 0.2363 0
0.014506 0.130382 0.076183
0.01265 0.131986 0.075467
0.009714 0.137808 0.072606
0 0.153158 0.057271
0.10489 0.16728 0.052727
0.18747 0.184154 0.038391
0.291486 0.201774 0
0.397423 0.218911 0
0.490726 0.236097 0
0.565158 0.251333 0.031605
0.623027 0.259808 0.035293
0.665724 0.261675 0
0.68706 0.268007 0
0.702879 0.274373 0
0.711789 0.286184 0.040194
0.728148 0.295886 0
0 0.174161 0.096891
0 0.177314 0.096205
0 0.185123 0.094213
0 0.200773 0.085575
0.081079 0.226968 0.044691
0.196039 0.250332 0
0.31141 0.27352 0
0.423268 0.293512 0
0.522878 0.310984 0
0.605224 0.326139 0.030611
0.664318 0.335344 0.03875
0.702937 0.339116 0.033504
0.729 0.344191 0
0.744395 0.351538 0
0.754026 0.363467 0.038314
0.767003 0.379284 0.033816
0 0.22991 0.120903
0.020912 0.234311 0.12216
0 0.245217 0.119917
0 0.263084 0.11226
0 0.298665 0.034265
0.191193 0.329647 0
0.326976 0.358751 0
0.448402 0.382957 0
0.557103 0.40237 0
0.645283 0.419515 0.028856
0.710379 0.430305 0
0.748629 0.43536 0.026077
0.773393 0.441188 0.034533
0.790607 0.446743 0
0.799799 0.458176 0
0.811141 0.478031 0.045536
0 0.292914 0.148128
0 0.300262 0.147122
0 0.312112 0.146342
0.035885 0.331924 0.140494
0 0.368346 0.100039
0.1769 0.413489 0
0.339359 0.448582 0
0.474662 0.479518 0
0.590055 0.503632 0
0.684208 0.523147 0
0.752145 0.536407 0
0.794575 0.543029 0
0.818707 0.548569 0.03199
0.833144 0.552858 0
0.841206 0.561991 0.044777
0.854696 0.580538 0.037185
0 0.34973 0.170653
0 0.358642 0.16924
0 0.372388 0.167742
0 0.397007 0.159816
0 0.439904 0.120077
0.17804 0.49085 0
0.356487 0.530112 0
0.500927 0.569675 0
0.623686 0.599911 0
0.720355 0.621202 0
0.788869 0.634042 0
0.832838 0.641652 0.019723
0.861231 0.649524 0
0.875617 0.655749 0.030384
0.884757 0.662833 0.028737
0.895014 0.67471 0
0 0.391189 0.184593
0.012855 0.40048 0.187513
0.02983 0.416715 0.186202
0.040126 0.444587 0.177556
0 0.492173 0.1337
0.187745 0.547657 0
0.374498 0.591398 0.035458
0.523349 0.635833 0.016856
0.649557 0.66995 0.014834
0.748547 0.694009 0
0.818366 0.708844 0.033796
0.86399 0.717852 0.022314
0.89155 0.725247 0.053002
0.907785 0.731531 0.051006
0.916599 0.7374 0.058226
0.923675 0.74441 0.05923
0 0.41623 0.195846
0.049636 0.428096 0.199438
0 0.449828 0.192738
0 0.479803 0.181207
0 0.524848 0.141708
0.20024 0.581957 0
0.386957 0.629608 0.02735
0.538089 0.675671 0
0.665186 0.711528 0
0.76632 0.738273 0.025981
0.839346 0.756699 0.050342
0.885953 0.76752 0.062196
0.912132 0.7729 0.074681
0.927104 0.777101 0.075049
0.936014 0.781869 0.080993
0.942436 0.786887 0.083692
0 0.43229 0.203636
0 0.44885 0.202635
0 0.471433 0.20122
0 0.503037 0.188755
0.051138 0.547941 0.146272
0.208705 0.605033 0
0.393579 0.651885 0
0.545987 0.697395 0.030608
0.676717 0.735719 0.025522
0.778339 0.763423 0.038382
0.851424 0.782352 0.062506
0.899784 0.794575 0.077945
0.92747 0.800921 0.081866
0.942499 0.805216 0.081819
0.950601 0.808711 0.087151
0.955334 0.810868 0.090081
0.035505 0.440056 0.214007
0.047934 0.460245 0.214475
0 0.486839 0.207408
0.040217 0.519745 0.193695
0 0.570997 0.126726
0.23125 0.621272 0
0.408058 0.666775 0.034931
0.558194 0.712698 0.030568
0.686329 0.750422 0
0.786975 0.777672 0.040644
0.860066 0.796576 0.064785
0.908639 0.809001 0.078784
0.937064 0.816242 0.091097
0.952916 0.821038 0.092231
0.960879 0.824012 0.096988
0.965815 0.825468 0.090169
0 0.464641 0.235437
0 0.493636 0.231614
0 0.52384 0.22279
0 0.560276 0.194843
0 0.610654 0.109898
0.241876 0.660093 0
0.431852 0.698656 0
0.58157 0.735806 0
0.702755 0.768712 0
0.800644 0.793252 0.04673
0.873702 0.811305 0.069602
0.922464 0.823401 0.087349
0.951133 0.830204 0.095344
0.967128 0.834469 0.09656
0.975842 0.837471 0.101668
0.981946 0.839655 0.095522
0 0.508647 0.274149
0.04513 0.547998 0.266197
0.049158 0.586674 0.248672
0.04748 0.622983 0.213836
0 0.67483 0
0.303448 0.709107 0
0.471391 0.743737 0
0.613285 0.775079 0
0.732898 0.800787 0
0.826396 0.818395 0
0.896357 0.832351 0
0.946709 0.843953 0
0.97249 0.848486 0.092404
0.98695 0.85125 0.103312
0.996455 0.85421 0.108654
0.999099 0.855613 0.149661
0.002422 0.009319 0.029526
0.016021 0.014028 0.030303
0.029469 0.018863 0.031144
0.047449 0.024877 0.032755
0.077181 0.03351 0.035477
0.127563 0.044989 0.036799
0.200621 0.053946 0.03232
0.286524 0.04945 0
0.367151 0.049754 0
0.43161 0.069597 0
0.480765 0.089055 0
0.520009 0.09425 0.014647
0.5459 0.098236 0.01735
0.564503 0.101059 0.019263
0.579499 0.102748 0.024795
0.592187 0.103836 0.030266
0.015403 0.026474 0.035126
0.021762 0.027116 0.035379
0.033606 0.03021 0.036244
0.053279 0.035811 0.038067
0.085744 0.044203 0.04035
0.139299 0.056321 0.041015
0.219805 0.065914 0.034393
0.311379 0.06341 0
0.392895 0.071826 0
0.455618 0.096783 0.00903
0.515734 0.093396 0
0.551876 0.10221 0
0.57723 0.106014 0
0.594401 0.108798 0
0.608074 0.110968 0
0.621742 0.113165 0
0.015182 0.044297 0.042448
0.023792 0.044818 0.042813
0.037083 0.047174 0.043207
0.058377 0.05252 0.044534
0.094578 0.061844 0.046958
0.154229 0.075472 0.047265
0.239441 0.085879 0.038068
0.335745 0.086881 0
0.423545 0.092772 0
0.486778 0.117537 0
0.545786 0.12057 0
0.581926 0.128303 0
0.605074 0.13233 0
0.622283 0.135931 0
0.637047 0.139437 0
0.649865 0.142469 0
0 0.067552 0.052428
0 0.068896 0.051756
0.034315 0.072033 0.052434
0.061491 0.078506 0.054106
0.103633 0.088476 0.05597
0.169381 0.102564 0.054639
0.259177 0.114004 0.041599
0.361585 0.118877 0
0.455185 0.125211 0
0.529901 0.137238 0
0.576619 0.158693 0.019494
0.611981 0.166433 0.035726
0.640897 0.161732 0
0.658206 0.166025 0
0.666066 0.180718 0.039208
0.678792 0.185199 0.031367
0.01676 0.096878 0.067989
0.017691 0.097746 0.066663
0 0.104954 0.063944
0.056818 0.113793 0.065426
0.11032 0.125017 0.065445
0.18182 0.139111 0.060083
0.278732 0.152677 0.04221
0.387641 0.162448 0
0.486569 0.172455 0
0.565912 0.183858 0
0.62008 0.195089 0
0.649387 0.20653 0.028994
0.670992 0.212177 0.039776
0.6875 0.217495 0.039303
0.702636 0.223539 0.026769
0.717492 0.230249 0
0 0.13519 0.087142
0.007264 0.136334 0.086264
0.01237 0.142331 0.085033
0 0.158028 0.074077
0.106376 0.172032 0.070423
0.192913 0.189764 0.060744
0.298645 0.206979 0.031399
0.413787 0.221273 0
0.517833 0.236042 0
0.601364 0.246186 0
0.656457 0.253839 0
0.683235 0.264281 0.039939
0.711117 0.266307 0
0.728647 0.27321 0
0.738327 0.28593 0.037974
0.754675 0.294909 0
0.015536 0.179907 0.109048
0 0.183667 0.109377
0.011549 0.190886 0.108352
0 0.206022 0.100632
0.075774 0.233028 0.068847
0.197758 0.256188 0.04973
0.319593 0.279779 0
0.440914 0.298723 0
0.548676 0.314022 0
0.633721 0.326935 0
0.689827 0.335803 0
0.724891 0.340741 0.035635
0.752748 0.346335 0
0.770274 0.354978 0
0.780595 0.367684 0.027264
0.792808 0.382997 0.029259
0.012288 0.23699 0.134556
0 0.243115 0.135087
0.026416 0.252423 0.135467
0 0.270611 0.127341
0 0.305902 0.079868
0.186834 0.339102 0
0.335109 0.368943 0
0.466427 0.393611 0
0.577176 0.410506 0
0.664398 0.426259 0.021346
0.728952 0.437 0.040771
0.771807 0.441419 0.017001
0.797891 0.448011 0.017905
0.812975 0.456162 0.024732
0.822255 0.467895 0.046263
0.834472 0.484415 0.037698
0.021255 0.301505 0.162208
0 0.308599 0.161622
0.022073 0.320549 0.161818
0 0.342905 0.154383
0.044078 0.37787 0.129111
0.158648 0.429502 0
0.345517 0.464301 0
0.48994 0.495306 0
0.607963 0.517646 0
0.70343 0.535585 0
0.772778 0.54834 0.026387
0.817032 0.555092 0.03463
0.843362 0.559791 0
0.856011 0.565602 0.029277
0.866788 0.57509 0
0.876822 0.589453 0
0.043876 0.358901 0.186666
0 0.367566 0.1859
0.035481 0.381089 0.185309
0 0.40751 0.174823
0 0.450559 0.142092
0.143541 0.509547 0
0.360051 0.549107 0
0.514438 0.586728 0.003886
0.641278 0.616097 0
0.740573 0.636758 0
0.811297 0.650038 0.022668
0.856557 0.657883 0.034967
0.883854 0.663912 0
0.898609 0.668775 0
0.907441 0.675737 0
0.915648 0.687457 0.035117
0 0.401135 0.203074
0 0.411569 0.202024
0 0.427898 0.201154
0 0.456074 0.194134
0 0.503159 0.15794
0.132835 0.567691 0
0.374028 0.609599 0
0.533776 0.652348 0.029272
0.664796 0.685819 0.01527
0.767565 0.709701 0
0.839886 0.724879 0.034971
0.885618 0.733699 0.048224
0.912475 0.739935 0.067009
0.927626 0.744498 0.066421
0.935996 0.749728 0.072211
0.943594 0.758027 0.07197
0 0.426936 0.21643
0 0.439421 0.215616
0 0.459172 0.215619
0 0.489996 0.208424
0 0.537508 0.168754
0.12531 0.603458 0
0.381268 0.647688 0
0.545681 0.691694 0
0.67835 0.7269 0
0.783157 0.753045 0.036736
0.858185 0.770932 0.061023
0.905405 0.781055 0.073459
0.93155 0.786203 0.084652
0.946519 0.79039 0.085107
0.956169 0.795066 0.077994
0.96182 0.799495 0.080423
0.041784 0.44143 0.229997
0 0.457281 0.231034
0 0.481216 0.226902
0 0.51219 0.218265
0 0.560067 0.176387
0.11019 0.628512 0
0.385166 0.67309 0
0.553687 0.715547 0
0.688305 0.75166 0
0.794293 0.778376 0.044999
0.871022 0.79719 0.067207
0.919628 0.808476 0.086713
0.94644 0.813832 0.090805
0.961254 0.817884 0.09088
0.969787 0.821766 0.095938
0.974629 0.824295 0.09853
0.031801 0.451075 0.242579
0.043335 0.470982 0.245292
0 0.496681 0.24191
0 0.530897 0.227027
0.066609 0.577113 0.197069
0.103651 0.649309 0
0.388092 0.69359 0
0.560557 0.732982 0
0.694568 0.766403 0.026295
0.801044 0.793155 0.046635
0.878576 0.811977 0.071759
0.928283 0.82349 0.087037
0.956029 0.829653 0.098983
0.971829 0.834034 0.10034
0.98118 0.83757 0.096093
0.985664 0.839584 0.098646
0.048951 0.476146 0.275273
0 0.505523 0.273459
0 0.535389 0.270507
0 0.570682 0.255866
0 0.619887 0.212596
0.145644 0.683762 0
0.401763 0.726316 0
0.575659 0.764193 0
0.713751 0.793804 0
0.820581 0.815359 0
0.897029 0.830738 0
0.945734 0.840338 0.037548
0.973029 0.845988 0.099371
0.990076 0.85023 0.095599
1 0.853637 0.065998
1 0.854399 0.141652
0 0.522545 0.322389
0 0.561443 0.319907
0 0.599127 0.313839
0 0.63485 0.297402
0 0.686184 0.229722
0.264198 0.724637 0.196969
0.44958 0.761309 0.170281
0.603962 0.795501 0.124961
0.73558 0.823311 0
0.84239 0.843365 0
0.923091 0.857141 0
0.978653 0.866541 0
1 0.871301 0
1 0.870923 0.103786
0.998927 0.867547 0.257311
1 0.868884 0.277208
0 0.015328 0.052092
0.015203 0.016956 0.052535
0.029818 0.021524 0.053615
0.048595 0.027651 0.05582
0.079255 0.035549 0.058967
0.130721 0.046582 0.062003
0.204734 0.054501 0.06232
0.293528 0.046821 0.053862
0.387084 0 0.029217
0.464643 0 0
0.520952 0 0
0.560036 0 0
0.584933 0 0
0.602892 0 0
0.61729 0 0
0.628865 0 0
0.011121 0.030318 0.058616
0.020587 0.03047 0.057978
0.033827 0.033502 0.059299
0.054828 0.038977 0.062507
0.088123 0.046721 0.065377
0.142314 0.058401 0.066871
0.225124 0.06718 0.065857
0.320889 0.060709 0.056599
0.417883 0 0.027481
0.499518 0 0
0.556848 0 0
0.593905 0 0
0.61912 0 0
0.637387 0 0
0.651985 0 0
0.665404 0 0
0.003968 0.048245 0.065645
0.018508 0.048572 0.066334
0.035572 0.051341 0.067881
0.059611 0.057166 0.071008
0.097221 0.066115 0.073863
0.157203 0.078156 0.074574
0.245109 0.087246 0.071348
0.345722 0.086229 0.060856
0.446117 0.065401 0.028188
0.532602 0 0
0.593221 0 0
0.631588 0 0
0.65615 0 0
0.674001 0 0
0.689342 0 0
0.703778 0 0
0.02442 0.071786 0.074541
0.024411 0.073061 0.075739
0.025979 0.077466 0.079012
0.060441 0.083971 0.081387
0.105499 0.093728 0.08363
0.172945 0.106588 0.083924
0.264976 0.117123 0.078599
0.37016 0.120852 0.065229
0.475499 0.112297 0.027429
0.565277 0.098473 0
0.632981 0.074955 0
0.671342 0.071677 0
0.694785 0.075454 0
0.712576 0.078672 0
0.728525 0.079496 0
0.74272 0.080123 0
0.027297 0.102361 0.090346
0.025197 0.103969 0.090608
0 0.110261 0.091889
0.04872 0.119649 0.092878
0.109549 0.13021 0.093444
0.18557 0.144542 0.0921
0.284482 0.158281 0.085288
0.396839 0.165946 0.067716
0.509405 0.164806 0.013017
0.602117 0.162234 0
0.666159 0.15983 0
0.69837 0.166384 0
0.730794 0.155043 0
0.74927 0.158537 0
0.755182 0.179273 0
0.770903 0.183421 0
0.008324 0.140988 0.107911
0.004063 0.142993 0.108517
0.005289 0.148968 0.109511
0 0.163164 0.105578
0.100956 0.177897 0.102422
0.193752 0.195888 0.098698
0.303687 0.213724 0.088872
0.425982 0.226913 0.066219
0.546152 0.233135 0
0.638644 0.234877 0
0.702638 0.233873 0
0.742634 0.233333 0
0.764327 0.23934 0
0.783011 0.245313 0
0.790851 0.261023 0
0.808311 0.268368 0
0.016731 0.187857 0.130839
0.015257 0.191487 0.131656
0 0.198505 0.131492
0 0.212759 0.129016
0.050185 0.240765 0.109293
0.19193 0.262298 0.101868
0.32211 0.286227 0.08541
0.456671 0.306461 0.047123
0.579418 0.316985 0
0.674402 0.323114 0
0.740075 0.326691 0
0.776415 0.330837 0
0.803909 0.333608 0
0.822748 0.342118 0
0.833959 0.356958 0
0.844169 0.372359 0
0 0.247312 0.158358
0 0.252575 0.159077
0 0.261453 0.158758
0 0.27909 0.155302
0 0.31206 0.135216
0.175042 0.348687 0.095464
0.337314 0.380372 0.058338
0.485763 0.407206 0
0.609808 0.420971 0
0.706733 0.431269 0
0.773182 0.43952 0
0.818603 0.442199 0
0.841339 0.446448 0
0.858996 0.456224 0
0.871713 0.471001 0
0.881192 0.4854 0
0 0.312906 0.186212
0.028133 0.318514 0.188258
0 0.331091 0.188044
0 0.35319 0.185019
