Vibe/Lumetri/LUTs/Technical/ARRI_Universal_DCI.cube
LUT_3D_SIZE 16
0 0.003755 0.004475
0.020683 0.009597 0.01185
0.039072 0.019549 0.015914
0.060004 0.031672 0.019202
0.090512 0.044859 0.023491
0.137521 0.060543 0.026707
0.204321 0.076998 0.028949
0.285392 0.09117 0.03209
0.369533 0.099844 0.036369
0.441196 0.100859 0.04109
0.49938 0.096839 0.045288
0.543007 0.090788 0.048777
0.570649 0.084402 0.052038
0.591295 0.081504 0.054774
0.606985 0.081773 0.056526
0.61633 0.082485 0.057368
0.023143 0.033661 0.025169
0.030582 0.03319 0.02477
0.044873 0.036104 0.026211
0.065931 0.044072 0.029495
0.098616 0.05598 0.03266
0.149577 0.071133 0.0344
0.220736 0.088282 0.035125
0.306129 0.103424 0.037275
0.395081 0.112408 0.041202
0.473045 0.115016 0.046093
0.531052 0.111519 0.049915
0.570346 0.10527 0.052657
0.598582 0.103345 0.056002
0.617335 0.102989 0.057977
0.630507 0.105057 0.058852
0.642713 0.112504 0.060351
0.032005 0.054197 0.037325
0.038109 0.05503 0.037113
0.05123 0.05745 0.037872
0.072871 0.063526 0.040054
0.108352 0.074686 0.042525
0.163982 0.090315 0.043724
0.241148 0.107874 0.044346
0.331188 0.123695 0.045943
0.422544 0.133874 0.048113
0.502372 0.137862 0.051777
0.561902 0.137235 0.055608
0.601706 0.135109 0.058211
0.629001 0.135067 0.060114
0.646603 0.136936 0.061924
0.658749 0.141612 0.06356
0.66967 0.149558 0.06491
0.03322 0.080457 0.050033
0.040441 0.081109 0.050205
0.05431 0.083601 0.0507
0.079664 0.090215 0.05203
0.118844 0.101821 0.053931
0.17727 0.11722 0.054518
0.262141 0.13623 0.054938
0.357955 0.153706 0.055779
0.450601 0.164352 0.056368
0.530972 0.170206 0.058414
0.592332 0.172788 0.061518
0.63346 0.173244 0.063791
0.658819 0.173772 0.0648
0.676148 0.178393 0.066693
0.689086 0.186606 0.069053
0.698292 0.195153 0.070407
0 0.113026 0.063239
0.020774 0.113374 0.062834
0.048369 0.116303 0.063249
0.082602 0.124329 0.064394
0.127528 0.137166 0.066039
0.18964 0.153343 0.066051
0.28165 0.173982 0.065386
0.383932 0.193655 0.065022
0.480067 0.206088 0.064805
0.562316 0.214091 0.065541
0.624063 0.218313 0.067067
0.664257 0.219438 0.068633
0.68832 0.220889 0.070009
0.705509 0.227245 0.071461
0.719502 0.237772 0.07308
0.729981 0.248734 0.074799
0.02256 0.149565 0.084359
0 0.151834 0.081124
0 0.158751 0.075324
0.074892 0.168131 0.076394
0.132081 0.182968 0.078186
0.206511 0.202925 0.078107
0.303793 0.225429 0.076153
0.411958 0.247051 0.07401
0.515585 0.264119 0.072731
0.598991 0.273819 0.071941
0.659829 0.278454 0.072351
0.700207 0.281201 0.0737
0.724553 0.284139 0.074264
0.740687 0.290024 0.074395
0.753811 0.300469 0.074831
0.765591 0.314176 0.07575
0 0.197199 0.106076
0.028801 0.199184 0.106186
0 0.209856 0.097337
0.019593 0.225262 0.088986
0.132377 0.24287 0.089758
0.22231 0.267487 0.089225
0.329061 0.294933 0.086166
0.44398 0.31986 0.08146
0.552917 0.338754 0.077651
0.638735 0.349817 0.074674
0.700413 0.35598 0.073389
0.741588 0.360536 0.073572
0.766605 0.364683 0.072956
0.782016 0.371051 0.072054
0.794074 0.382475 0.07144
0.80618 0.398551 0.070825
0.011664 0.255127 0.132388
0 0.259208 0.130647
0.032243 0.269506 0.129782
0 0.294411 0.10721
0.120275 0.317208 0.100415
0.234104 0.347534 0.097869
0.35525 0.381295 0.091938
0.47838 0.410347 0.082803
0.590673 0.431182 0.074195
0.680591 0.444829 0.066295
0.744726 0.452369 0.060794
0.786129 0.456587 0.058612
0.811591 0.4617 0.056026
0.827448 0.469649 0.053063
0.839363 0.482014 0.04938
0.850756 0.498282 0.043133
0.042755 0.318535 0.159447
0 0.324377 0.157326
0.036516 0.337918 0.156538
0 0.366109 0.136492
0.073946 0.399014 0.108833
0.241453 0.434933 0.102456
0.378671 0.474298 0.090468
0.51131 0.508288 0.071771
0.628843 0.533517 0.046929
0.722873 0.550718 0
0.789351 0.559489 0
0.831184 0.562976 0
0.857228 0.568554 0
0.873906 0.577082 0
0.885809 0.58864 0
0.895794 0.602843 0
0.052628 0.375634 0.181196
0 0.385087 0.179351
0 0.400749 0.17796
0 0.428489 0.16658
0 0.474159 0.112288
0.243633 0.513443 0.101619
0.395902 0.556865 0.082028
0.538979 0.597085 0.030612
0.662515 0.627372 0
0.75883 0.647143 0
0.827803 0.658707 0
0.872767 0.665259 0
0.899708 0.670478 0
0.91533 0.676826 0
0.926152 0.685839 0
0.935416 0.697402 0
0 0.418895 0.195021
0 0.430561 0.192569
0 0.447656 0.190069
0 0.479832 0.171142
0 0.528846 0.115481
0.25014 0.572063 0.096509
0.411299 0.61893 0.065283
0.560042 0.663572 0
0.687839 0.697544 0
0.78682 0.720406 0
0.857923 0.734688 0
0.904542 0.743108 0
0.931852 0.748375 0
0.947523 0.753365 0
0.957304 0.759663 0
0.964701 0.767286 0
0.048666 0.445519 0.20664
0 0.458867 0.204051
0 0.477735 0.20137
0 0.510801 0.183587
0 0.563278 0.118153
0.263876 0.609512 0.091288
0.426484 0.658802 0.038923
0.575318 0.705278 0
0.704802 0.741471 0
0.806876 0.767458 0
0.879404 0.783702 0
0.925501 0.792424 0
0.952428 0.798023 0
0.967978 0.802844 0
0.97715 0.807245 0
0.982428 0.810777 0
0 0.463572 0.207662
0.047284 0.478578 0.211875
0 0.503504 0.201716
0 0.540612 0.168438
0 0.586798 0.110492
0.278743 0.631639 0.088851
0.439246 0.681402 0
0.586989 0.728164 0
0.716182 0.765546 0
0.81872 0.792825 0
0.892324 0.81068 0
0.939559 0.820868 0
0.967057 0.826733 0
0.982752 0.831283 0
0.991842 0.834879 0
0.996415 0.836664 0
0 0.472893 0.211684
0 0.494558 0.210065
0 0.520134 0.206337
0 0.558549 0.170301
0.05036 0.603488 0.107796
0.296932 0.646886 0.08433
0.453281 0.695963 0
0.599109 0.742265 0
0.725958 0.778939 0
0.826881 0.805832 0
0.900374 0.824319 0
0.948976 0.835787 0
0.978062 0.842273 0
0.993796 0.846253 0
1 0.849049 0
1 0.850895 0
0 0.496103 0.222347
0.051363 0.523566 0.219804
0 0.560099 0.192652
0 0.599306 0.138149
0.205699 0.630629 0.125014
0.349977 0.670472 0.109503
0.489007 0.715509 0.081937
0.622967 0.757854 0
0.741766 0.791655 0
0.83821 0.816887 0
0.910146 0.834905 0
0.95907 0.84662 0
0.988984 0.853348 0
1 0.85706 0
1 0.858976 0
1 0.860431 0
0.063952 0.53537 0.248042
0 0.581519 0.214829
0 0.622464 0.174086
0.20082 0.646098 0.168434
0.310894 0.671903 0.160614
0.427155 0.706552 0.153042
0.545762 0.744206 0.143221
0.659627 0.778318 0.126935
0.76457 0.807319 0.10599
0.853481 0.830221 0.082753
0.922357 0.847169 0.057078
0.970293 0.858447 0
0.999582 0.864704 0
1 0.867316 0.111412
1 0.869039 0.148616
1 0.867649 0.210621
0.009565 0 0.022837
0.024063 0.016823 0.024641
0.040778 0.023487 0.026449
0.061721 0.033256 0.028915
0.093718 0.047005 0.032561
0.143746 0.062643 0.036091
0.211944 0.07908 0.037088
0.29256 0.092485 0.038338
0.376244 0.099287 0.043009
0.450193 0.100307 0.046874
0.510063 0.096368 0.050998
0.55387 0.08927 0.055353
0.58152 0.082791 0.057431
0.601227 0.078239 0.059664
0.616937 0.076919 0.062289
0.628842 0.079382 0.063897
0.025704 0.034328 0.031833
0.031996 0.035312 0.033079
0.045688 0.038617 0.034398
0.067576 0.046301 0.036707
0.102042 0.058604 0.039761
0.155042 0.07402 0.040933
0.228789 0.090205 0.04144
0.314429 0.104604 0.043775
0.401784 0.113463 0.047093
0.480496 0.114433 0.051812
0.540657 0.11026 0.055859
0.581387 0.105352 0.058387
0.609104 0.102358 0.060796
0.627502 0.100641 0.062254
0.640889 0.102904 0.063739
0.653642 0.111514 0.066675
0.032476 0.056074 0.043633
0.039295 0.056882 0.042991
0.051787 0.059291 0.043721
0.073987 0.065553 0.046031
0.11117 0.076936 0.048268
0.168663 0.092934 0.049196
0.248312 0.110487 0.050463
0.339809 0.125948 0.052503
0.431269 0.135591 0.05365
0.511533 0.138652 0.057192
0.572634 0.13787 0.060995
0.613069 0.135674 0.063078
0.638277 0.133623 0.065077
0.656009 0.135591 0.066894
0.669735 0.141704 0.068776
0.680789 0.149519 0.071227
0.031894 0.082535 0.055785
0.041014 0.083144 0.054574
0.055427 0.086098 0.055353
0.080406 0.092599 0.057505
0.120707 0.103328 0.058813
0.182144 0.119587 0.059741
0.26856 0.139047 0.06086
0.366474 0.156464 0.061598
0.461813 0.167819 0.06222
0.54274 0.173087 0.064087
0.604658 0.175113 0.066709
0.645906 0.175632 0.068853
0.669457 0.175457 0.070401
0.686765 0.179902 0.072494
0.701134 0.18858 0.074901
0.710814 0.197461 0.076801
0 0.115076 0.068444
0.015369 0.116095 0.067056
0.049609 0.119577 0.068038
0.083477 0.127425 0.069636
0.129338 0.139469 0.070575
0.195409 0.156364 0.071287
0.288658 0.177108 0.070931
0.392706 0.19694 0.069981
0.491935 0.211132 0.070851
0.575043 0.218356 0.071917
0.637029 0.221637 0.073073
0.678001 0.223909 0.074682
0.702836 0.226158 0.076118
0.719395 0.231617 0.077515
0.732495 0.241347 0.079276
0.743521 0.253135 0.081482
0.022787 0.152751 0.088838
0 0.155499 0.085994
0 0.16215 0.081217
0.075538 0.172183 0.081496
0.135256 0.187983 0.082892
0.212503 0.207871 0.083539
0.312221 0.230711 0.082139
0.421475 0.252505 0.079408
0.525793 0.268777 0.07798
0.611752 0.278852 0.078279
0.673801 0.28379 0.079165
0.713764 0.28606 0.079951
0.738891 0.289269 0.080867
0.754942 0.295465 0.081566
0.767277 0.305791 0.082362
0.779223 0.319087 0.083575
0 0.200617 0.110934
0 0.204123 0.110044
0 0.214312 0.104224
0 0.230959 0.094879
0.136264 0.249558 0.095307
0.230486 0.275325 0.094538
0.339473 0.303337 0.091801
0.454833 0.32754 0.087467
0.564035 0.345131 0.083503
0.652874 0.358202 0.081588
0.715708 0.364977 0.081145
0.755565 0.36705 0.081148
0.78109 0.371734 0.081593
0.796791 0.378893 0.08193
0.808556 0.390379 0.081905
0.82112 0.407153 0.081656
0 0.260997 0.136361
0.030865 0.265686 0.13764
0 0.277604 0.134494
0 0.300244 0.116371
0.123113 0.324279 0.106543
0.241386 0.355991 0.103606
0.365028 0.390598 0.098057
0.489607 0.419156 0.090133
0.603021 0.439033 0.082412
0.695489 0.45502 0.075994
0.76123 0.464563 0.071635
0.802548 0.467947 0.069979
0.828268 0.472916 0.0704
0.843081 0.478834 0.069266
0.854073 0.490024 0.066813
0.867146 0.510015 0.065939
0.012722 0.327441 0.164642
0 0.335303 0.163157
0 0.347869 0.161751
0 0.374397 0.139378
0.072002 0.406556 0.115026
0.243138 0.44296 0.109676
0.385441 0.48355 0.099256
0.521622 0.518317 0.083169
0.639933 0.542528 0.064083
0.736747 0.561068 0.039821
0.806675 0.573026 0
0.850164 0.578539 0
0.875499 0.583336 0
0.889421 0.587351 0
0.899694 0.596274 0
0.912073 0.615071 0
0 0.386383 0.187396
0 0.39581 0.185368
0 0.410227 0.183053
0 0.437583 0.169095
0 0.483301 0.119388
0.249762 0.523794 0.109937
0.405432 0.568765 0.092157
0.550685 0.610041 0.060216
0.676303 0.640235 0
0.775386 0.660464 0
0.845647 0.672035 0
0.890619 0.678581 0
0.918554 0.685705 0
0.933767 0.691603 0
0.943068 0.698542 0
0.952546 0.710302 0
0 0.429041 0.200978
0.024891 0.438512 0.203822
0.043546 0.455353 0.201658
0.057324 0.484389 0.190957
0 0.538089 0.123053
0.258668 0.582672 0.107172
0.423951 0.631642 0.080099
0.574301 0.677037 0
0.703315 0.710837 0
0.804361 0.733632 0
0.875992 0.747268 0
0.92214 0.755151 0
0.95057 0.7619 0
0.966642 0.767724 0
0.97502 0.773314 0
0.981268 0.780068 0
0 0.454458 0.21231
0 0.468929 0.210112
0 0.489179 0.207428
0 0.523001 0.185428
0 0.571561 0.127175
0.267383 0.618275 0.107898
0.437116 0.669734 0.075696
0.589307 0.716657 0
0.718867 0.75219 0
0.822143 0.777783 0
0.896825 0.794965 0
0.944388 0.804751 0
0.970918 0.809426 0
0.985204 0.813055 0
0.993893 0.817534 0
0.999917 0.822314 0
0 0.470669 0.220193
0 0.487749 0.218354
0 0.510896 0.215899
0 0.546889 0.190945
0 0.594456 0.132239
0.280164 0.640171 0.114049
0.445276 0.690764 0.084589
0.597136 0.737985 0
0.72997 0.77584 0
0.833516 0.802449 0
0.90826 0.820245 0
0.957736 0.83148 0
0.985752 0.837103 0
0.999948 0.840774 0
1 0.844019 0
1 0.846047 0
0.048883 0.478137 0.231298
0.064466 0.498814 0.230958
0 0.526339 0.222048
0 0.564092 0.194065
0 0.613116 0.135211
0.298992 0.6566 0.12148
0.459801 0.70535 0.095656
0.609272 0.75221 0.023724
0.738717 0.78952 0
0.841102 0.815984 0
0.915869 0.833927 0
0.96561 0.845456 0
0.994707 0.852066 0
1 0.856192 0
1 0.858412 0
1 0.857841 0.09633
0 0.502396 0.253633
0 0.532195 0.24816
0 0.565461 0.231618
0 0.606803 0.186398
0.191854 0.642144 0.175979
0.347947 0.681871 0.168725
0.493478 0.72623 0.156928
0.631436 0.769085 0.142112
0.750132 0.80273 0.124977
0.84789 0.827573 0.10196
0.921623 0.845357 0.080205
0.970883 0.856935 0.070742
1 0.863379 0.059483
1 0.866268 0.116181
1 0.868154 0.147775
1 0.867306 0.206365
0 0.545494 0.293595
0 0.587316 0.279838
0 0.631702 0.246302
0.153089 0.658883 0.237727
0.294914 0.685728 0.235859
0.417854 0.719558 0.233245
0.541474 0.756469 0.228978
0.660059 0.791075 0.223431
0.766581 0.820243 0.218542
0.855561 0.841921 0.208314
0.925111 0.858296 0.202989
0.974084 0.870322 0.206818
1 0.876017 0.201688
1 0.877597 0.222483
1 0.879257 0.242104
1 0.878102 0.287242
0 0.011951 0.043306
0.023401 0.020135 0.044226
0.041587 0.027494 0.045116
0.063444 0.036137 0.046811
0.096177 0.04812 0.049649
0.146948 0.063997 0.051441
0.216928 0.07986 0.052416
0.300152 0.092852 0.054664
0.386232 0.1003 0.057591
0.462187 0.100563 0.060619
0.522669 0.09464 0.064485
0.566257 0.08495 0.068013
0.595008 0.075847 0.069586
0.614875 0.071144 0.071513
0.629835 0.071299 0.074775
0.641842 0.074314 0.078467
0.024669 0.037268 0.050164
0.032488 0.038138 0.050425
0.047125 0.042208 0.051317
0.070009 0.049432 0.053178
0.104817 0.060164 0.055407
0.158091 0.075761 0.056729
0.235232 0.092468 0.057625
0.324784 0.106813 0.059949
0.414163 0.114989 0.063197
0.493086 0.115179 0.066325
0.553766 0.110314 0.069554
0.595456 0.104451 0.07262
0.623182 0.099723 0.07447
0.641436 0.097961 0.075939
0.654677 0.101207 0.078495
0.666615 0.109041 0.082339
0.030562 0.058945 0.058683
0.038468 0.059531 0.059056
0.05267 0.062287 0.05937
0.075882 0.068454 0.060619
0.113537 0.07914 0.063068
0.172253 0.095336 0.064687
0.254633 0.113045 0.065832
0.348801 0.128393 0.067626
0.442095 0.138142 0.069962
0.523335 0.140492 0.072563
0.58529 0.138468 0.075142
0.62665 0.135526 0.077411
0.652218 0.133362 0.079261
0.669892 0.135529 0.081258
0.683389 0.141958 0.084058
0.693925 0.149978 0.087692
0.025692 0.085486 0.068931
0.037844 0.085941 0.068941
0.054844 0.089254 0.069608
0.08091 0.096058 0.071323
0.122877 0.10668 0.073502
0.187223 0.122999 0.074885
0.274954 0.1421 0.075935
0.373716 0.159034 0.076894
0.471051 0.170677 0.07823
0.555122 0.176622 0.080543
0.618427 0.17824 0.082863
0.659419 0.177529 0.084364
0.683605 0.177592 0.085839
0.700775 0.181874 0.088124
0.714323 0.190023 0.091155
0.723914 0.199355 0.094419
0 0.117913 0.08235
0 0.119019 0.080422
0.045418 0.123431 0.081473
0.082612 0.13188 0.084284
0.132036 0.143867 0.085759
0.201919 0.161192 0.086435
0.295759 0.181494 0.086742
0.400622 0.200498 0.08692
0.502829 0.214938 0.087754
0.589811 0.223677 0.090015
0.653103 0.227322 0.091837
0.692987 0.228086 0.092353
0.717776 0.229927 0.093376
0.734014 0.235439 0.095478
0.746093 0.244922 0.098539
0.75643 0.256469 0.101954
0.026413 0.15695 0.102252
0 0.159115 0.099847
0 0.16672 0.096176
0.072629 0.177479 0.09715
0.137714 0.19298 0.098463
0.218301 0.213801 0.098761
0.318353 0.23623 0.098466
0.429548 0.257373 0.097825
0.538128 0.275128 0.097541
0.626162 0.285168 0.098499
0.68846 0.288787 0.098499
0.728174 0.29009 0.097371
0.753472 0.293251 0.098438
0.769856 0.30095 0.101135
0.7818 0.312575 0.104809
0.792542 0.325641 0.109241
0.01766 0.20652 0.125036
0 0.210664 0.12528
0 0.218906 0.123359
0 0.236895 0.111152
0.135578 0.255711 0.111223
0.233024 0.281201 0.111072
0.3448 0.308891 0.109684
0.462918 0.333295 0.107177
0.574701 0.351304 0.10515
0.665236 0.363789 0.10375
0.728944 0.369623 0.102628
0.769214 0.371622 0.102302
0.795311 0.377557 0.103836
0.811857 0.386609 0.105924
0.823605 0.398934 0.108353
0.834754 0.415088 0.111901
0.016772 0.268032 0.151848
0 0.274631 0.152182
0.037968 0.284636 0.152182
0 0.30752 0.134989
0.116667 0.333411 0.124342
0.241776 0.363647 0.12262
0.370954 0.398098 0.118532
0.498748 0.427874 0.112677
0.612886 0.447107 0.107928
0.707265 0.462369 0.103625
0.774916 0.47179 0.101428
0.817019 0.475519 0.10234
0.843074 0.481643 0.104037
0.858564 0.489541 0.104367
0.869466 0.500973 0.104195
0.880578 0.517979 0.105624
0.031867 0.335903 0.180209
0 0.343458 0.179209
0.035075 0.356073 0.178869
0 0.381918 0.16468
0.028898 0.418411 0.136066
0.244704 0.453889 0.131588
0.392751 0.494906 0.123309
0.532738 0.531354 0.112993
0.65301 0.555326 0.103511
0.750387 0.572878 0.094562
0.821434 0.584689 0.088236
0.866385 0.590533 0.087045
0.891316 0.594801 0.088453
0.905259 0.600257 0.086778
0.915384 0.609728 0.084334
0.925234 0.624076 0.086156
0 0.396982 0.201341
0.014664 0.404334 0.203591
0.049422 0.418451 0.202295
0 0.447623 0.186231
0 0.494142 0.142779
0.250231 0.535863 0.135971
0.413204 0.58236 0.123943
0.562428 0.624481 0.108023
0.68987 0.654341 0.089838
0.790455 0.674471 0.068752
0.862371 0.686851 0.047095
0.908086 0.693832 0.037974
0.934541 0.69923 0.042315
0.948938 0.703783 0.029503
0.957947 0.710591 0
0.966168 0.722152 0.040669
0 0.438482 0.221013
0 0.449372 0.219327
0 0.466247 0.217658
0 0.495478 0.208756
0 0.54898 0.15105
0.255987 0.594321 0.139275
0.428954 0.644338 0.123902
0.583549 0.690323 0.10161
0.714909 0.724003 0.070338
0.818567 0.747185 0
0.892046 0.761513 0
0.938486 0.769538 0
0.966115 0.775262 0
0.980719 0.779384 0
0.988631 0.784348 0
0.994903 0.792292 0
0 0.464546 0.234522
0 0.477462 0.233046
0 0.49771 0.232206
0 0.529501 0.223035
0 0.58359 0.160772
0.262025 0.629293 0.1481
0.439393 0.68077 0.132916
0.595963 0.728504 0.109452
0.728107 0.764065 0.077312
0.833738 0.789817 0
0.909977 0.806982 0
0.958246 0.816435 0
0.985153 0.821139 0
0.999507 0.824841 0
1 0.828919 0
1 0.832777 0.05489
0.055625 0.478802 0.248763
0.007717 0.495042 0.249171
0 0.519771 0.243544
0 0.552991 0.229415
0 0.605309 0.171457
0.272936 0.651138 0.163369
0.448591 0.702425 0.15224
0.604103 0.749955 0.13341
0.736552 0.786869 0.111095
0.842633 0.813606 0.085173
0.920111 0.831912 0.056615
0.969795 0.842727 0
0.99725 0.847722 0
1 0.851002 0.059581
1 0.853947 0.109183
1 0.85576 0.132721
0.043822 0.488123 0.262061
0.058239 0.508392 0.264105
0 0.534809 0.259239
0 0.573432 0.23343
0 0.622752 0.190628
0.289425 0.667925 0.180931
0.459642 0.71705 0.170563
0.611319 0.763245 0.156108
0.741269 0.799631 0.138963
0.846598 0.826558 0.123308
0.924304 0.845157 0.110756
0.974617 0.85633 0.100831
1 0.862135 0.101387
1 0.865295 0.134352
1 0.86591 0.195655
1 0.867008 0.211248
0.061973 0.5123 0.296282
0 0.542371 0.292982
0 0.572816 0.288426
0 0.615369 0.255825
0.143176 0.654601 0.240314
0.334857 0.69412 0.237296
0.486948 0.737903 0.231692
0.627354 0.779774 0.225133
0.749094 0.813125 0.217273
0.84935 0.838516 0.210235
0.924809 0.856426 0.204857
0.974955 0.86747 0.201332
1 0.873795 0.200684
1 0.87637 0.224409
1 0.876128 0.268582
1 0.877143 0.28252
0 0.557404 0.344602
0 0.59687 0.340193
0 0.641331 0.319676
0 0.672648 0.310529
0.26766 0.699897 0.312091
0.401032 0.732999 0.313011
0.530854 0.769331 0.312809
0.654613 0.803843 0.310949
0.763838 0.832628 0.308212
0.853911 0.854476 0.303357
0.923938 0.87056 0.299396
0.973256 0.881701 0.298488
1 0.887635 0.296933
1 0.889673 0.309516
1 0.889028 0.343457
1 0.890128 0.357454
0.012504 0.033198 0.059954
0.019115 0.022325 0.071265
0.040755 0.02935 0.072264
0.063832 0.038044 0.074298
0.09756 0.049043 0.076921
0.14935 0.064564 0.079117
0.220464 0.08016 0.080792
0.306381 0.09368 0.082619
0.395809 0.102122 0.084407
0.473255 0.100757 0.086487
0.534512 0.092234 0.089485
0.578678 0.080615 0.092709
0.607544 0.0681 0.09489
0.62689 0.061934 0.097282
0.640565 0.063396 0.100214
0.650903 0.066802 0.102974
0.017959 0.040795 0.077877
0.029894 0.041055 0.077096
0.046502 0.044933 0.078341
0.070869 0.05179 0.081384
0.106452 0.061654 0.083595
0.160369 0.076956 0.084308
0.240167 0.093915 0.086178
0.332894 0.108213 0.089521
0.424572 0.115818 0.091073
0.504501 0.115743 0.09335
0.565521 0.109955 0.095649
0.607195 0.101806 0.097356
0.634895 0.095627 0.100387
0.653434 0.095367 0.103003
0.666544 0.100358 0.105404
0.677075 0.10719 0.109119
0.021361 0.062141 0.085851
0.033628 0.062633 0.085725
0.050759 0.06576 0.087175
0.07658 0.072303 0.090035
0.115475 0.082535 0.092252
0.174619 0.097372 0.092755
0.260246 0.115032 0.094734
0.357047 0.130778 0.097999
0.451337 0.140043 0.098905
0.534007 0.142077 0.100971
0.596859 0.139465 0.103823
0.638577 0.135842 0.105841
0.664918 0.134353 0.108006
0.682512 0.136967 0.109716
0.695191 0.14344 0.112586
0.704866 0.151786 0.118324
0.024573 0.089087 0.095258
0.024081 0.090317 0.09674
0.049388 0.093839 0.098226
0.07987 0.100671 0.10035
0.124373 0.111222 0.102338
0.190626 0.126881 0.103992
0.280722 0.145666 0.106066
0.381047 0.16245 0.107735
0.479316 0.173538 0.108118
0.565337 0.179528 0.110211
0.629732 0.180784 0.113247
0.671055 0.179305 0.114972
0.696284 0.179954 0.116029
0.712986 0.184459 0.11806
0.725066 0.192312 0.122185
0.734031 0.201771 0.128239
0.023 0.121808 0.109096
0 0.124067 0.109236
0.021002 0.129354 0.110487
0.077592 0.137153 0.112384
0.131847 0.14886 0.113923
0.206129 0.166967 0.116675
0.301592 0.187404 0.118564
0.407632 0.205399 0.118668
0.511808 0.21874 0.119114
0.600487 0.227838 0.121043
0.664252 0.231404 0.122653
0.703745 0.230856 0.122782
0.728596 0.232674 0.123978
0.74475 0.238853 0.12781
0.756122 0.248316 0.132697
0.765387 0.259053 0.136915
0.021298 0.162428 0.12598
0.02018 0.164641 0.126604
0 0.172357 0.126629
0.057869 0.184186 0.126791
0.134876 0.198983 0.128491
0.219958 0.22005 0.130403
0.323619 0.243138 0.131668
0.437531 0.264407 0.131859
0.547766 0.281326 0.132269
0.636638 0.290633 0.132425
0.699626 0.294087 0.132522
0.73972 0.295565 0.133128
0.764704 0.299105 0.134718
0.780796 0.306916 0.138153
0.79218 0.318217 0.14251
0.801633 0.330925 0.146368
0 0.214367 0.150079
0.002935 0.218321 0.150877
0.027389 0.225527 0.151061
0 0.243848 0.143619
0.127733 0.263448 0.144389
0.22923 0.287174 0.145018
0.347432 0.315172 0.145418
0.470608 0.341554 0.146034
0.583693 0.359433 0.14488
0.675035 0.370808 0.143436
0.740205 0.376982 0.143831
0.781269 0.379822 0.145312
0.806165 0.38431 0.145657
0.822481 0.393863 0.148361
0.83438 0.407514 0.153042
0.84385 0.422381 0.15663
0 0.278069 0.178581
0 0.283721 0.179125
0 0.293307 0.178295
0 0.314342 0.169927
0.095163 0.34384 0.159905
0.235813 0.372792 0.160072
0.372746 0.40728 0.159093
0.505837 0.438652 0.157727
0.621671 0.457771 0.154208
0.716912 0.471484 0.151533
0.785743 0.480679 0.151828
0.828154 0.484729 0.152903
0.852576 0.488685 0.152057
0.868631 0.498701 0.154729
0.880633 0.513167 0.160014
0.889436 0.527217 0.163185
0 0.346903 0.206558
0.036246 0.352711 0.208573
0 0.366012 0.207697
0 0.389348 0.203283
