Vibe/Lumetri/LUTs/Technical/ARRI_Universal_DCI.cube
LUT_3D_SIZE 6
0 0.003755 0.004475
0.060004 0.031672 0.019202
0.204321 0.076998 0.028949
0.441196 0.100859 0.04109
0.570649 0.084402 0.052038
0.61633 0.082485 0.057368
0.03322 0.080457 0.050033
0.079664 0.090215 0.05203
0.262141 0.13623 0.054938
0.530972 0.170206 0.058414
0.658819 0.173772 0.0648
0.698292 0.195153 0.070407
0 0.197199 0.106076
0.019593 0.225262 0.088986
0.329061 0.294933 0.086166
0.638735 0.349817 0.074674
0.766605 0.364683 0.072956
0.80618 0.398551 0.070825
0.052628 0.375634 0.181196
0 0.428489 0.16658
0.395902 0.556865 0.082028
0.75883 0.647143 0
0.899708 0.670478 0
0.935416 0.697402 0
0 0.463572 0.207662
0 0.540612 0.168438
0.439246 0.681402 0
0.81872 0.792825 0
0.967057 0.826733 0
0.996415 0.836664 0
0.063952 0.53537 0.248042
0.20082 0.646098 0.168434
0.545762 0.744206 0.143221
0.853481 0.830221 0.082753
0.999582 0.864704 0
1 0.867649 0.210621
0.012504 0.033198 0.059954
0.063832 0.038044 0.074298
0.220464 0.08016 0.080792
0.473255 0.100757 0.086487
0.607544 0.0681 0.09489
0.650903 0.066802 0.102974
0.024573 0.089087 0.095258
0.07987 0.100671 0.10035
0.280722 0.145666 0.106066
0.565337 0.179528 0.110211
0.696284 0.179954 0.116029
0.734031 0.201771 0.128239
0 0.214367 0.150079
0 0.243848 0.143619
0.347432 0.315172 0.145418
0.675035 0.370808 0.143436
0.806165 0.38431 0.145657
0.84385 0.422381 0.15663
0 0.407656 0.231855
0.048612 0.456707 0.229441
0.415182 0.597172 0.178483
0.800244 0.688142 0.155225
0.943721 0.710747 0.151655
0.973807 0.734666 0.162293
0 0.491184 0.285469
0 0.560827 0.282332
0.442327 0.714867 0.223512
0.846357 0.826151 0.200368
1 0.859371 0.190353
1 0.865479 0.258494
0 0.571028 0.400127
0 0.684946 0.38629
0.516232 0.781703 0.391128
0.849713 0.867537 0.391999
0.999188 0.899917 0.387114
1 0.901304 0.450411
0 0.075591 0.178642
0.060057 0 0.224736
0.232371 0.05732 0.251342
0.49407 0.076278 0.266191
0.625834 0 0.272086
0.66803 0 0.287278
0 0.12751 0.231689
0.023061 0.111419 0.277813
0.291047 0.157259 0.308129
0.58779 0.187642 0.321778
0.713555 0.18694 0.324633
0.749563 0.213 0.347492
0.021865 0.260993 0.305068
0.026488 0.280173 0.327978
0.341715 0.353108 0.378848
0.68851 0.402951 0.391029
0.81837 0.41336 0.394788
0.853758 0.453257 0.416094
0.016503 0.46028 0.403756
0.026675 0.508741 0.429246
0.37164 0.648983 0.451428
0.801819 0.740239 0.46401
0.946643 0.758428 0.463461
0.974479 0.783363 0.479241
0 0.545533 0.469763
0 0.610106 0.499001
0.374222 0.76638 0.514947
0.83664 0.878058 0.532993
0.994121 0.908336 0.527397
1 0.912939 0.557177
0 0.621301 0.577679
0 0.72074 0.620612
0.472055 0.828088 0.643285
0.8354 0.910465 0.654276
0.989061 0.942802 0.657771
1 0.945036 0.687807
0 0.138411 0.317839
0.045362 0 0.401011
0.243974 0 0.453282
0.50725 0 0.489335
0.636237 0 0.497917
0.680305 0 0.517567
0 0.197444 0.385058
0 0.193698 0.426011
0.297539 0.138267 0.553926
0.601009 0.170055 0.578794
0.728893 0.168608 0.585437
0.763043 0.204266 0.606768
0 0.327528 0.489007
0 0.343966 0.527045
0.316405 0.383812 0.652806
0.692422 0.433407 0.6837
0.824939 0.441089 0.684998
0.859167 0.485102 0.706692
0 0.52723 0.600027
0.018431 0.573492 0.64292
0.276012 0.702315 0.747285
0.786284 0.789001 0.777325
0.939339 0.80789 0.783209
0.966931 0.831629 0.792325
0 0.609975 0.657729
0 0.672408 0.708161
0.248579 0.819266 0.799278
0.813466 0.926571 0.830673
0.980484 0.957645 0.836721
1 0.963702 0.844218
0.022714 0.669187 0.727777
0 0.757428 0.796666
0.408015 0.863664 0.857429
0.812806 0.947238 0.883591
0.976764 0.979601 0.891737
1 0.983447 0.904016
0 0.178449 0.388725
0 0 0.494185
0.251936 0 0.554454
0.515302 0 0.601179
0.646159 0 0.617497
0.689425 0 0.636894
0 0.239698 0.471619
0 0.242556 0.506681
0.296789 0.119907 0.680404
0.608954 0.152972 0.716891
0.740192 0.149583 0.726799
0.7751 0.202301 0.746606
0 0.360953 0.577984
0 0.377216 0.622705
0.296646 0.395647 0.784211
0.686974 0.441995 0.823278
0.827629 0.451703 0.832914
0.861126 0.495084 0.84853
0 0.559858 0.690999
0 0.599778 0.735255
0.180439 0.717037 0.879334
0.770625 0.803221 0.921975
0.931526 0.821183 0.93115
0.961199 0.845403 0.93892
0.048469 0.637336 0.734529
0.06389 0.696884 0.789736
0 0.833821 0.912718
0.7936 0.942052 0.956546
0.971227 0.975014 0.968744
0.998472 0.981999 0.971267
0 0.68916 0.783949
0 0.771615 0.856586
0.366646 0.873204 0.934227
0.799422 0.957745 0.967844
0.969387 0.991174 0.980411
0.999872 0.997199 0.986029
0 0.209685 0.436744
0 0.185172 0.500125
0.280193 0 0.640612
0.565154 0 0.683942
0.695813 0 0.697054
0.737965 0 0.721369
0 0.275961 0.519687
0 0.281433 0.561371
0.301743 0.210487 0.736284
0.627974 0.240644 0.775699
0.765359 0.244389 0.788195
0.80073 0.287335 0.806401
0 0.388765 0.608341
0 0.407362 0.65554
0.285193 0.431474 0.819408
0.691242 0.479379 0.861607
0.836663 0.489164 0.873537
0.872824 0.533764 0.888846
0 0.567675 0.708094
0 0.612184 0.757693
0.101593 0.719345 0.901907
0.761648 0.808518 0.949133
0.929631 0.828173 0.961588
0.960102 0.849285 0.967604
0 0.642221 0.748648
0 0.705319 0.808105
0 0.835112 0.930992
0.781344 0.942308 0.977465
0.967103 0.976643 0.992499
0.996695 0.983891 0.995509
0 0.69402 0.794813
0 0.774465 0.86705
0.346912 0.872826 0.946847
0.787906 0.95787 0.98229
0.964923 0.992819 0.996861
0.999891 0.999891 0.999891
