Vibe/Lumetri/LUTs/Technical/ARRI_Universal_HD.cube
LUT_3D_SIZE 6
0 0 0.003983
0.044193 0.02054 0.012389
0.18677 0.052395 0
0.393845 0.099888 0.020123
0.513585 0.113612 0
0.556546 0.122217 0
0.013529 0.062383 0.036663
0.060523 0.072346 0.036567
0.245839 0.109508 0
0.482922 0.155296 0.013999
0.598489 0.177121 0.033906
0.641484 0.192067 0
0 0.170944 0.09271
0 0.195944 0.079143
0.300346 0.265242 0
0.589763 0.318266 0.025364
0.713053 0.337631 0
0.749793 0.371424 0.023742
0.037977 0.339246 0.164675
0.020592 0.388683 0.155712
0.347685 0.517469 0
0.702637 0.607359 0
0.840527 0.633853 0
0.876148 0.661336 0
0 0.424875 0.192001
0 0.494943 0.172958
0.390631 0.639517 0.03549
0.762114 0.752697 0.028472
0.906599 0.789438 0.079774
0.93705 0.800535 0.079733
0.047398 0.496792 0.231594
0 0.620818 0
0.49169 0.712227 0
0.80518 0.79538 0.047217
0.949205 0.831109 0.093649
0.981024 0.840117 0.104235
0 0.015328 0.052092
0.048595 0.027651 0.05582
0.204734 0.054501 0.06232
0.464643 0 0
0.584933 0 0
0.628865 0 0
0.02442 0.071786 0.074541
0.060441 0.083971 0.081387
0.264976 0.117123 0.078599
0.565277 0.098473 0
0.694785 0.075454 0
0.74272 0.080123 0
0.016731 0.187857 0.130839
0 0.212759 0.129016
0.32211 0.286227 0.08541
0.674402 0.323114 0
0.803909 0.333608 0
0.844169 0.372359 0
0 0.371861 0.211637
0.035961 0.41914 0.211478
0.348924 0.575959 0
0.765576 0.65448 0
0.909525 0.676875 0
0.941895 0.701603 0.01909
0 0.455012 0.264348
0 0.523286 0.264346
0.346013 0.702503 0
0.815848 0.801007 0
0.968097 0.830449 0.09929
1 0.841703 0.051446
0 0.538469 0.375414
0.014406 0.646874 0.374932
0.424799 0.775096 0.297915
0.835773 0.858471 0.249109
1 0.887065 0.210689
0.997072 0.88251 0.393298
0 0.057778 0.165979
0.053856 0 0.206518
0.217552 0.020077 0.230189
0.479047 0 0.239235
0.5987 0 0.248687
0.64537 0 0.26293
0 0.115669 0.202587
0 0.099104 0.257384
0.274566 0.128755 0.285647
0.593536 0.094763 0.290596
0.732396 0 0.287234
0.77305 0 0.309424
0 0.237364 0.273072
0 0.256199 0.294973
0.309713 0.325627 0.351081
0.696918 0.354318 0.351206
0.844195 0.350193 0.347947
0.882706 0.392654 0.367434
0.021932 0.430289 0.373735
0 0.478918 0.400096
0.259452 0.635005 0.403387
0.796181 0.719504 0.392117
0.967263 0.731406 0.379801
0.997865 0.757646 0.394335
0 0.516586 0.440783
0.015092 0.581751 0.471981
0.174732 0.76106 0.462363
0.81779 0.870713 0.454763
1 0.896812 0.436733
0.99894 0.895692 0.524817
0 0.596663 0.549192
0 0.69611 0.596273
0.335293 0.826443 0.605295
0.810445 0.906804 0.601364
0.995568 0.9362 0.596164
0.999826 0.933145 0.663451
0.014272 0.135282 0.274882
0.033166 0 0.3866
0.227394 0 0.432277
0.489964 0 0.454187
0.61585 0.049104 0.462696
0.661451 0.049684 0.483295
0 0.18629 0.345942
0 0.187847 0.383507
0.280559 0.109498 0.544059
0.607933 0 0.567007
0.747377 0 0.569943
0.787596 0 0.593457
0 0.309117 0.449679
0 0.326929 0.486771
0.272357 0.358253 0.646548
0.698833 0.388147 0.674803
0.849895 0.382131 0.673233
0.886767 0.429208 0.695094
0 0.505185 0.56736
0 0.552761 0.611761
0 0.692728 0.735739
0.76988 0.774087 0.75985
0.952598 0.78728 0.761926
0.983013 0.812321 0.770005
0 0.589487 0.628014
0 0.654114 0.680918
0 0.815025 0.784981
0.779483 0.925517 0.81026
0.982598 0.953269 0.811054
1 0.956622 0.833469
0 0.651921 0.700547
0.025208 0.743691 0.773109
0.148072 0.866183 0.851022
0.774378 0.948529 0.870616
0.974543 0.978135 0.874358
0.999617 0.979677 0.896046
0 0.17115 0.348501
0 0.168684 0.38371
0.234506 0 0.538526
0.501878 0.044152 0.567362
0.633563 0.064267 0.581448
0.678039 0.057997 0.60114
0 0.230057 0.429341
0 0.236057 0.462959
0.279111 0.090893 0.680706
0.616351 0 0.717372
0.758857 0 0.722042
0.800642 0 0.746858
0 0.347552 0.531048
0 0.364835 0.580499
0.243275 0.371035 0.790987
0.691592 0.398222 0.830173
0.852078 0.394187 0.838577
0.888135 0.440513 0.854339
0.039046 0.541844 0.657309
0 0.583576 0.705025
0 0.708988 0.872474
0.748039 0.79043 0.925911
0.941276 0.802566 0.932882
0.974143 0.828067 0.939863
0.037116 0.620565 0.705893
0.043188 0.682822 0.764155
0 0.828461 0.897702
0.750675 0.943401 0.956639
0.968237 0.973194 0.965638
1 0.979814 0.967698
0 0.674804 0.757953
0 0.761456 0.835157
0 0.876887 0.938699
0.754772 0.960663 0.968621
0.963349 0.991456 0.978178
0.99983 0.996677 0.984646
0 0.201629 0.394719
0 0.196489 0.444169
0.264954 0 0.636801
0.56155 0 0.665276
0.690275 0 0.665266
0.741176 0 0.697839
0 0.265826 0.476382
0 0.274916 0.516168
0.278872 0.183391 0.741115
0.635429 0.168606 0.781628
0.789344 0.123113 0.793467
0.828213 0.187207 0.812619
0 0.374098 0.567434
0 0.394995 0.614215
0.216438 0.408179 0.829223
0.693499 0.439171 0.872085
0.860185 0.436421 0.883147
0.899128 0.483661 0.898512
0.044843 0.55047 0.674546
0 0.597047 0.728077
0 0.711853 0.886648
0.735995 0.79664 0.957005
0.938041 0.810485 0.967751
0.972269 0.832476 0.972952
0.050506 0.625931 0.718892
0 0.69226 0.78307
0 0.829486 0.912948
0.734788 0.944093 0.981188
0.962806 0.975203 0.993506
0.998403 0.982006 0.995978
0.052135 0.679943 0.767844
0 0.764883 0.845928
0 0.876362 0.952435
0.739826 0.961182 0.985643
0.957478 0.993496 0.997489
0.999896 0.999897 0.999897
