Vibe/Lumetri/LUTs/Technical/D-21_delogC_EI0200_B1.cube
LUT_3D_SIZE 16
0 0 0
0.024409 0 0
0.0529 0 0
0.09157 0 0
0.146517 0 0
0.225526 0 0
0.337019 0 0
0.468837 0 0
0.606264 0 0
0.734586 0 0
0.839059 0 0
0.910266 0 0
0.953889 0 0
0.978001 0 0
0.99068 0 0
1 0 0
0 0.024409 0
0.024409 0.024409 0
0.0529 0.024409 0
0.09157 0.024409 0
0.146517 0.024409 0
0.225526 0.024409 0
0.337019 0.024409 0
0.468837 0.024409 0
0.606264 0.024409 0
0.734586 0.024409 0
0.839059 0.024409 0
0.910266 0.024409 0
0.953889 0.024409 0
0.978001 0.024409 0
0.99068 0.024409 0
1 0.024409 0
0 0.0529 0
0.024409 0.0529 0
0.0529 0.0529 0
0.09157 0.0529 0
0.146517 0.0529 0
0.225526 0.0529 0
0.337019 0.0529 0
0.468837 0.0529 0
0.606264 0.0529 0
0.734586 0.0529 0
0.839059 0.0529 0
0.910266 0.0529 0
0.953889 0.0529 0
0.978001 0.0529 0
0.99068 0.0529 0
1 0.0529 0
0 0.09157 0
0.024409 0.09157 0
0.0529 0.09157 0
0.09157 0.09157 0
0.146517 0.09157 0
0.225526 0.09157 0
0.337019 0.09157 0
0.468837 0.09157 0
0.606264 0.09157 0
0.734586 0.09157 0
0.839059 0.09157 0
0.910266 0.09157 0
0.953889 0.09157 0
0.978001 0.09157 0
0.99068 0.09157 0
1 0.09157 0
0 0.146517 0
0.024409 0.146517 0
0.0529 0.146517 0
0.09157 0.146517 0
0.146517 0.146517 0
0.225526 0.146517 0
0.337019 0.146517 0
0.468837 0.146517 0
0.606264 0.146517 0
0.734586 0.146517 0
0.839059 0.146517 0
0.910266 0.146517 0
0.953889 0.146517 0
0.978001 0.146517 0
0.99068 0.146517 0
1 0.146517 0
0 0.225526 0
0.024409 0.225526 0
0.0529 0.225526 0
0.09157 0.225526 0
0.146517 0.225526 0
0.225526 0.225526 0
0.337019 0.225526 0
0.468837 0.225526 0
0.606264 0.225526 0
0.734586 0.225526 0
0.839059 0.225526 0
0.910266 0.225526 0
0.953889 0.225526 0
0.978001 0.225526 0
0.99068 0.225526 0
1 0.225526 0
0 0.337019 0
0.024409 0.337019 0
0.0529 0.337019 0
0.09157 0.337019 0
0.146517 0.337019 0
0.225526 0.337019 0
0.337019 0.337019 0
0.468837 0.337019 0
0.606264 0.337019 0
0.734586 0.337019 0
0.839059 0.337019 0
0.910266 0.337019 0
0.953889 0.337019 0
0.978001 0.337019 0
0.99068 0.337019 0
1 0.337019 0
0 0.468837 0
0.024409 0.468837 0
0.0529 0.468837 0
0.09157 0.468837 0
0.146517 0.468837 0
0.225526 0.468837 0
0.337019 0.468837 0
0.468837 0.468837 0
0.606264 0.468837 0
0.734586 0.468837 0
0.839059 0.468837 0
0.910266 0.468837 0
0.953889 0.468837 0
0.978001 0.468837 0
0.99068 0.468837 0
1 0.468837 0
0 0.606264 0
0.024409 0.606264 0
0.0529 0.606264 0
0.09157 0.606264 0
0.146517 0.606264 0
0.225526 0.606264 0
0.337019 0.606264 0
0.468837 0.606264 0
0.606264 0.606264 0
0.734586 0.606264 0
0.839059 0.606264 0
0.910266 0.606264 0
0.953889 0.606264 0
0.978001 0.606264 0
0.99068 0.606264 0
1 0.606264 0
0 0.734586 0
0.024409 0.734586 0
0.0529 0.734586 0
0.09157 0.734586 0
0.146517 0.734586 0
0.225526 0.734586 0
0.337019 0.734586 0
0.468837 0.734586 0
0.606264 0.734586 0
0.734586 0.734586 0
0.839059 0.734586 0
0.910266 0.734586 0
0.953889 0.734586 0
0.978001 0.734586 0
0.99068 0.734586 0
1 0.734586 0
0 0.839059 0
0.024409 0.839059 0
0.0529 0.839059 0
0.09157 0.839059 0
0.146517 0.839059 0
0.225526 0.839059 0
0.337019 0.839059 0
0.468837 0.839059 0
0.606264 0.839059 0
0.734586 0.839059 0
0.839059 0.839059 0
0.910266 0.839059 0
0.953889 0.839059 0
0.978001 0.839059 0
0.99068 0.839059 0
1 0.839059 0
0 0.910266 0
0.024409 0.910266 0
0.0529 0.910266 0
0.09157 0.910266 0
0.146517 0.910266 0
0.225526 0.910266 0
0.337019 0.910266 0
0.468837 0.910266 0
0.606264 0.910266 0
0.734586 0.910266 0
0.839059 0.910266 0
0.910266 0.910266 0
0.953889 0.910266 0
0.978001 0.910266 0
0.99068 0.910266 0
1 0.910266 0
0 0.953889 0
0.024409 0.953889 0
0.0529 0.953889 0
0.09157 0.953889 0
0.146517 0.953889 0
0.225526 0.953889 0
0.337019 0.953889 0
0.468837 0.953889 0
0.606264 0.953889 0
0.734586 0.953889 0
0.839059 0.953889 0
0.910266 0.953889 0
0.953889 0.953889 0
0.978001 0.953889 0
0.99068 0.953889 0
1 0.953889 0
0 0.978001 0
0.024409 0.978001 0
0.0529 0.978001 0
0.09157 0.978001 0
0.146517 0.978001 0
0.225526 0.978001 0
0.337019 0.978001 0
0.468837 0.978001 0
0.606264 0.978001 0
0.734586 0.978001 0
0.839059 0.978001 0
0.910266 0.978001 0
0.953889 0.978001 0
0.978001 0.978001 0
0.99068 0.978001 0
1 0.978001 0
0 0.99068 0
0.024409 0.99068 0
0.0529 0.99068 0
0.09157 0.99068 0
0.146517 0.99068 0
0.225526 0.99068 0
0.337019 0.99068 0
0.468837 0.99068 0
0.606264 0.99068 0
0.734586 0.99068 0
0.839059 0.99068 0
0.910266 0.99068 0
0.953889 0.99068 0
0.978001 0.99068 0
0.99068 0.99068 0
1 0.99068 0
0 1 0
0.024409 1 0
0.0529 1 0
0.09157 1 0
0.146517 1 0
0.225526 1 0
0.337019 1 0
0.468837 1 0
0.606264 1 0
0.734586 1 0
0.839059 1 0
0.910266 1 0
0.953889 1 0
0.978001 1 0
0.99068 1 0
1 1 0
0 0 0.024409
0.024409 0 0.024409
0.0529 0 0.024409
0.09157 0 0.024409
0.146517 0 0.024409
0.225526 0 0.024409
0.337019 0 0.024409
0.468837 0 0.024409
0.606264 0 0.024409
0.734586 0 0.024409
0.839059 0 0.024409
0.910266 0 0.024409
0.953889 0 0.024409
0.978001 0 0.024409
0.99068 0 0.024409
1 0 0.024409
0 0.024409 0.024409
0.024409 0.024409 0.024409
0.0529 0.024409 0.024409
0.09157 0.024409 0.024409
0.146517 0.024409 0.024409
0.225526 0.024409 0.024409
0.337019 0.024409 0.024409
0.468837 0.024409 0.024409
0.606264 0.024409 0.024409
0.734586 0.024409 0.024409
0.839059 0.024409 0.024409
0.910266 0.024409 0.024409
0.953889 0.024409 0.024409
0.978001 0.024409 0.024409
0.99068 0.024409 0.024409
1 0.024409 0.024409
0 0.0529 0.024409
0.024409 0.0529 0.024409
0.0529 0.0529 0.024409
0.09157 0.0529 0.024409
0.146517 0.0529 0.024409
0.225526 0.0529 0.024409
0.337019 0.0529 0.024409
0.468837 0.0529 0.024409
0.606264 0.0529 0.024409
0.734586 0.0529 0.024409
0.839059 0.0529 0.024409
0.910266 0.0529 0.024409
0.953889 0.0529 0.024409
0.978001 0.0529 0.024409
0.99068 0.0529 0.024409
1 0.0529 0.024409
0 0.09157 0.024409
0.024409 0.09157 0.024409
0.0529 0.09157 0.024409
0.09157 0.09157 0.024409
0.146517 0.09157 0.024409
0.225526 0.09157 0.024409
0.337019 0.09157 0.024409
0.468837 0.09157 0.024409
0.606264 0.09157 0.024409
0.734586 0.09157 0.024409
0.839059 0.09157 0.024409
0.910266 0.09157 0.024409
0.953889 0.09157 0.024409
0.978001 0.09157 0.024409
0.99068 0.09157 0.024409
1 0.09157 0.024409
0 0.146517 0.024409
0.024409 0.146517 0.024409
0.0529 0.146517 0.024409
0.09157 0.146517 0.024409
0.146517 0.146517 0.024409
0.225526 0.146517 0.024409
0.337019 0.146517 0.024409
0.468837 0.146517 0.024409
0.606264 0.146517 0.024409
0.734586 0.146517 0.024409
0.839059 0.146517 0.024409
0.910266 0.146517 0.024409
0.953889 0.146517 0.024409
0.978001 0.146517 0.024409
0.99068 0.146517 0.024409
1 0.146517 0.024409
0 0.225526 0.024409
0.024409 0.225526 0.024409
0.0529 0.225526 0.024409
0.09157 0.225526 0.024409
0.146517 0.225526 0.024409
0.225526 0.225526 0.024409
0.337019 0.225526 0.024409
0.468837 0.225526 0.024409
0.606264 0.225526 0.024409
0.734586 0.225526 0.024409
0.839059 0.225526 0.024409
0.910266 0.225526 0.024409
0.953889 0.225526 0.024409
0.978001 0.225526 0.024409
0.99068 0.225526 0.024409
1 0.225526 0.024409
0 0.337019 0.024409
0.024409 0.337019 0.024409
0.0529 0.337019 0.024409
0.09157 0.337019 0.024409
0.146517 0.337019 0.024409
0.225526 0.337019 0.024409
0.337019 0.337019 0.024409
0.468837 0.337019 0.024409
0.606264 0.337019 0.024409
0.734586 0.337019 0.024409
0.839059 0.337019 0.024409
0.910266 0.337019 0.024409
0.953889 0.337019 0.024409
0.978001 0.337019 0.024409
0.99068 0.337019 0.024409
1 0.337019 0.024409
0 0.468837 0.024409
0.024409 0.468837 0.024409
0.0529 0.468837 0.024409
0.09157 0.468837 0.024409
0.146517 0.468837 0.024409
0.225526 0.468837 0.024409
0.337019 0.468837 0.024409
0.468837 0.468837 0.024409
0.606264 0.468837 0.024409
0.734586 0.468837 0.024409
0.839059 0.468837 0.024409
0.910266 0.468837 0.024409
0.953889 0.468837 0.024409
0.978001 0.468837 0.024409
0.99068 0.468837 0.024409
1 0.468837 0.024409
0 0.606264 0.024409
0.024409 0.606264 0.024409
0.0529 0.606264 0.024409
0.09157 0.606264 0.024409
0.146517 0.606264 0.024409
0.225526 0.606264 0.024409
0.337019 0.606264 0.024409
0.468837 0.606264 0.024409
0.606264 0.606264 0.024409
0.734586 0.606264 0.024409
0.839059 0.606264 0.024409
0.910266 0.606264 0.024409
0.953889 0.606264 0.024409
0.978001 0.606264 0.024409
0.99068 0.606264 0.024409
1 0.606264 0.024409
0 0.734586 0.024409
0.024409 0.734586 0.024409
0.0529 0.734586 0.024409
0.09157 0.734586 0.024409
0.146517 0.734586 0.024409
0.225526 0.734586 0.024409
0.337019 0.734586 0.024409
0.468837 0.734586 0.024409
0.606264 0.734586 0.024409
0.734586 0.734586 0.024409
0.839059 0.734586 0.024409
0.910266 0.734586 0.024409
0.953889 0.734586 0.024409
0.978001 0.734586 0.024409
0.99068 0.734586 0.024409
1 0.734586 0.024409
0 0.839059 0.024409
0.024409 0.839059 0.024409
0.0529 0.839059 0.024409
0.09157 0.839059 0.024409
0.146517 0.839059 0.024409
0.225526 0.839059 0.024409
0.337019 0.839059 0.024409
0.468837 0.839059 0.024409
0.606264 0.839059 0.024409
0.734586 0.839059 0.024409
0.839059 0.839059 0.024409
0.910266 0.839059 0.024409
0.953889 0.839059 0.024409
0.978001 0.839059 0.024409
0.99068 0.839059 0.024409
1 0.839059 0.024409
0 0.910266 0.024409
0.024409 0.910266 0.024409
0.0529 0.910266 0.024409
0.09157 0.910266 0.024409
0.146517 0.910266 0.024409
0.225526 0.910266 0.024409
0.337019 0.910266 0.024409
0.468837 0.910266 0.024409
0.606264 0.910266 0.024409
0.734586 0.910266 0.024409
0.839059 0.910266 0.024409
0.910266 0.910266 0.024409
0.953889 0.910266 0.024409
0.978001 0.910266 0.024409
0.99068 0.910266 0.024409
1 0.910266 0.024409
0 0.953889 0.024409
0.024409 0.953889 0.024409
0.0529 0.953889 0.024409
0.09157 0.953889 0.024409
0.146517 0.953889 0.024409
0.225526 0.953889 0.024409
0.337019 0.953889 0.024409
0.468837 0.953889 0.024409
0.606264 0.953889 0.024409
0.734586 0.953889 0.024409
0.839059 0.953889 0.024409
0.910266 0.953889 0.024409
0.953889 0.953889 0.024409
0.978001 0.953889 0.024409
0.99068 0.953889 0.024409
1 0.953889 0.024409
0 0.978001 0.024409
0.024409 0.978001 0.024409
0.0529 0.978001 0.024409
0.09157 0.978001 0.024409
0.146517 0.978001 0.024409
0.225526 0.978001 0.024409
0.337019 0.978001 0.024409
0.468837 0.978001 0.024409
0.606264 0.978001 0.024409
0.734586 0.978001 0.024409
0.839059 0.978001 0.024409
0.910266 0.978001 0.024409
0.953889 0.978001 0.024409
0.978001 0.978001 0.024409
0.99068 0.978001 0.024409
1 0.978001 0.024409
0 0.99068 0.024409
0.024409 0.99068 0.024409
0.0529 0.99068 0.024409
0.09157 0.99068 0.024409
0.146517 0.99068 0.024409
0.225526 0.99068 0.024409
0.337019 0.99068 0.024409
0.468837 0.99068 0.024409
0.606264 0.99068 0.024409
0.734586 0.99068 0.024409
0.839059 0.99068 0.024409
0.910266 0.99068 0.024409
0.953889 0.99068 0.024409
0.978001 0.99068 0.024409
0.99068 0.99068 0.024409
1 0.99068 0.024409
0 1 0.024409
0.024409 1 0.024409
0.0529 1 0.024409
0.09157 1 0.024409
0.146517 1 0.024409
0.225526 1 0.024409
0.337019 1 0.024409
0.468837 1 0.024409
0.606264 1 0.024409
0.734586 1 0.024409
0.839059 1 0.024409
0.910266 1 0.024409
0.953889 1 0.024409
0.978001 1 0.024409
0.99068 1 0.024409
1 1 0.024409
0 0 0.0529
0.024409 0 0.0529
0.0529 0 0.0529
0.09157 0 0.0529
0.146517 0 0.0529
0.225526 0 0.0529
0.337019 0 0.0529
0.468837 0 0.0529
0.606264 0 0.0529
0.734586 0 0.0529
0.839059 0 0.0529
0.910266 0 0.0529
0.953889 0 0.0529
0.978001 0 0.0529
0.99068 0 0.0529
1 0 0.0529
0 0.024409 0.0529
0.024409 0.024409 0.0529
0.0529 0.024409 0.0529
0.09157 0.024409 0.0529
0.146517 0.024409 0.0529
0.225526 0.024409 0.0529
0.337019 0.024409 0.0529
0.468837 0.024409 0.0529
0.606264 0.024409 0.0529
0.734586 0.024409 0.0529
0.839059 0.024409 0.0529
0.910266 0.024409 0.0529
0.953889 0.024409 0.0529
0.978001 0.024409 0.0529
0.99068 0.024409 0.0529
1 0.024409 0.0529
0 0.0529 0.0529
0.024409 0.0529 0.0529
0.0529 0.0529 0.0529
0.09157 0.0529 0.0529
0.146517 0.0529 0.0529
0.225526 0.0529 0.0529
0.337019 0.0529 0.0529
0.468837 0.0529 0.0529
0.606264 0.0529 0.0529
0.734586 0.0529 0.0529
0.839059 0.0529 0.0529
0.910266 0.0529 0.0529
0.953889 0.0529 0.0529
0.978001 0.0529 0.0529
0.99068 0.0529 0.0529
1 0.0529 0.0529
0 0.09157 0.0529
0.024409 0.09157 0.0529
0.0529 0.09157 0.0529
0.09157 0.09157 0.0529
0.146517 0.09157 0.0529
0.225526 0.09157 0.0529
0.337019 0.09157 0.0529
0.468837 0.09157 0.0529
0.606264 0.09157 0.0529
0.734586 0.09157 0.0529
0.839059 0.09157 0.0529
0.910266 0.09157 0.0529
0.953889 0.09157 0.0529
0.978001 0.09157 0.0529
0.99068 0.09157 0.0529
1 0.09157 0.0529
0 0.146517 0.0529
0.024409 0.146517 0.0529
0.0529 0.146517 0.0529
0.09157 0.146517 0.0529
0.146517 0.146517 0.0529
0.225526 0.146517 0.0529
0.337019 0.146517 0.0529
0.468837 0.146517 0.0529
0.606264 0.146517 0.0529
0.734586 0.146517 0.0529
0.839059 0.146517 0.0529
0.910266 0.146517 0.0529
0.953889 0.146517 0.0529
0.978001 0.146517 0.0529
0.99068 0.146517 0.0529
1 0.146517 0.0529
0 0.225526 0.0529
0.024409 0.225526 0.0529
0.0529 0.225526 0.0529
0.09157 0.225526 0.0529
0.146517 0.225526 0.0529
0.225526 0.225526 0.0529
0.337019 0.225526 0.0529
0.468837 0.225526 0.0529
0.606264 0.225526 0.0529
0.734586 0.225526 0.0529
0.839059 0.225526 0.0529
0.910266 0.225526 0.0529
0.953889 0.225526 0.0529
0.978001 0.225526 0.0529
0.99068 0.225526 0.0529
1 0.225526 0.0529
0 0.337019 0.0529
0.024409 0.337019 0.0529
0.0529 0.337019 0.0529
0.09157 0.337019 0.0529
0.146517 0.337019 0.0529
0.225526 0.337019 0.0529
0.337019 0.337019 0.0529
0.468837 0.337019 0.0529
0.606264 0.337019 0.0529
0.734586 0.337019 0.0529
0.839059 0.337019 0.0529
0.910266 0.337019 0.0529
0.953889 0.337019 0.0529
0.978001 0.337019 0.0529
0.99068 0.337019 0.0529
1 0.337019 0.0529
0 0.468837 0.0529
0.024409 0.468837 0.0529
0.0529 0.468837 0.0529
0.09157 0.468837 0.0529
0.146517 0.468837 0.0529
0.225526 0.468837 0.0529
0.337019 0.468837 0.0529
0.468837 0.468837 0.0529
0.606264 0.468837 0.0529
0.734586 0.468837 0.0529
0.839059 0.468837 0.0529
0.910266 0.468837 0.0529
0.953889 0.468837 0.0529
0.978001 0.468837 0.0529
0.99068 0.468837 0.0529
1 0.468837 0.0529
0 0.606264 0.0529
0.024409 0.606264 0.0529
0.0529 0.606264 0.0529
0.09157 0.606264 0.0529
0.146517 0.606264 0.0529
0.225526 0.606264 0.0529
0.337019 0.606264 0.0529
0.468837 0.606264 0.0529
0.606264 0.606264 0.0529
0.734586 0.606264 0.0529
0.839059 0.606264 0.0529
0.910266 0.606264 0.0529
0.953889 0.606264 0.0529
0.978001 0.606264 0.0529
0.99068 0.606264 0.0529
1 0.606264 0.0529
0 0.734586 0.0529
0.024409 0.734586 0.0529
0.0529 0.734586 0.0529
0.09157 0.734586 0.0529
0.146517 0.734586 0.0529
0.225526 0.734586 0.0529
0.337019 0.734586 0.0529
0.468837 0.734586 0.0529
0.606264 0.734586 0.0529
0.734586 0.734586 0.0529
0.839059 0.734586 0.0529
0.910266 0.734586 0.0529
0.953889 0.734586 0.0529
0.978001 0.734586 0.0529
0.99068 0.734586 0.0529
1 0.734586 0.0529
0 0.839059 0.0529
0.024409 0.839059 0.0529
0.0529 0.839059 0.0529
0.09157 0.839059 0.0529
0.146517 0.839059 0.0529
0.225526 0.839059 0.0529
0.337019 0.839059 0.0529
0.468837 0.839059 0.0529
0.606264 0.839059 0.0529
0.734586 0.839059 0.0529
0.839059 0.839059 0.0529
0.910266 0.839059 0.0529
0.953889 0.839059 0.0529
0.978001 0.839059 0.0529
0.99068 0.839059 0.0529
1 0.839059 0.0529
0 0.910266 0.0529
0.024409 0.910266 0.0529
0.0529 0.910266 0.0529
0.09157 0.910266 0.0529
0.146517 0.910266 0.0529
0.225526 0.910266 0.0529
0.337019 0.910266 0.0529
0.468837 0.910266 0.0529
0.606264 0.910266 0.0529
0.734586 0.910266 0.0529
0.839059 0.910266 0.0529
0.910266 0.910266 0.0529
0.953889 0.910266 0.0529
0.978001 0.910266 0.0529
0.99068 0.910266 0.0529
1 0.910266 0.0529
0 0.953889 0.0529
0.024409 0.953889 0.0529
0.0529 0.953889 0.0529
0.09157 0.953889 0.0529
0.146517 0.953889 0.0529
0.225526 0.953889 0.0529
0.337019 0.953889 0.0529
0.468837 0.953889 0.0529
0.606264 0.953889 0.0529
0.734586 0.953889 0.0529
0.839059 0.953889 0.0529
0.910266 0.953889 0.0529
0.953889 0.953889 0.0529
0.978001 0.953889 0.0529
0.99068 0.953889 0.0529
1 0.953889 0.0529
0 0.978001 0.0529
0.024409 0.978001 0.0529
0.0529 0.978001 0.0529
0.09157 0.978001 0.0529
0.146517 0.978001 0.0529
0.225526 0.978001 0.0529
0.337019 0.978001 0.0529
0.468837 0.978001 0.0529
0.606264 0.978001 0.0529
0.734586 0.978001 0.0529
0.839059 0.978001 0.0529
0.910266 0.978001 0.0529
0.953889 0.978001 0.0529
0.978001 0.978001 0.0529
0.99068 0.978001 0.0529
1 0.978001 0.0529
0 0.99068 0.0529
0.024409 0.99068 0.0529
0.0529 0.99068 0.0529
0.09157 0.99068 0.0529
0.146517 0.99068 0.0529
0.225526 0.99068 0.0529
0.337019 0.99068 0.0529
0.468837 0.99068 0.0529
0.606264 0.99068 0.0529
0.734586 0.99068 0.0529
0.839059 0.99068 0.0529
0.910266 0.99068 0.0529
0.953889 0.99068 0.0529
0.978001 0.99068 0.0529
0.99068 0.99068 0.0529
1 0.99068 0.0529
0 1 0.0529
0.024409 1 0.0529
0.0529 1 0.0529
0.09157 1 0.0529
0.146517 1 0.0529
0.225526 1 0.0529
0.337019 1 0.0529
0.468837 1 0.0529
0.606264 1 0.0529
0.734586 1 0.0529
0.839059 1 0.0529
0.910266 1 0.0529
0.953889 1 0.0529
0.978001 1 0.0529
0.99068 1 0.0529
1 1 0.0529
0 0 0.09157
0.024409 0 0.09157
0.0529 0 0.09157
0.09157 0 0.09157
0.146517 0 0.09157
0.225526 0 0.09157
0.337019 0 0.09157
0.468837 0 0.09157
0.606264 0 0.09157
0.734586 0 0.09157
0.839059 0 0.09157
0.910266 0 0.09157
0.953889 0 0.09157
0.978001 0 0.09157
0.99068 0 0.09157
1 0 0.09157
0 0.024409 0.09157
0.024409 0.024409 0.09157
0.0529 0.024409 0.09157
0.09157 0.024409 0.09157
0.146517 0.024409 0.09157
0.225526 0.024409 0.09157
0.337019 0.024409 0.09157
0.468837 0.024409 0.09157
0.606264 0.024409 0.09157
0.734586 0.024409 0.09157
0.839059 0.024409 0.09157
0.910266 0.024409 0.09157
0.953889 0.024409 0.09157
0.978001 0.024409 0.09157
0.99068 0.024409 0.09157
1 0.024409 0.09157
0 0.0529 0.09157
0.024409 0.0529 0.09157
0.0529 0.0529 0.09157
0.09157 0.0529 0.09157
0.146517 0.0529 0.09157
0.225526 0.0529 0.09157
0.337019 0.0529 0.09157
0.468837 0.0529 0.09157
0.606264 0.0529 0.09157
0.734586 0.0529 0.09157
0.839059 0.0529 0.09157
0.910266 0.0529 0.09157
0.953889 0.0529 0.09157
0.978001 0.0529 0.09157
0.99068 0.0529 0.09157
1 0.0529 0.09157
0 0.09157 0.09157
0.024409 0.09157 0.09157
0.0529 0.09157 0.09157
0.09157 0.09157 0.09157
0.146517 0.09157 0.09157
0.225526 0.09157 0.09157
0.337019 0.09157 0.09157
0.468837 0.09157 0.09157
0.606264 0.09157 0.09157
0.734586 0.09157 0.09157
0.839059 0.09157 0.09157
0.910266 0.09157 0.09157
0.953889 0.09157 0.09157
0.978001 0.09157 0.09157
0.99068 0.09157 0.09157
1 0.09157 0.09157
0 0.146517 0.09157
0.024409 0.146517 0.09157
0.0529 0.146517 0.09157
0.09157 0.146517 0.09157
0.146517 0.146517 0.09157
0.225526 0.146517 0.09157
0.337019 0.146517 0.09157
0.468837 0.146517 0.09157
0.606264 0.146517 0.09157
0.734586 0.146517 0.09157
0.839059 0.146517 0.09157
0.910266 0.146517 0.09157
0.953889 0.146517 0.09157
0.978001 0.146517 0.09157
0.99068 0.146517 0.09157
1 0.146517 0.09157
0 0.225526 0.09157
0.024409 0.225526 0.09157
0.0529 0.225526 0.09157
0.09157 0.225526 0.09157
0.146517 0.225526 0.09157
0.225526 0.225526 0.09157
0.337019 0.225526 0.09157
0.468837 0.225526 0.09157
0.606264 0.225526 0.09157
0.734586 0.225526 0.09157
0.839059 0.225526 0.09157
0.910266 0.225526 0.09157
0.953889 0.225526 0.09157
0.978001 0.225526 0.09157
0.99068 0.225526 0.09157
1 0.225526 0.09157
0 0.337019 0.09157
0.024409 0.337019 0.09157
0.0529 0.337019 0.09157
0.09157 0.337019 0.09157
0.146517 0.337019 0.09157
0.225526 0.337019 0.09157
0.337019 0.337019 0.09157
0.468837 0.337019 0.09157
0.606264 0.337019 0.09157
0.734586 0.337019 0.09157
0.839059 0.337019 0.09157
0.910266 0.337019 0.09157
0.953889 0.337019 0.09157
0.978001 0.337019 0.09157
0.99068 0.337019 0.09157
1 0.337019 0.09157
0 0.468837 0.09157
0.024409 0.468837 0.09157
0.0529 0.468837 0.09157
0.09157 0.468837 0.09157
0.146517 0.468837 0.09157
0.225526 0.468837 0.09157
0.337019 0.468837 0.09157
0.468837 0.468837 0.09157
0.606264 0.468837 0.09157
0.734586 0.468837 0.09157
0.839059 0.468837 0.09157
0.910266 0.468837 0.09157
0.953889 0.468837 0.09157
0.978001 0.468837 0.09157
0.99068 0.468837 0.09157
1 0.468837 0.09157
0 0.606264 0.09157
0.024409 0.606264 0.09157
0.0529 0.606264 0.09157
0.09157 0.606264 0.09157
