Vibe/Lumetri/LUTs/Technical/D-21_delogC_EI0200_B1.cube
LUT_3D_SIZE 6
0 0 0
0.09157 0 0
0.337019 0 0
0.734586 0 0
0.953889 0 0
1 0 0
0 0.09157 0
0.09157 0.09157 0
0.337019 0.09157 0
0.734586 0.09157 0
0.953889 0.09157 0
1 0.09157 0
0 0.337019 0
0.09157 0.337019 0
0.337019 0.337019 0
0.734586 0.337019 0
0.953889 0.337019 0
1 0.337019 0
0 0.734586 0
0.09157 0.734586 0
0.337019 0.734586 0
0.734586 0.734586 0
0.953889 0.734586 0
1 0.734586 0
0 0.953889 0
0.09157 0.953889 0
0.337019 0.953889 0
0.734586 0.953889 0
0.953889 0.953889 0
1 0.953889 0
0 1 0
0.09157 1 0
0.337019 1 0
0.734586 1 0
0.953889 1 0
1 1 0
0 0 0.09157
0.09157 0 0.09157
0.337019 0 0.09157
0.734586 0 0.09157
0.953889 0 0.09157
1 0 0.09157
0 0.09157 0.09157
0.09157 0.09157 0.09157
0.337019 0.09157 0.09157
0.734586 0.09157 0.09157
0.953889 0.09157 0.09157
1 0.09157 0.09157
0 0.337019 0.09157
0.09157 0.337019 0.09157
0.337019 0.337019 0.09157
0.734586 0.337019 0.09157
0.953889 0.337019 0.09157
1 0.337019 0.09157
0 0.734586 0.09157
0.09157 0.734586 0.09157
0.337019 0.734586 0.09157
0.734586 0.734586 0.09157
0.953889 0.734586 0.09157
1 0.734586 0.09157
0 0.953889 0.09157
0.09157 0.953889 0.09157
0.337019 0.953889 0.09157
0.734586 0.953889 0.09157
0.953889 0.953889 0.09157
1 0.953889 0.09157
0 1 0.09157
0.09157 1 0.09157
0.337019 1 0.09157
0.734586 1 0.09157
0.953889 1 0.09157
1 1 0.09157
0 0 0.337019
0.09157 0 0.337019
0.337019 0 0.337019
0.734586 0 0.337019
0.953889 0 0.337019
1 0 0.337019
0 0.09157 0.337019
0.09157 0.09157 0.337019
0.337019 0.09157 0.337019
0.734586 0.09157 0.337019
0.953889 0.09157 0.337019
1 0.09157 0.337019
0 0.337019 0.337019
0.09157 0.337019 0.337019
0.337019 0.337019 0.337019
0.734586 0.337019 0.337019
0.953889 0.337019 0.337019
1 0.337019 0.337019
0 0.734586 0.337019
0.09157 0.734586 0.337019
0.337019 0.734586 0.337019
0.734586 0.734586 0.337019
0.953889 0.734586 0.337019
1 0.734586 0.337019
0 0.953889 0.337019
0.09157 0.953889 0.337019
0.337019 0.953889 0.337019
0.734586 0.953889 0.337019
0.953889 0.953889 0.337019
1 0.953889 0.337019
0 1 0.337019
0.09157 1 0.337019
0.337019 1 0.337019
0.734586 1 0.337019
0.953889 1 0.337019
1 1 0.337019
0 0 0.734586
0.09157 0 0.734586
0.337019 0 0.734586
0.734586 0 0.734586
0.953889 0 0.734586
1 0 0.734586
0 0.09157 0.734586
0.09157 0.09157 0.734586
0.337019 0.09157 0.734586
0.734586 0.09157 0.734586
0.953889 0.09157 0.734586
1 0.09157 0.734586
0 0.337019 0.734586
0.09157 0.337019 0.734586
0.337019 0.337019 0.734586
0.734586 0.337019 0.734586
0.953889 0.337019 0.734586
1 0.337019 0.734586
0 0.734586 0.734586
0.09157 0.734586 0.734586
0.337019 0.734586 0.734586
0.734586 0.734586 0.734586
0.953889 0.734586 0.734586
1 0.734586 0.734586
0 0.953889 0.734586
0.09157 0.953889 0.734586
0.337019 0.953889 0.734586
0.734586 0.953889 0.734586
0.953889 0.953889 0.734586
1 0.953889 0.734586
0 1 0.734586
0.09157 1 0.734586
0.337019 1 0.734586
0.734586 1 0.734586
0.953889 1 0.734586
1 1 0.734586
0 0 0.953889
0.09157 0 0.953889
0.337019 0 0.953889
0.734586 0 0.953889
0.953889 0 0.953889
1 0 0.953889
0 0.09157 0.953889
0.09157 0.09157 0.953889
0.337019 0.09157 0.953889
0.734586 0.09157 0.953889
0.953889 0.09157 0.953889
1 0.09157 0.953889
0 0.337019 0.953889
0.09157 0.337019 0.953889
0.337019 0.337019 0.953889
0.734586 0.337019 0.953889
0.953889 0.337019 0.953889
1 0.337019 0.953889
0 0.734586 0.953889
0.09157 0.734586 0.953889
0.337019 0.734586 0.953889
0.734586 0.734586 0.953889
0.953889 0.734586 0.953889
1 0.734586 0.953889
0 0.953889 0.953889
0.09157 0.953889 0.953889
0.337019 0.953889 0.953889
0.734586 0.953889 0.953889
0.953889 0.953889 0.953889
1 0.953889 0.953889
0 1 0.953889
0.09157 1 0.953889
0.337019 1 0.953889
0.734586 1 0.953889
0.953889 1 0.953889
1 1 0.953889
0 0 1
0.09157 0 1
0.337019 0 1
0.734586 0 1
0.953889 0 1
1 0 1
0 0.09157 1
0.09157 0.09157 1
0.337019 0.09157 1
0.734586 0.09157 1
0.953889 0.09157 1
1 0.09157 1
0 0.337019 1
0.09157 0.337019 1
0.337019 0.337019 1
0.734586 0.337019 1
0.953889 0.337019 1
1 0.337019 1
0 0.734586 1
0.09157 0.734586 1
0.337019 0.734586 1
0.734586 0.734586 1
0.953889 0.734586 1
1 0.734586 1
0 0.953889 1
0.09157 0.953889 1
0.337019 0.953889 1
0.734586 0.953889 1
0.953889 0.953889 1
1 0.953889 1
0 1 1
0.09157 1 1
0.337019 1 1
0.734586 1 1
0.953889 1 1
1 1 1
