Vibe/Lumetri/LUTs/Technical/Phantom_Rec709_Gamma.cube
LUT_1D_SIZE 1024		
DOMAIN_MIN 	0.0 0.0 0.0	
DOMAIN_MAX	1.0 1.0 1.0	
0.00000	0.00000	0.00000
0.00440	0.00440	0.00440
0.00880	0.00880	0.00880
0.01320	0.01320	0.01320
0.01760	0.01760	0.01760
0.02199	0.02199	0.02199
0.02639	0.02639	0.02639
0.03079	0.03079	0.03079
0.03519	0.03519	0.03519
0.03959	0.03959	0.03959
0.04399	0.04399	0.04399
0.04839	0.04839	0.04839
0.05279	0.05279	0.05279
0.05718	0.05718	0.05718
0.06158	0.06158	0.06158
0.06598	0.06598	0.06598
0.07038	0.07038	0.07038
0.07478	0.07478	0.07478
0.07918	0.07918	0.07918
0.08381	0.08381	0.08381
0.08808	0.08808	0.08808
0.09223	0.09223	0.09223
0.09627	0.09627	0.09627
0.10022	0.10022	0.10022
0.10407	0.10407	0.10407
0.10784	0.10784	0.10784
0.11152	0.11152	0.11152
0.11512	0.11512	0.11512
0.11866	0.11866	0.11866
0.12212	0.12212	0.12212
0.12552	0.12552	0.12552
0.12886	0.12886	0.12886
0.13214	0.13214	0.13214
0.13536	0.13536	0.13536
0.13853	0.13853	0.13853
0.14165	0.14165	0.14165
0.14472	0.14472	0.14472
0.14774	0.14774	0.14774
0.15072	0.15072	0.15072
0.15366	0.15366	0.15366
0.15655	0.15655	0.15655
0.15941	0.15941	0.15941
0.16223	0.16223	0.16223
0.16501	0.16501	0.16501
0.16775	0.16775	0.16775
0.17046	0.17046	0.17046
0.17314	0.17314	0.17314
0.17579	0.17579	0.17579
0.17840	0.17840	0.17840
0.18099	0.18099	0.18099
0.18355	0.18355	0.18355
0.18608	0.18608	0.18608
0.18858	0.18858	0.18858
0.19105	0.19105	0.19105
0.19350	0.19350	0.19350
0.19593	0.19593	0.19593
0.19833	0.19833	0.19833
0.20071	0.20071	0.20071
0.20306	0.20306	0.20306
0.20539	0.20539	0.20539
0.20771	0.20771	0.20771
0.21000	0.21000	0.21000
0.21226	0.21226	0.21226
0.21451	0.21451	0.21451
0.21674	0.21674	0.21674
0.21895	0.21895	0.21895
0.22115	0.22115	0.22115
0.22332	0.22332	0.22332
0.22548	0.22548	0.22548
0.22761	0.22761	0.22761
0.22974	0.22974	0.22974
0.23184	0.23184	0.23184
0.23393	0.23393	0.23393
0.23600	0.23600	0.23600
0.23806	0.23806	0.23806
0.24010	0.24010	0.24010
0.24213	0.24213	0.24213
0.24414	0.24414	0.24414
0.24614	0.24614	0.24614
0.24812	0.24812	0.24812
0.25010	0.25010	0.25010
0.25205	0.25205	0.25205
0.25400	0.25400	0.25400
0.25593	0.25593	0.25593
0.25784	0.25784	0.25784
0.25975	0.25975	0.25975
0.26164	0.26164	0.26164
0.26352	0.26352	0.26352
0.26539	0.26539	0.26539
0.26725	0.26725	0.26725
0.26910	0.26910	0.26910
0.27093	0.27093	0.27093
0.27276	0.27276	0.27276
0.27457	0.27457	0.27457
0.27637	0.27637	0.27637
0.27816	0.27816	0.27816
0.27994	0.27994	0.27994
0.28172	0.28172	0.28172
0.28348	0.28348	0.28348
0.28523	0.28523	0.28523
0.28697	0.28697	0.28697
0.28870	0.28870	0.28870
0.29042	0.29042	0.29042
0.29214	0.29214	0.29214
0.29384	0.29384	0.29384
0.29554	0.29554	0.29554
0.29722	0.29722	0.29722
0.29890	0.29890	0.29890
0.30057	0.30057	0.30057
0.30223	0.30223	0.30223
0.30388	0.30388	0.30388
0.30553	0.30553	0.30553
0.30716	0.30716	0.30716
0.30879	0.30879	0.30879
0.31041	0.31041	0.31041
0.31202	0.31202	0.31202
0.31363	0.31363	0.31363
0.31523	0.31523	0.31523
0.31682	0.31682	0.31682
0.31840	0.31840	0.31840
0.31997	0.31997	0.31997
0.32154	0.32154	0.32154
0.32310	0.32310	0.32310
0.32465	0.32465	0.32465
0.32620	0.32620	0.32620
0.32774	0.32774	0.32774
0.32927	0.32927	0.32927
0.33080	0.33080	0.33080
0.33232	0.33232	0.33232
0.33383	0.33383	0.33383
0.33534	0.33534	0.33534
0.33684	0.33684	0.33684
0.33833	0.33833	0.33833
0.33982	0.33982	0.33982
0.34130	0.34130	0.34130
0.34278	0.34278	0.34278
0.34425	0.34425	0.34425
0.34571	0.34571	0.34571
0.34717	0.34717	0.34717
0.34862	0.34862	0.34862
0.35007	0.35007	0.35007
0.35151	0.35151	0.35151
0.35294	0.35294	0.35294
0.35437	0.35437	0.35437
0.35580	0.35580	0.35580
0.35721	0.35721	0.35721
0.35863	0.35863	0.35863
0.36004	0.36004	0.36004
0.36144	0.36144	0.36144
0.36284	0.36284	0.36284
0.36423	0.36423	0.36423
0.36562	0.36562	0.36562
0.36700	0.36700	0.36700
0.36837	0.36837	0.36837
0.36975	0.36975	0.36975
0.37111	0.37111	0.37111
0.37248	0.37248	0.37248
0.37383	0.37383	0.37383
0.37519	0.37519	0.37519
0.37653	0.37653	0.37653
0.37788	0.37788	0.37788
0.37922	0.37922	0.37922
0.38055	0.38055	0.38055
0.38188	0.38188	0.38188
0.38321	0.38321	0.38321
0.38453	0.38453	0.38453
0.38584	0.38584	0.38584
0.38716	0.38716	0.38716
0.38846	0.38846	0.38846
0.38977	0.38977	0.38977
0.39107	0.39107	0.39107
0.39236	0.39236	0.39236
0.39365	0.39365	0.39365
0.39494	0.39494	0.39494
0.39622	0.39622	0.39622
0.39750	0.39750	0.39750
0.39878	0.39878	0.39878
0.40005	0.40005	0.40005
0.40131	0.40131	0.40131
0.40258	0.40258	0.40258
0.40384	0.40384	0.40384
0.40509	0.40509	0.40509
0.40634	0.40634	0.40634
0.40759	0.40759	0.40759
0.40883	0.40883	0.40883
0.41007	0.41007	0.41007
0.41131	0.41131	0.41131
0.41254	0.41254	0.41254
0.41377	0.41377	0.41377
0.41500	0.41500	0.41500
0.41622	0.41622	0.41622
0.41744	0.41744	0.41744
0.41865	0.41865	0.41865
0.41987	0.41987	0.41987
0.42107	0.42107	0.42107
0.42228	0.42228	0.42228
0.42348	0.42348	0.42348
0.42468	0.42468	0.42468
0.42587	0.42587	0.42587
0.42706	0.42706	0.42706
0.42825	0.42825	0.42825
0.42944	0.42944	0.42944
0.43062	0.43062	0.43062
0.43180	0.43180	0.43180
0.43297	0.43297	0.43297
0.43414	0.43414	0.43414
0.43531	0.43531	0.43531
0.43648	0.43648	0.43648
0.43764	0.43764	0.43764
0.43880	0.43880	0.43880
0.43995	0.43995	0.43995
0.44111	0.44111	0.44111
0.44226	0.44226	0.44226
0.44341	0.44341	0.44341
0.44455	0.44455	0.44455
0.44569	0.44569	0.44569
0.44683	0.44683	0.44683
0.44797	0.44797	0.44797
0.44910	0.44910	0.44910
0.45023	0.45023	0.45023
0.45136	0.45136	0.45136
0.45248	0.45248	0.45248
0.45360	0.45360	0.45360
0.45472	0.45472	0.45472
0.45584	0.45584	0.45584
0.45695	0.45695	0.45695
0.45806	0.45806	0.45806
0.45917	0.45917	0.45917
0.46027	0.46027	0.46027
0.46138	0.46138	0.46138
0.46248	0.46248	0.46248
0.46357	0.46357	0.46357
0.46467	0.46467	0.46467
0.46576	0.46576	0.46576
0.46685	0.46685	0.46685
0.46794	0.46794	0.46794
0.46902	0.46902	0.46902
0.47010	0.47010	0.47010
0.47118	0.47118	0.47118
0.47226	0.47226	0.47226
0.47333	0.47333	0.47333
0.47440	0.47440	0.47440
0.47547	0.47547	0.47547
0.47654	0.47654	0.47654
0.47761	0.47761	0.47761
0.47867	0.47867	0.47867
0.47973	0.47973	0.47973
0.48079	0.48079	0.48079
0.48184	0.48184	0.48184
0.48289	0.48289	0.48289
0.48394	0.48394	0.48394
0.48499	0.48499	0.48499
0.48604	0.48604	0.48604
0.48708	0.48708	0.48708
0.48812	0.48812	0.48812
0.48916	0.48916	0.48916
0.49020	0.49020	0.49020
0.49123	0.49123	0.49123
0.49227	0.49227	0.49227
0.49330	0.49330	0.49330
0.49432	0.49432	0.49432
0.49535	0.49535	0.49535
0.49637	0.49637	0.49637
0.49739	0.49739	0.49739
0.49841	0.49841	0.49841
0.49943	0.49943	0.49943
0.50045	0.50045	0.50045
0.50146	0.50146	0.50146
0.50247	0.50247	0.50247
0.50348	0.50348	0.50348
0.50449	0.50449	0.50449
0.50549	0.50549	0.50549
0.50649	0.50649	0.50649
0.50749	0.50749	0.50749
0.50849	0.50849	0.50849
0.50949	0.50949	0.50949
0.51048	0.51048	0.51048
0.51148	0.51148	0.51148
0.51247	0.51247	0.51247
0.51346	0.51346	0.51346
0.51444	0.51444	0.51444
0.51543	0.51543	0.51543
0.51641	0.51641	0.51641
0.51739	0.51739	0.51739
0.51837	0.51837	0.51837
0.51935	0.51935	0.51935
0.52032	0.52032	0.52032
0.52130	0.52130	0.52130
0.52227	0.52227	0.52227
0.52324	0.52324	0.52324
0.52421	0.52421	0.52421
0.52517	0.52517	0.52517
0.52614	0.52614	0.52614
0.52710	0.52710	0.52710
0.52806	0.52806	0.52806
0.52902	0.52902	0.52902
0.52998	0.52998	0.52998
0.53093	0.53093	0.53093
0.53189	0.53189	0.53189
0.53284	0.53284	0.53284
0.53379	0.53379	0.53379
0.53474	0.53474	0.53474
0.53568	0.53568	0.53568
0.53663	0.53663	0.53663
0.53757	0.53757	0.53757
0.53851	0.53851	0.53851
0.53945	0.53945	0.53945
0.54039	0.54039	0.54039
0.54133	0.54133	0.54133
0.54226	0.54226	0.54226
0.54319	0.54319	0.54319
0.54413	0.54413	0.54413
0.54506	0.54506	0.54506
0.54598	0.54598	0.54598
0.54691	0.54691	0.54691
0.54783	0.54783	0.54783
0.54876	0.54876	0.54876
0.54968	0.54968	0.54968
0.55060	0.55060	0.55060
0.55152	0.55152	0.55152
0.55244	0.55244	0.55244
0.55335	0.55335	0.55335
0.55426	0.55426	0.55426
0.55518	0.55518	0.55518
0.55609	0.55609	0.55609
0.55700	0.55700	0.55700
0.55790	0.55790	0.55790
0.55881	0.55881	0.55881
0.55971	0.55971	0.55971
0.56062	0.56062	0.56062
0.56152	0.56152	0.56152
0.56242	0.56242	0.56242
0.56332	0.56332	0.56332
0.56421	0.56421	0.56421
0.56511	0.56511	0.56511
0.56600	0.56600	0.56600
0.56690	0.56690	0.56690
0.56779	0.56779	0.56779
0.56868	0.56868	0.56868
0.56956	0.56956	0.56956
0.57045	0.57045	0.57045
0.57134	0.57134	0.57134
0.57222	0.57222	0.57222
0.57310	0.57310	0.57310
0.57398	0.57398	0.57398
0.57486	0.57486	0.57486
0.57574	0.57574	0.57574
0.57662	0.57662	0.57662
0.57749	0.57749	0.57749
0.57837	0.57837	0.57837
0.57924	0.57924	0.57924
0.58011	0.58011	0.58011
0.58098	0.58098	0.58098
0.58185	0.58185	0.58185
0.58272	0.58272	0.58272
0.58358	0.58358	0.58358
0.58445	0.58445	0.58445
0.58531	0.58531	0.58531
0.58617	0.58617	0.58617
0.58703	0.58703	0.58703
0.58789	0.58789	0.58789
0.58875	0.58875	0.58875
0.58961	0.58961	0.58961
0.59046	0.59046	0.59046
0.59132	0.59132	0.59132
0.59217	0.59217	0.59217
0.59302	0.59302	0.59302
0.59387	0.59387	0.59387
0.59472	0.59472	0.59472
0.59557	0.59557	0.59557
0.59642	0.59642	0.59642
0.59726	0.59726	0.59726
0.59810	0.59810	0.59810
0.59895	0.59895	0.59895
0.59979	0.59979	0.59979
0.60063	0.60063	0.60063
0.60147	0.60147	0.60147
0.60231	0.60231	0.60231
0.60314	0.60314	0.60314
0.60398	0.60398	0.60398
0.60481	0.60481	0.60481
0.60564	0.60564	0.60564
0.60648	0.60648	0.60648
0.60731	0.60731	0.60731
0.60814	0.60814	0.60814
0.60896	0.60896	0.60896
0.60979	0.60979	0.60979
0.61062	0.61062	0.61062
0.61144	0.61144	0.61144
0.61226	0.61226	0.61226
0.61309	0.61309	0.61309
0.61391	0.61391	0.61391
0.61473	0.61473	0.61473
0.61555	0.61555	0.61555
0.61636	0.61636	0.61636
0.61718	0.61718	0.61718
0.61800	0.61800	0.61800
0.61881	0.61881	0.61881
0.61962	0.61962	0.61962
0.62043	0.62043	0.62043
0.62125	0.62125	0.62125
0.62206	0.62206	0.62206
0.62286	0.62286	0.62286
0.62367	0.62367	0.62367
0.62448	0.62448	0.62448
0.62528	0.62528	0.62528
0.62609	0.62609	0.62609
0.62689	0.62689	0.62689
0.62769	0.62769	0.62769
0.62849	0.62849	0.62849
0.62929	0.62929	0.62929
0.63009	0.63009	0.63009
0.63089	0.63089	0.63089
0.63169	0.63169	0.63169
0.63248	0.63248	0.63248
0.63328	0.63328	0.63328
0.63407	0.63407	0.63407
0.63486	0.63486	0.63486
0.63565	0.63565	0.63565
0.63644	0.63644	0.63644
0.63723	0.63723	0.63723
0.63802	0.63802	0.63802
0.63881	0.63881	0.63881
0.63960	0.63960	0.63960
0.64038	0.64038	0.64038
0.64117	0.64117	0.64117
0.64195	0.64195	0.64195
0.64273	0.64273	0.64273
0.64351	0.64351	0.64351
0.64429	0.64429	0.64429
0.64507	0.64507	0.64507
0.64585	0.64585	0.64585
0.64663	0.64663	0.64663
0.64740	0.64740	0.64740
0.64818	0.64818	0.64818
0.64895	0.64895	0.64895
0.64973	0.64973	0.64973
0.65050	0.65050	0.65050
0.65127	0.65127	0.65127
0.65204	0.65204	0.65204
0.65281	0.65281	0.65281
0.65358	0.65358	0.65358
0.65434	0.65434	0.65434
0.65511	0.65511	0.65511
0.65588	0.65588	0.65588
0.65664	0.65664	0.65664
0.65740	0.65740	0.65740
0.65817	0.65817	0.65817
0.65893	0.65893	0.65893
0.65969	0.65969	0.65969
0.66045	0.66045	0.66045
0.66121	0.66121	0.66121
0.66197	0.66197	0.66197
0.66272	0.66272	0.66272
0.66348	0.66348	0.66348
0.66424	0.66424	0.66424
0.66499	0.66499	0.66499
0.66574	0.66574	0.66574
0.66650	0.66650	0.66650
0.66725	0.66725	0.66725
0.66800	0.66800	0.66800
0.66875	0.66875	0.66875
0.66950	0.66950	0.66950
0.67025	0.67025	0.67025
0.67099	0.67099	0.67099
0.67174	0.67174	0.67174
0.67248	0.67248	0.67248
0.67323	0.67323	0.67323
0.67397	0.67397	0.67397
0.67472	0.67472	0.67472
0.67546	0.67546	0.67546
0.67620	0.67620	0.67620
0.67694	0.67694	0.67694
0.67768	0.67768	0.67768
0.67842	0.67842	0.67842
0.67915	0.67915	0.67915
0.67989	0.67989	0.67989
0.68063	0.68063	0.68063
0.68136	0.68136	0.68136
0.68210	0.68210	0.68210
0.68283	0.68283	0.68283
0.68356	0.68356	0.68356
0.68429	0.68429	0.68429
0.68502	0.68502	0.68502
0.68575	0.68575	0.68575
0.68648	0.68648	0.68648
0.68721	0.68721	0.68721
0.68794	0.68794	0.68794
0.68867	0.68867	0.68867
0.68939	0.68939	0.68939
0.69012	0.69012	0.69012
0.69084	0.69084	0.69084
0.69157	0.69157	0.69157
0.69229	0.69229	0.69229
0.69301	0.69301	0.69301
0.69373	0.69373	0.69373
0.69445	0.69445	0.69445
0.69517	0.69517	0.69517
0.69589	0.69589	0.69589
0.69661	0.69661	0.69661
0.69732	0.69732	0.69732
0.69804	0.69804	0.69804
0.69876	0.69876	0.69876
0.69947	0.69947	0.69947
0.70019	0.70019	0.70019
0.70090	0.70090	0.70090
0.70161	0.70161	0.70161
0.70232	0.70232	0.70232
0.70303	0.70303	0.70303
0.70374	0.70374	0.70374
0.70445	0.70445	0.70445
0.70516	0.70516	0.70516
0.70587	0.70587	0.70587
0.70658	0.70658	0.70658
0.70728	0.70728	0.70728
0.70799	0.70799	0.70799
0.70869	0.70869	0.70869
0.70940	0.70940	0.70940
0.71010	0.71010	0.71010
0.71080	0.71080	0.71080
0.71150	0.71150	0.71150
0.71221	0.71221	0.71221
0.71291	0.71291	0.71291
0.71360	0.71360	0.71360
0.71430	0.71430	0.71430
0.71500	0.71500	0.71500
0.71570	0.71570	0.71570
0.71640	0.71640	0.71640
0.71709	0.71709	0.71709
0.71779	0.71779	0.71779
0.71848	0.71848	0.71848
0.71917	0.71917	0.71917
0.71987	0.71987	0.71987
0.72056	0.72056	0.72056
0.72125	0.72125	0.72125
0.72194	0.72194	0.72194
0.72263	0.72263	0.72263
0.72332	0.72332	0.72332
0.72401	0.72401	0.72401
0.72470	0.72470	0.72470
0.72539	0.72539	0.72539
0.72607	0.72607	0.72607
0.72676	0.72676	0.72676
0.72744	0.72744	0.72744
0.72813	0.72813	0.72813
0.72881	0.72881	0.72881
0.72950	0.72950	0.72950
0.73018	0.73018	0.73018
0.73086	0.73086	0.73086
0.73154	0.73154	0.73154
0.73222	0.73222	0.73222
0.73290	0.73290	0.73290
0.73358	0.73358	0.73358
0.73426	0.73426	0.73426
0.73494	0.73494	0.73494
0.73561	0.73561	0.73561
0.73629	0.73629	0.73629
0.73697	0.73697	0.73697
0.73764	0.73764	0.73764
0.73832	0.73832	0.73832
0.73899	0.73899	0.73899
0.73966	0.73966	0.73966
0.74033	0.74033	0.74033
0.74101	0.74101	0.74101
0.74168	0.74168	0.74168
0.74235	0.74235	0.74235
0.74302	0.74302	0.74302
0.74369	0.74369	0.74369
0.74435	0.74435	0.74435
0.74502	0.74502	0.74502
0.74569	0.74569	0.74569
0.74636	0.74636	0.74636
0.74702	0.74702	0.74702
0.74769	0.74769	0.74769
0.74835	0.74835	0.74835
0.74902	0.74902	0.74902
0.74968	0.74968	0.74968
0.75034	0.75034	0.75034
0.75100	0.75100	0.75100
0.75167	0.75167	0.75167
0.75233	0.75233	0.75233
0.75299	0.75299	0.75299
0.75365	0.75365	0.75365
0.75431	0.75431	0.75431
0.75496	0.75496	0.75496
0.75562	0.75562	0.75562
0.75628	0.75628	0.75628
0.75694	0.75694	0.75694
0.75759	0.75759	0.75759
0.75825	0.75825	0.75825
0.75890	0.75890	0.75890
0.75955	0.75955	0.75955
0.76021	0.76021	0.76021
0.76086	0.76086	0.76086
0.76151	0.76151	0.76151
0.76216	0.76216	0.76216
0.76282	0.76282	0.76282
0.76347	0.76347	0.76347
0.76412	0.76412	0.76412
0.76477	0.76477	0.76477
0.76541	0.76541	0.76541
0.76606	0.76606	0.76606
0.76671	0.76671	0.76671
0.76736	0.76736	0.76736
0.76800	0.76800	0.76800
0.76865	0.76865	0.76865
0.76929	0.76929	0.76929
0.76994	0.76994	0.76994
0.77058	0.77058	0.77058
0.77122	0.77122	0.77122
0.77187	0.77187	0.77187
0.77251	0.77251	0.77251
0.77315	0.77315	0.77315
0.77379	0.77379	0.77379
0.77443	0.77443	0.77443
0.77507	0.77507	0.77507
0.77571	0.77571	0.77571
0.77635	0.77635	0.77635
0.77699	0.77699	0.77699
0.77763	0.77763	0.77763
0.77826	0.77826	0.77826
0.77890	0.77890	0.77890
0.77954	0.77954	0.77954
0.78017	0.78017	0.78017
0.78081	0.78081	0.78081
0.78144	0.78144	0.78144
0.78207	0.78207	0.78207
0.78271	0.78271	0.78271
0.78334	0.78334	0.78334
0.78397	0.78397	0.78397
0.78460	0.78460	0.78460
0.78523	0.78523	0.78523
0.78586	0.78586	0.78586
0.78649	0.78649	0.78649
0.78712	0.78712	0.78712
0.78775	0.78775	0.78775
0.78838	0.78838	0.78838
0.78901	0.78901	0.78901
0.78963	0.78963	0.78963
0.79026	0.79026	0.79026
0.79089	0.79089	0.79089
0.79151	0.79151	0.79151
0.79214	0.79214	0.79214
0.79276	0.79276	0.79276
0.79339	0.79339	0.79339
0.79401	0.79401	0.79401
0.79463	0.79463	0.79463
0.79525	0.79525	0.79525
0.79588	0.79588	0.79588
0.79650	0.79650	0.79650
0.79712	0.79712	0.79712
0.79774	0.79774	0.79774
0.79836	0.79836	0.79836
0.79898	0.79898	0.79898
0.79959	0.79959	0.79959
0.80021	0.80021	0.80021
0.80083	0.80083	0.80083
0.80145	0.80145	0.80145
0.80206	0.80206	0.80206
0.80268	0.80268	0.80268
0.80329	0.80329	0.80329
0.80391	0.80391	0.80391
0.80452	0.80452	0.80452
0.80514	0.80514	0.80514
0.80575	0.80575	0.80575
0.80636	0.80636	0.80636
0.80698	0.80698	0.80698
0.80759	0.80759	0.80759
0.80820	0.80820	0.80820
0.80881	0.80881	0.80881
0.80942	0.80942	0.80942
0.81003	0.81003	0.81003
0.81064	0.81064	0.81064
0.81125	0.81125	0.81125
0.81186	0.81186	0.81186
0.81247	0.81247	0.81247
0.81307	0.81307	0.81307
0.81368	0.81368	0.81368
0.81429	0.81429	0.81429
0.81489	0.81489	0.81489
0.81550	0.81550	0.81550
0.81610	0.81610	0.81610
0.81671	0.81671	0.81671
0.81731	0.81731	0.81731
0.81791	0.81791	0.81791
0.81852	0.81852	0.81852
0.81912	0.81912	0.81912
0.81972	0.81972	0.81972
0.82032	0.82032	0.82032
0.82092	0.82092	0.82092
0.82153	0.82153	0.82153
0.82213	0.82213	0.82213
0.82273	0.82273	0.82273
0.82332	0.82332	0.82332
0.82392	0.82392	0.82392
0.82452	0.82452	0.82452
0.82512	0.82512	0.82512
0.82572	0.82572	0.82572
0.82631	0.82631	0.82631
0.82691	0.82691	0.82691
0.82751	0.82751	0.82751
0.82810	0.82810	0.82810
0.82870	0.82870	0.82870
0.82929	0.82929	0.82929
0.82988	0.82988	0.82988
0.83048	0.83048	0.83048
0.83107	0.83107	0.83107
0.83166	0.83166	0.83166
0.83226	0.83226	0.83226
0.83285	0.83285	0.83285
0.83344	0.83344	0.83344
0.83403	0.83403	0.83403
0.83462	0.83462	0.83462
0.83521	0.83521	0.83521
0.83580	0.83580	0.83580
0.83639	0.83639	0.83639
0.83698	0.83698	0.83698
0.83756	0.83756	0.83756
0.83815	0.83815	0.83815
0.83874	0.83874	0.83874
0.83932	0.83932	0.83932
0.83991	0.83991	0.83991
0.84050	0.84050	0.84050
0.84108	0.84108	0.84108
0.84167	0.84167	0.84167
0.84225	0.84225	0.84225
0.84284	0.84284	0.84284
0.84342	0.84342	0.84342
0.84400	0.84400	0.84400
0.84459	0.84459	0.84459
0.84517	0.84517	0.84517
0.84575	0.84575	0.84575
0.84633	0.84633	0.84633
0.84691	0.84691	0.84691
0.84749	0.84749	0.84749
0.84807	0.84807	0.84807
0.84865	0.84865	0.84865
0.84923	0.84923	0.84923
0.84981	0.84981	0.84981
0.85039	0.85039	0.85039
0.85097	0.85097	0.85097
0.85154	0.85154	0.85154
0.85212	0.85212	0.85212
0.85270	0.85270	0.85270
0.85327	0.85327	0.85327
0.85385	0.85385	0.85385
0.85442	0.85442	0.85442
0.85500	0.85500	0.85500
0.85557	0.85557	0.85557
0.85615	0.85615	0.85615
0.85672	0.85672	0.85672
0.85729	0.85729	0.85729
0.85787	0.85787	0.85787
0.85844	0.85844	0.85844
0.85901	0.85901	0.85901
0.85958	0.85958	0.85958
0.86015	0.86015	0.86015
0.86072	0.86072	0.86072
0.86130	0.86130	0.86130
0.86187	0.86187	0.86187
0.86243	0.86243	0.86243
0.86300	0.86300	0.86300
0.86357	0.86357	0.86357
0.86414	0.86414	0.86414
0.86471	0.86471	0.86471
0.86528	0.86528	0.86528
0.86584	0.86584	0.86584
0.86641	0.86641	0.86641
0.86698	0.86698	0.86698
0.86754	0.86754	0.86754
0.86811	0.86811	0.86811
0.86867	0.86867	0.86867
0.86924	0.86924	0.86924
0.86980	0.86980	0.86980
0.87036	0.87036	0.87036
0.87093	0.87093	0.87093
0.87149	0.87149	0.87149
0.87205	0.87205	0.87205
0.87262	0.87262	0.87262
0.87318	0.87318	0.87318
0.87374	0.87374	0.87374
0.87430	0.87430	0.87430
0.87486	0.87486	0.87486
0.87542	0.87542	0.87542
0.87598	0.87598	0.87598
0.87654	0.87654	0.87654
0.87710	0.87710	0.87710
0.87766	0.87766	0.87766
0.87822	0.87822	0.87822
0.87877	0.87877	0.87877
0.87933	0.87933	0.87933
0.87989	0.87989	0.87989
0.88044	0.88044	0.88044
0.88100	0.88100	0.88100
0.88156	0.88156	0.88156
0.88211	0.88211	0.88211
0.88267	0.88267	0.88267
0.88322	0.88322	0.88322
0.88378	0.88378	0.88378
0.88433	0.88433	0.88433
0.88488	0.88488	0.88488
0.88544	0.88544	0.88544
0.88599	0.88599	0.88599
0.88654	0.88654	0.88654
0.88710	0.88710	0.88710
0.88765	0.88765	0.88765
0.88820	0.88820	0.88820
0.88875	0.88875	0.88875
0.88930	0.88930	0.88930
0.88985	0.88985	0.88985
0.89040	0.89040	0.89040
0.89095	0.89095	0.89095
0.89150	0.89150	0.89150
0.89205	0.89205	0.89205
0.89260	0.89260	0.89260
0.89314	0.89314	0.89314
0.89369	0.89369	0.89369
0.89424	0.89424	0.89424
0.89479	0.89479	0.89479
0.89533	0.89533	0.89533
0.89588	0.89588	0.89588
0.89642	0.89642	0.89642
0.89697	0.89697	0.89697
0.89751	0.89751	0.89751
0.89806	0.89806	0.89806
0.89860	0.89860	0.89860
0.89915	0.89915	0.89915
0.89969	0.89969	0.89969
0.90023	0.90023	0.90023
0.90078	0.90078	0.90078
0.90132	0.90132	0.90132
0.90186	0.90186	0.90186
0.90240	0.90240	0.90240
0.90295	0.90295	0.90295
0.90349	0.90349	0.90349
0.90403	0.90403	0.90403
0.90457	0.90457	0.90457
0.90511	0.90511	0.90511
0.90565	0.90565	0.90565
0.90619	0.90619	0.90619
0.90673	0.90673	0.90673
0.90726	0.90726	0.90726
0.90780	0.90780	0.90780
0.90834	0.90834	0.90834
0.90888	0.90888	0.90888
0.90941	0.90941	0.90941
0.90995	0.90995	0.90995
0.91049	0.91049	0.91049
0.91102	0.91102	0.91102
0.91156	0.91156	0.91156
0.91210	0.91210	0.91210
0.91263	0.91263	0.91263
0.91317	0.91317	0.91317
0.91370	0.91370	0.91370
0.91423	0.91423	0.91423
0.91477	0.91477	0.91477
0.91530	0.91530	0.91530
0.91583	0.91583	0.91583
0.91637	0.91637	0.91637
0.91690	0.91690	0.91690
0.91743	0.91743	0.91743
0.91796	0.91796	0.91796
0.91849	0.91849	0.91849
0.91903	0.91903	0.91903
0.91956	0.91956	0.91956
0.92009	0.92009	0.92009
0.92062	0.92062	0.92062
0.92115	0.92115	0.92115
0.92168	0.92168	0.92168
0.92220	0.92220	0.92220
0.92273	0.92273	0.92273
0.92326	0.92326	0.92326
0.92379	0.92379	0.92379
0.92432	0.92432	0.92432
0.92484	0.92484	0.92484
0.92537	0.92537	0.92537
0.92590	0.92590	0.92590
0.92642	0.92642	0.92642
0.92695	0.92695	0.92695
0.92748	0.92748	0.92748
0.92800	0.92800	0.92800
0.92853	0.92853	0.92853
0.92905	0.92905	0.92905
0.92958	0.92958	0.92958
0.93010	0.93010	0.93010
0.93062	0.93062	0.93062
0.93115	0.93115	0.93115
0.93167	0.93167	0.93167
0.93219	0.93219	0.93219
0.93271	0.93271	0.93271
0.93324	0.93324	0.93324
0.93376	0.93376	0.93376
0.93428	0.93428	0.93428
0.93480	0.93480	0.93480
0.93532	0.93532	0.93532
0.93584	0.93584	0.93584
0.93636	0.93636	0.93636
0.93688	0.93688	0.93688
0.93740	0.93740	0.93740
0.93792	0.93792	0.93792
0.93844	0.93844	0.93844
0.93896	0.93896	0.93896
0.93948	0.93948	0.93948
0.93999	0.93999	0.93999
0.94051	0.94051	0.94051
0.94103	0.94103	0.94103
0.94155	0.94155	0.94155
0.94206	0.94206	0.94206
0.94258	0.94258	0.94258
0.94310	0.94310	0.94310
0.94361	0.94361	0.94361
0.94413	0.94413	0.94413
0.94464	0.94464	0.94464
0.94516	0.94516	0.94516
0.94567	0.94567	0.94567
0.94618	0.94618	0.94618
0.94670	0.94670	0.94670
0.94721	0.94721	0.94721
0.94773	0.94773	0.94773
0.94824	0.94824	0.94824
0.94875	0.94875	0.94875
0.94926	0.94926	0.94926
0.94978	0.94978	0.94978
0.95029	0.95029	0.95029
0.95080	0.95080	0.95080
0.95131	0.95131	0.95131
0.95182	0.95182	0.95182
0.95233	0.95233	0.95233
0.95284	0.95284	0.95284
0.95335	0.95335	0.95335
0.95386	0.95386	0.95386
0.95437	0.95437	0.95437
0.95488	0.95488	0.95488
0.95539	0.95539	0.95539
0.95590	0.95590	0.95590
0.95640	0.95640	0.95640
0.95691	0.95691	0.95691
0.95742	0.95742	0.95742
0.95793	0.95793	0.95793
0.95843	0.95843	0.95843
0.95894	0.95894	0.95894
0.95945	0.95945	0.95945
0.95995	0.95995	0.95995
0.96046	0.96046	0.96046
0.96096	0.96096	0.96096
0.96147	0.96147	0.96147
0.96197	0.96197	0.96197
0.96248	0.96248	0.96248
0.96298	0.96298	0.96298
0.96349	0.96349	0.96349
0.96399	0.96399	0.96399
0.96449	0.96449	0.96449
0.96500	0.96500	0.96500
0.96550	0.96550	0.96550
0.96600	0.96600	0.96600
0.96650	0.96650	0.96650
0.96701	0.96701	0.96701
0.96751	0.96751	0.96751
0.96801	0.96801	0.96801
0.96851	0.96851	0.96851
0.96901	0.96901	0.96901
0.96951	0.96951	0.96951
0.97001	0.97001	0.97001
0.97051	0.97051	0.97051
0.97101	0.97101	0.97101
0.97151	0.97151	0.97151
0.97201	0.97201	0.97201
0.97251	0.97251	0.97251
0.97301	0.97301	0.97301
0.97351	0.97351	0.97351
0.97400	0.97400	0.97400
0.97450	0.97450	0.97450
0.97500	0.97500	0.97500
0.97550	0.97550	0.97550
0.97599	0.97599	0.97599
0.97649	0.97649	0.97649
0.97698	0.97698	0.97698
0.97748	0.97748	0.97748
0.97798	0.97798	0.97798
0.97847	0.97847	0.97847
0.97897	0.97897	0.97897
0.97946	0.97946	0.97946
0.97996	0.97996	0.97996
0.98045	0.98045	0.98045
0.98094	0.98094	0.98094
0.98144	0.98144	0.98144
0.98193	0.98193	0.98193
0.98242	0.98242	0.98242
0.98292	0.98292	0.98292
0.98341	0.98341	0.98341
0.98390	0.98390	0.98390
0.98439	0.98439	0.98439
0.98489	0.98489	0.98489
0.98538	0.98538	0.98538
0.98587	0.98587	0.98587
0.98636	0.98636	0.98636
0.98685	0.98685	0.98685
