Vibe/Lumetri/LUTs/Legacy/FullToSMPTE8.cube
TITLE Full Range To SMPTE Range 8 bits Extended Domain
# Copyright 2016, Adobe Systems Inc.
# Converts full range data to SMPTE range, with extended input domain
# Min = -16 / 219
# Max = (255 - 16) / 219

LUT_1D_SIZE 2
DOMAIN_MIN -0.07306 -0.07306 -0.07306
DOMAIN_MAX 1.09132 1.09132 1.09132

0.0 0.0 0.0
1.0 1.0 1.0
