Vibe/Lumetri/LUTs/Legacy/FullToSMPTE10.cube
TITLE Full Range To SMPTE Range 10 bits Extended Domain
# Copyright 2016, Adobe Systems Inc.
# Converts full range data to SMPTE range, with extended input domain
# Min = -64 / 876
# Max = (1023 - 64) / 876

LUT_1D_SIZE 2
DOMAIN_MIN -0.07306 -0.07306 -0.07306
DOMAIN_MAX 1.09475 1.09475 1.09475

0.0 0.0 0.0
1.0 1.0 1.0