Vibe/Lumetri/LUTs/Legacy/FullToSMPTE12.cube
TITLE Full Range To SMPTE Range 12 bits Extended Domain
# Copyright 2016, Adobe Systems Inc.
# Converts full range data to SMPTE range, with extended input domain
# Min = -256 / 3504
# Max = (4095 - 256) / 3504

LUT_1D_SIZE 2
DOMAIN_MIN -0.07306 -0.07306 -0.07306
DOMAIN_MAX 1.09561 1.09561 1.09561

0.0 0.0 0.0
1.0 1.0 1.0
