Vibe/Lumetri/LUTs/Legacy/Log_to_Display_Gamma.cube
LUT_1D_SIZE 1024
DOMAIN_MIN 	0.0 0.0 0.0
DOMAIN_MAX	1.0 1.0 1.0
-0.013423	-0.013423	-0.013423
-0.013318	-0.013318	-0.013318
-0.013212	-0.013212	-0.013212
-0.013105	-0.013105	-0.013105
-0.012997	-0.012997	-0.012997
-0.012889	-0.012889	-0.012889
-0.012781	-0.012781	-0.012781
-0.012671	-0.012671	-0.012671
-0.012561	-0.012561	-0.012561
-0.012451	-0.012451	-0.012451
-0.012339	-0.012339	-0.012339
-0.012227	-0.012227	-0.012227
-0.012115	-0.012115	-0.012115
-0.012001	-0.012001	-0.012001
-0.011887	-0.011887	-0.011887
-0.011773	-0.011773	-0.011773
-0.011657	-0.011657	-0.011657
-0.011541	-0.011541	-0.011541
-0.011425	-0.011425	-0.011425
-0.011307	-0.011307	-0.011307
-0.011189	-0.011189	-0.011189
-0.011070	-0.011070	-0.011070
-0.010951	-0.010951	-0.010951
-0.010831	-0.010831	-0.010831
-0.010710	-0.010710	-0.010710
-0.010588	-0.010588	-0.010588
-0.010466	-0.010466	-0.010466
-0.010342	-0.010342	-0.010342
-0.010219	-0.010219	-0.010219
-0.010094	-0.010094	-0.010094
-0.009969	-0.009969	-0.009969
-0.009843	-0.009843	-0.009843
-0.009716	-0.009716	-0.009716
-0.009588	-0.009588	-0.009588
-0.009460	-0.009460	-0.009460
-0.009331	-0.009331	-0.009331
-0.009201	-0.009201	-0.009201
-0.009070	-0.009070	-0.009070
-0.008939	-0.008939	-0.008939
-0.008807	-0.008807	-0.008807
-0.008674	-0.008674	-0.008674
-0.008540	-0.008540	-0.008540
-0.008405	-0.008405	-0.008405
-0.008270	-0.008270	-0.008270
-0.008134	-0.008134	-0.008134
-0.007997	-0.007997	-0.007997
-0.007859	-0.007859	-0.007859
-0.007720	-0.007720	-0.007720
-0.007581	-0.007581	-0.007581
-0.007441	-0.007441	-0.007441
-0.007300	-0.007300	-0.007300
-0.007158	-0.007158	-0.007158
-0.007015	-0.007015	-0.007015
-0.006871	-0.006871	-0.006871
-0.006727	-0.006727	-0.006727
-0.006581	-0.006581	-0.006581
-0.006435	-0.006435	-0.006435
-0.006288	-0.006288	-0.006288
-0.006140	-0.006140	-0.006140
-0.005991	-0.005991	-0.005991
-0.005841	-0.005841	-0.005841
-0.005691	-0.005691	-0.005691
-0.005539	-0.005539	-0.005539
-0.005387	-0.005387	-0.005387
-0.005234	-0.005234	-0.005234
-0.005079	-0.005079	-0.005079
-0.004924	-0.004924	-0.004924
-0.004768	-0.004768	-0.004768
-0.004611	-0.004611	-0.004611
-0.004453	-0.004453	-0.004453
-0.004294	-0.004294	-0.004294
-0.004134	-0.004134	-0.004134
-0.003974	-0.003974	-0.003974
-0.003812	-0.003812	-0.003812
-0.003649	-0.003649	-0.003649
-0.003486	-0.003486	-0.003486
-0.003321	-0.003321	-0.003321
-0.003155	-0.003155	-0.003155
-0.002989	-0.002989	-0.002989
-0.002821	-0.002821	-0.002821
-0.002653	-0.002653	-0.002653
-0.002483	-0.002483	-0.002483
-0.002312	-0.002312	-0.002312
-0.002141	-0.002141	-0.002141
-0.001968	-0.001968	-0.001968
-0.001794	-0.001794	-0.001794
-0.001620	-0.001620	-0.001620
-0.001444	-0.001444	-0.001444
-0.001267	-0.001267	-0.001267
-0.001089	-0.001089	-0.001089
-0.000911	-0.000911	-0.000911
-0.000731	-0.000731	-0.000731
-0.000550	-0.000550	-0.000550
-0.000367	-0.000367	-0.000367
-0.000184	-0.000184	-0.000184
0.000000	0.000000	0.000000
0.000185	0.000185	0.000185
0.000372	0.000372	0.000372
0.000559	0.000559	0.000559
0.000748	0.000748	0.000748
0.000938	0.000938	0.000938
0.001129	0.001129	0.001129
0.001321	0.001321	0.001321
0.001514	0.001514	0.001514
0.001709	0.001709	0.001709
0.001904	0.001904	0.001904
0.002101	0.002101	0.002101
0.002299	0.002299	0.002299
0.002498	0.002498	0.002498
0.002698	0.002698	0.002698
0.002899	0.002899	0.002899
0.003102	0.003102	0.003102
0.003306	0.003306	0.003306
0.003511	0.003511	0.003511
0.003717	0.003717	0.003717
0.003925	0.003925	0.003925
0.004133	0.004133	0.004133
0.004343	0.004343	0.004343
0.004554	0.004554	0.004554
0.004767	0.004767	0.004767
0.004981	0.004981	0.004981
0.005196	0.005196	0.005196
0.005412	0.005412	0.005412
0.005629	0.005629	0.005629
0.005848	0.005848	0.005848
0.006068	0.006068	0.006068
0.006290	0.006290	0.006290
0.006513	0.006513	0.006513
0.006737	0.006737	0.006737
0.006962	0.006962	0.006962
0.007189	0.007189	0.007189
0.007417	0.007417	0.007417
0.007647	0.007647	0.007647
0.007878	0.007878	0.007878
0.008110	0.008110	0.008110
0.008343	0.008343	0.008343
0.008578	0.008578	0.008578
0.008815	0.008815	0.008815
0.009053	0.009053	0.009053
0.009292	0.009292	0.009292
0.009532	0.009532	0.009532
0.009775	0.009775	0.009775
0.010018	0.010018	0.010018
0.010263	0.010263	0.010263
0.010509	0.010509	0.010509
0.010757	0.010757	0.010757
0.011007	0.011007	0.011007
0.011258	0.011258	0.011258
0.011510	0.011510	0.011510
0.011764	0.011764	0.011764
0.012019	0.012019	0.012019
0.012276	0.012276	0.012276
0.012534	0.012534	0.012534
0.012794	0.012794	0.012794
0.013056	0.013056	0.013056
0.013319	0.013319	0.013319
0.013583	0.013583	0.013583
0.013850	0.013850	0.013850
0.014117	0.014117	0.014117
0.014387	0.014387	0.014387
0.014658	0.014658	0.014658
0.014930	0.014930	0.014930
0.015204	0.015204	0.015204
0.015480	0.015480	0.015480
0.015758	0.015758	0.015758
0.016037	0.016037	0.016037
0.016317	0.016317	0.016317
0.016600	0.016600	0.016600
0.016884	0.016884	0.016884
0.017170	0.017170	0.017170
0.017457	0.017457	0.017457
0.017747	0.017747	0.017747
0.018037	0.018037	0.018037
0.018330	0.018330	0.018330
0.018625	0.018625	0.018625
0.018921	0.018921	0.018921
0.019219	0.019219	0.019219
0.019518	0.019518	0.019518
0.019820	0.019820	0.019820
0.020123	0.020123	0.020123
0.020428	0.020428	0.020428
0.020735	0.020735	0.020735
0.021044	0.021044	0.021044
0.021354	0.021354	0.021354
0.021667	0.021667	0.021667
0.021981	0.021981	0.021981
0.022297	0.022297	0.022297
0.022615	0.022615	0.022615
0.022935	0.022935	0.022935
0.023257	0.023257	0.023257
0.023580	0.023580	0.023580
0.023906	0.023906	0.023906
0.024234	0.024234	0.024234
0.024563	0.024563	0.024563
0.024895	0.024895	0.024895
0.025228	0.025228	0.025228
0.025564	0.025564	0.025564
0.025901	0.025901	0.025901
0.026240	0.026240	0.026240
0.026582	0.026582	0.026582
0.026925	0.026925	0.026925
0.027271	0.027271	0.027271
0.027619	0.027619	0.027619
0.027968	0.027968	0.027968
0.028320	0.028320	0.028320
0.028674	0.028674	0.028674
0.029030	0.029030	0.029030
0.029388	0.029388	0.029388
0.029748	0.029748	0.029748
0.030110	0.030110	0.030110
0.030475	0.030475	0.030475
0.030841	0.030841	0.030841
0.031210	0.031210	0.031210
0.031581	0.031581	0.031581
0.031954	0.031954	0.031954
0.032330	0.032330	0.032330
0.032708	0.032708	0.032708
0.033088	0.033088	0.033088
0.033470	0.033470	0.033470
0.033854	0.033854	0.033854
0.034241	0.034241	0.034241
0.034630	0.034630	0.034630
0.035021	0.035021	0.035021
0.035415	0.035415	0.035415
0.035811	0.035811	0.035811
0.036210	0.036210	0.036210
0.036610	0.036610	0.036610
0.037013	0.037013	0.037013
0.037419	0.037419	0.037419
0.037827	0.037827	0.037827
0.038237	0.038237	0.038237
0.038650	0.038650	0.038650
0.039065	0.039065	0.039065
0.039483	0.039483	0.039483
0.039903	0.039903	0.039903
0.040326	0.040326	0.040326
0.040751	0.040751	0.040751
0.041179	0.041179	0.041179
0.041610	0.041610	0.041610
0.042042	0.042042	0.042042
0.042478	0.042478	0.042478
0.042916	0.042916	0.042916
0.043357	0.043357	0.043357
0.043800	0.043800	0.043800
0.044246	0.044246	0.044246
0.044694	0.044694	0.044694
0.045146	0.045146	0.045146
0.045599	0.045599	0.045599
0.046056	0.046056	0.046056
0.046515	0.046515	0.046515
0.046977	0.046977	0.046977
0.047442	0.047442	0.047442
0.047910	0.047910	0.047910
0.048380	0.048380	0.048380
0.048853	0.048853	0.048853
0.049329	0.049329	0.049329
0.049808	0.049808	0.049808
0.050290	0.050290	0.050290
0.050774	0.050774	0.050774
0.051262	0.051262	0.051262
0.051752	0.051752	0.051752
0.052245	0.052245	0.052245
0.052741	0.052741	0.052741
0.053241	0.053241	0.053241
0.053743	0.053743	0.053743
0.054248	0.054248	0.054248
0.054756	0.054756	0.054756
0.055267	0.055267	0.055267
0.055781	0.055781	0.055781
0.056298	0.056298	0.056298
0.056818	0.056818	0.056818
0.057342	0.057342	0.057342
0.057868	0.057868	0.057868
0.058398	0.058398	0.058398
0.058931	0.058931	0.058931
0.059467	0.059467	0.059467
0.060006	0.060006	0.060006
0.060548	0.060548	0.060548
0.061093	0.061093	0.061093
0.061642	0.061642	0.061642
0.062194	0.062194	0.062194
0.062750	0.062750	0.062750
0.063308	0.063308	0.063308
0.063870	0.063870	0.063870
0.064436	0.064436	0.064436
0.065004	0.065004	0.065004
0.065576	0.065576	0.065576
0.066152	0.066152	0.066152
0.066731	0.066731	0.066731
0.067313	0.067313	0.067313
0.067899	0.067899	0.067899
0.068488	0.068488	0.068488
0.069081	0.069081	0.069081
0.069677	0.069677	0.069677
0.070277	0.070277	0.070277
0.070880	0.070880	0.070880
0.071487	0.071487	0.071487
0.072098	0.072098	0.072098
0.072712	0.072712	0.072712
0.073330	0.073330	0.073330
0.073952	0.073952	0.073952
0.074577	0.074577	0.074577
0.075206	0.075206	0.075206
0.075839	0.075839	0.075839
0.076475	0.076475	0.076475
0.077115	0.077115	0.077115
0.077759	0.077759	0.077759
0.078407	0.078407	0.078407
0.079059	0.079059	0.079059
0.079715	0.079715	0.079715
0.080374	0.080374	0.080374
0.081038	0.081038	0.081038
0.081705	0.081705	0.081705
0.082377	0.082377	0.082377
0.083052	0.083052	0.083052
0.083731	0.083731	0.083731
0.084415	0.084415	0.084415
0.085102	0.085102	0.085102
0.085794	0.085794	0.085794
0.086490	0.086490	0.086490
0.087190	0.087190	0.087190
0.087894	0.087894	0.087894
0.088602	0.088602	0.088602
0.089314	0.089314	0.089314
0.090031	0.090031	0.090031
0.090752	0.090752	0.090752
0.091477	0.091477	0.091477
0.092207	0.092207	0.092207
0.092940	0.092940	0.092940
0.093679	0.093679	0.093679
0.094421	0.094421	0.094421
0.095168	0.095168	0.095168
0.095920	0.095920	0.095920
0.096676	0.096676	0.096676
0.097436	0.097436	0.097436
0.098201	0.098201	0.098201
0.098971	0.098971	0.098971
0.099745	0.099745	0.099745
0.100524	0.100524	0.100524
0.101307	0.101307	0.101307
0.102095	0.102095	0.102095
0.102888	0.102888	0.102888
0.103685	0.103685	0.103685
0.104487	0.104487	0.104487
0.105294	0.105294	0.105294
0.106106	0.106106	0.106106
0.106922	0.106922	0.106922
0.107744	0.107744	0.107744
0.108570	0.108570	0.108570
0.109401	0.109401	0.109401
0.110237	0.110237	0.110237
0.111078	0.111078	0.111078
0.111925	0.111925	0.111925
0.112776	0.112776	0.112776
0.113632	0.113632	0.113632
0.114493	0.114493	0.114493
0.115360	0.115360	0.115360
0.116231	0.116231	0.116231
0.117108	0.117108	0.117108
0.117990	0.117990	0.117990
0.118877	0.118877	0.118877
0.119770	0.119770	0.119770
0.120668	0.120668	0.120668
0.121571	0.121571	0.121571
0.122479	0.122479	0.122479
0.123393	0.123393	0.123393
0.124313	0.124313	0.124313
0.125237	0.125237	0.125237
0.126168	0.126168	0.126168
0.127104	0.127104	0.127104
0.128045	0.128045	0.128045
0.128992	0.128992	0.128992
0.129945	0.129945	0.129945
0.130903	0.130903	0.130903
0.131867	0.131867	0.131867
0.132837	0.132837	0.132837
0.133813	0.133813	0.133813
0.134794	0.134794	0.134794
0.135781	0.135781	0.135781
0.136774	0.136774	0.136774
0.137773	0.137773	0.137773
0.138778	0.138778	0.138778
0.139789	0.139789	0.139789
0.140806	0.140806	0.140806
0.141829	0.141829	0.141829
0.142858	0.142858	0.142858
0.143893	0.143893	0.143893
0.144934	0.144934	0.144934
0.145982	0.145982	0.145982
0.147036	0.147036	0.147036
0.148096	0.148096	0.148096
0.149162	0.149162	0.149162
0.150235	0.150235	0.150235
0.151314	0.151314	0.151314
0.152399	0.152399	0.152399
0.153491	0.153491	0.153491
0.154589	0.154589	0.154589
0.155694	0.155694	0.155694
0.156806	0.156806	0.156806
0.157924	0.157924	0.157924
0.159049	0.159049	0.159049
0.160180	0.160180	0.160180
0.161319	0.161319	0.161319
0.162464	0.162464	0.162464
0.163615	0.163615	0.163615
0.164774	0.164774	0.164774
0.165939	0.165939	0.165939
0.167112	0.167112	0.167112
0.168291	0.168291	0.168291
0.169478	0.169478	0.169478
0.170671	0.170671	0.170671
0.171872	0.171872	0.171872
0.173080	0.173080	0.173080
0.174295	0.174295	0.174295
0.175517	0.175517	0.175517
0.176746	0.176746	0.176746
0.177983	0.177983	0.177983
0.179227	0.179227	0.179227
0.180479	0.180479	0.180479
0.181738	0.181738	0.181738
0.183004	0.183004	0.183004
0.184278	0.184278	0.184278
0.185560	0.185560	0.185560
0.186849	0.186849	0.186849
0.188146	0.188146	0.188146
0.189450	0.189450	0.189450
0.190762	0.190762	0.190762
0.192083	0.192083	0.192083
0.193411	0.193411	0.193411
0.194746	0.194746	0.194746
0.196090	0.196090	0.196090
0.197442	0.197442	0.197442
0.198802	0.198802	0.198802
0.200170	0.200170	0.200170
0.201546	0.201546	0.201546
0.202930	0.202930	0.202930
0.204323	0.204323	0.204323
0.205724	0.205724	0.205724
0.207133	0.207133	0.207133
0.208550	0.208550	0.208550
0.209976	0.209976	0.209976
0.211411	0.211411	0.211411
0.212853	0.212853	0.212853
0.214305	0.214305	0.214305
0.215765	0.215765	0.215765
0.217234	0.217234	0.217234
0.218712	0.218712	0.218712
0.220198	0.220198	0.220198
0.221693	0.221693	0.221693
0.223197	0.223197	0.223197
0.224710	0.224710	0.224710
0.226232	0.226232	0.226232
0.227764	0.227764	0.227764
0.229304	0.229304	0.229304
0.230853	0.230853	0.230853
0.232412	0.232412	0.232412
0.233980	0.233980	0.233980
0.235557	0.235557	0.235557
0.237143	0.237143	0.237143
0.238739	0.238739	0.238739
0.240345	0.240345	0.240345
0.241960	0.241960	0.241960
0.243585	0.243585	0.243585
0.245219	0.245219	0.245219
0.246863	0.246863	0.246863
0.248517	0.248517	0.248517
0.250181	0.250181	0.250181
0.251854	0.251854	0.251854
0.253538	0.253538	0.253538
0.255231	0.255231	0.255231
0.256935	0.256935	0.256935
0.258649	0.258649	0.258649
0.260373	0.260373	0.260373
0.262107	0.262107	0.262107
0.263851	0.263851	0.263851
0.265606	0.265606	0.265606
0.267372	0.267372	0.267372
0.269147	0.269147	0.269147
0.270934	0.270934	0.270934
0.272731	0.272731	0.272731
0.274539	0.274539	0.274539
0.276357	0.276357	0.276357
0.278186	0.278186	0.278186
0.280026	0.280026	0.280026
0.281878	0.281878	0.281878
0.283740	0.283740	0.283740
0.285613	0.285613	0.285613
0.287497	0.287497	0.287497
0.289393	0.289393	0.289393
0.291300	0.291300	0.291300
0.293218	0.293218	0.293218
0.295147	0.295147	0.295147
0.297088	0.297088	0.297088
0.299041	0.299041	0.299041
0.301005	0.301005	0.301005
0.302981	0.302981	0.302981
0.304969	0.304969	0.304969
0.306968	0.306968	0.306968
0.308980	0.308980	0.308980
0.311003	0.311003	0.311003
0.313038	0.313038	0.313038
0.315086	0.315086	0.315086
0.317146	0.317146	0.317146
0.319218	0.319218	0.319218
0.321302	0.321302	0.321302
0.323398	0.323398	0.323398
0.325508	0.325508	0.325508
0.327629	0.327629	0.327629
0.329763	0.329763	0.329763
0.331910	0.331910	0.331910
0.334070	0.334070	0.334070
0.336243	0.336243	0.336243
0.338428	0.338428	0.338428
0.340627	0.340627	0.340627
0.342838	0.342838	0.342838
0.345063	0.345063	0.345063
0.347301	0.347301	0.347301
0.349552	0.349552	0.349552
0.351817	0.351817	0.351817
0.354095	0.354095	0.354095
0.356387	0.356387	0.356387
0.358692	0.358692	0.358692
0.361011	0.361011	0.361011
0.363344	0.363344	0.363344
0.365691	0.365691	0.365691
0.368052	0.368052	0.368052
0.370426	0.370426	0.370426
0.372815	0.372815	0.372815
0.375218	0.375218	0.375218
0.377636	0.377636	0.377636
0.380067	0.380067	0.380067
0.382514	0.382514	0.382514
0.384974	0.384974	0.384974
0.387450	0.387450	0.387450
0.389940	0.389940	0.389940
0.392445	0.392445	0.392445
0.394965	0.394965	0.394965
0.397500	0.397500	0.397500
0.400050	0.400050	0.400050
0.402615	0.402615	0.402615
0.405195	0.405195	0.405195
0.407791	0.407791	0.407791
0.410402	0.410402	0.410402
0.413028	0.413028	0.413028
0.415671	0.415671	0.415671
0.418329	0.418329	0.418329
0.421002	0.421002	0.421002
0.423692	0.423692	0.423692
0.426398	0.426398	0.426398
0.429120	0.429120	0.429120
0.431858	0.431858	0.431858
0.434612	0.434612	0.434612
0.437383	0.437383	0.437383
0.440170	0.440170	0.440170
0.442974	0.442974	0.442974
0.445794	0.445794	0.445794
0.448631	0.448631	0.448631
0.451485	0.451485	0.451485
0.454356	0.454356	0.454356
0.457244	0.457244	0.457244
0.460150	0.460150	0.460150
0.463072	0.463072	0.463072
0.466012	0.466012	0.466012
0.468970	0.468970	0.468970
0.471945	0.471945	0.471945
0.474937	0.474937	0.474937
0.477948	0.477948	0.477948
0.480976	0.480976	0.480976
0.484023	0.484023	0.484023
0.487087	0.487087	0.487087
0.490170	0.490170	0.490170
0.493271	0.493271	0.493271
0.496391	0.496391	0.496391
0.499529	0.499529	0.499529
0.502686	0.502686	0.502686
0.505862	0.505862	0.505862
0.509056	0.509056	0.509056
0.512270	0.512270	0.512270
0.515502	0.515502	0.515502
0.518754	0.518754	0.518754
0.522025	0.522025	0.522025
0.525316	0.525316	0.525316
0.528626	0.528626	0.528626
0.531956	0.531956	0.531956
0.535306	0.535306	0.535306
0.538676	0.538676	0.538676
0.542065	0.542065	0.542065
0.545475	0.545475	0.545475
0.548905	0.548905	0.548905
0.552356	0.552356	0.552356
0.555827	0.555827	0.555827
0.559319	0.559319	0.559319
0.562831	0.562831	0.562831
0.566364	0.566364	0.566364
0.569919	0.569919	0.569919
0.573494	0.573494	0.573494
0.577091	0.577091	0.577091
0.580709	0.580709	0.580709
0.584349	0.584349	0.584349
0.588010	0.588010	0.588010
0.591694	0.591694	0.591694
0.595399	0.595399	0.595399
0.599126	0.599126	0.599126
0.602875	0.602875	0.602875
0.606647	0.606647	0.606647
0.610441	0.610441	0.610441
0.614257	0.614257	0.614257
0.618097	0.618097	0.618097
0.621959	0.621959	0.621959
0.625844	0.625844	0.625844
0.629752	0.629752	0.629752
0.633684	0.633684	0.633684
0.637638	0.637638	0.637638
0.641617	0.641617	0.641617
0.645619	0.645619	0.645619
0.649645	0.649645	0.649645
0.653694	0.653694	0.653694
0.657768	0.657768	0.657768
0.661866	0.661866	0.661866
0.665989	0.665989	0.665989
0.670136	0.670136	0.670136
0.674308	0.674308	0.674308
0.678504	0.678504	0.678504
0.682726	0.682726	0.682726
0.686972	0.686972	0.686972
0.691244	0.691244	0.691244
0.695541	0.695541	0.695541
0.699864	0.699864	0.699864
0.704213	0.704213	0.704213
0.708587	0.708587	0.708587
0.712987	0.712987	0.712987
0.717414	0.717414	0.717414
0.721867	0.721867	0.721867
0.726346	0.726346	0.726346
0.730852	0.730852	0.730852
0.735385	0.735385	0.735385
0.739945	0.739945	0.739945
0.744532	0.744532	0.744532
0.749146	0.749146	0.749146
0.753788	0.753788	0.753788
0.758457	0.758457	0.758457
0.763154	0.763154	0.763154
0.767879	0.767879	0.767879
0.772633	0.772633	0.772633
0.777414	0.777414	0.777414
0.782224	0.782224	0.782224
0.787062	0.787062	0.787062
0.791929	0.791929	0.791929
0.796826	0.796826	0.796826
0.801751	0.801751	0.801751
0.806706	0.806706	0.806706
0.811690	0.811690	0.811690
0.816703	0.816703	0.816703
0.821747	0.821747	0.821747
0.826820	0.826820	0.826820
0.831924	0.831924	0.831924
0.837058	0.837058	0.837058
0.842223	0.842223	0.842223
0.847418	0.847418	0.847418
0.852644	0.852644	0.852644
0.857902	0.857902	0.857902
0.863190	0.863190	0.863190
0.868511	0.868511	0.868511
0.873862	0.873862	0.873862
0.879246	0.879246	0.879246
0.884661	0.884661	0.884661
0.890109	0.890109	0.890109
0.895589	0.895589	0.895589
0.901102	0.901102	0.901102
0.906648	0.906648	0.906648
0.912226	0.912226	0.912226
0.917838	0.917838	0.917838
0.923483	0.923483	0.923483
0.929162	0.929162	0.929162
0.934875	0.934875	0.934875
0.940621	0.940621	0.940621
0.946402	0.946402	0.946402
0.952217	0.952217	0.952217
0.958066	0.958066	0.958066
0.963951	0.963951	0.963951
0.969870	0.969870	0.969870
0.975825	0.975825	0.975825
0.981815	0.981815	0.981815
0.987841	0.987841	0.987841
0.993902	0.993902	0.993902
1.000000	1.000000	1.000000
1.006134	1.006134	1.006134
1.012304	1.012304	1.012304
1.018511	1.018511	1.018511
1.024755	1.024755	1.024755
1.031037	1.031037	1.031037
1.037355	1.037355	1.037355
1.043711	1.043711	1.043711
1.050105	1.050105	1.050105
1.056537	1.056537	1.056537
1.063007	1.063007	1.063007
1.069516	1.069516	1.069516
1.076063	1.076063	1.076063
1.082650	1.082650	1.082650
1.089275	1.089275	1.089275
1.095940	1.095940	1.095940
1.102645	1.102645	1.102645
1.109389	1.109389	1.109389
1.116174	1.116174	1.116174
1.122999	1.122999	1.122999
1.129864	1.129864	1.129864
1.136771	1.136771	1.136771
1.143718	1.143718	1.143718
1.150707	1.150707	1.150707
1.157737	1.157737	1.157737
1.164810	1.164810	1.164810
1.171924	1.171924	1.171924
1.179080	1.179080	1.179080
1.186280	1.186280	1.186280
1.193522	1.193522	1.193522
1.200807	1.200807	1.200807
1.208135	1.208135	1.208135
1.215507	1.215507	1.215507
1.222923	1.222923	1.222923
1.230383	1.230383	1.230383
1.237887	1.237887	1.237887
1.245436	1.245436	1.245436
1.253030	1.253030	1.253030
1.260669	1.260669	1.260669
1.268354	1.268354	1.268354
1.276084	1.276084	1.276084
1.283860	1.283860	1.283860
1.291682	1.291682	1.291682
1.299551	1.299551	1.299551
1.307467	1.307467	1.307467
1.315430	1.315430	1.315430
1.323440	1.323440	1.323440
1.331498	1.331498	1.331498
1.339604	1.339604	1.339604
1.347758	1.347758	1.347758
1.355960	1.355960	1.355960
1.364212	1.364212	1.364212
1.372512	1.372512	1.372512
1.380862	1.380862	1.380862
1.389261	1.389261	1.389261
1.397711	1.397711	1.397711
1.406211	1.406211	1.406211
1.414761	1.414761	1.414761
1.423362	1.423362	1.423362
1.432014	1.432014	1.432014
1.440718	1.440718	1.440718
1.449473	1.449473	1.449473
1.458281	1.458281	1.458281
1.467141	1.467141	1.467141
1.476054	1.476054	1.476054
1.485019	1.485019	1.485019
1.494039	1.494039	1.494039
1.503111	1.503111	1.503111
1.512238	1.512238	1.512238
1.521419	1.521419	1.521419
1.530654	1.530654	1.530654
1.539945	1.539945	1.539945
1.549291	1.549291	1.549291
1.558692	1.558692	1.558692
1.568149	1.568149	1.568149
1.577663	1.577663	1.577663
1.587233	1.587233	1.587233
1.596860	1.596860	1.596860
1.606544	1.606544	1.606544
1.616286	1.616286	1.616286
1.626086	1.626086	1.626086
1.635944	1.635944	1.635944
1.645861	1.645861	1.645861
1.655837	1.655837	1.655837
1.665872	1.665872	1.665872
1.675967	1.675967	1.675967
1.686122	1.686122	1.686122
1.696337	1.696337	1.696337
1.706613	1.706613	1.706613
1.716951	1.716951	1.716951
1.727349	1.727349	1.727349
1.737810	1.737810	1.737810
1.748333	1.748333	1.748333
1.758918	1.758918	1.758918
1.769566	1.769566	1.769566
1.780278	1.780278	1.780278
1.791053	1.791053	1.791053
1.801893	1.801893	1.801893
1.812797	1.812797	1.812797
1.823766	1.823766	1.823766
1.834800	1.834800	1.834800
1.845899	1.845899	1.845899
1.857065	1.857065	1.857065
1.868297	1.868297	1.868297
1.879596	1.879596	1.879596
1.890962	1.890962	1.890962
1.902396	1.902396	1.902396
1.913898	1.913898	1.913898
1.925468	1.925468	1.925468
1.937107	1.937107	1.937107
1.948816	1.948816	1.948816
1.960594	1.960594	1.960594
1.972442	1.972442	1.972442
1.984360	1.984360	1.984360
1.996350	1.996350	1.996350
2.008410	2.008410	2.008410
2.020543	2.020543	2.020543
2.032747	2.032747	2.032747
2.045025	2.045025	2.045025
2.057375	2.057375	2.057375
2.069798	2.069798	2.069798
2.082296	2.082296	2.082296
2.094868	2.094868	2.094868
2.107515	2.107515	2.107515
2.120237	2.120237	2.120237
2.133034	2.133034	2.133034
2.145908	2.145908	2.145908
2.158859	2.158859	2.158859
2.171886	2.171886	2.171886
2.184991	2.184991	2.184991
2.198174	2.198174	2.198174
2.211435	2.211435	2.211435
2.224775	2.224775	2.224775
2.238195	2.238195	2.238195
2.251694	2.251694	2.251694
2.265274	2.265274	2.265274
2.278934	2.278934	2.278934
2.292676	2.292676	2.292676
2.306499	2.306499	2.306499
2.320405	2.320405	2.320405
2.334393	2.334393	2.334393
2.348465	2.348465	2.348465
2.362620	2.362620	2.362620
2.376859	2.376859	2.376859
2.391183	2.391183	2.391183
2.405593	2.405593	2.405593
2.420088	2.420088	2.420088
2.434669	2.434669	2.434669
2.449337	2.449337	2.449337
2.464093	2.464093	2.464093
2.478936	2.478936	2.478936
2.493867	2.493867	2.493867
2.508887	2.508887	2.508887
2.523997	2.523997	2.523997
2.539196	2.539196	2.539196
2.554486	2.554486	2.554486
2.569867	2.569867	2.569867
2.585339	2.585339	2.585339
2.600903	2.600903	2.600903
2.616560	2.616560	2.616560
2.632310	2.632310	2.632310
2.648154	2.648154	2.648154
2.664092	2.664092	2.664092
2.680125	2.680125	2.680125
2.696253	2.696253	2.696253
2.712477	2.712477	2.712477
2.728798	2.728798	2.728798
2.745215	2.745215	2.745215
2.761731	2.761731	2.761731
2.778344	2.778344	2.778344
2.795057	2.795057	2.795057
2.811869	2.811869	2.811869
2.828780	2.828780	2.828780
2.845793	2.845793	2.845793
2.862907	2.862907	2.862907
2.880122	2.880122	2.880122
2.897440	2.897440	2.897440
2.914861	2.914861	2.914861
2.932385	2.932385	2.932385
2.950014	2.950014	2.950014
2.967747	2.967747	2.967747
2.985587	2.985587	2.985587
3.003532	3.003532	3.003532
3.021584	3.021584	3.021584
3.039743	3.039743	3.039743
3.058010	3.058010	3.058010
3.076386	3.076386	3.076386
3.094872	3.094872	3.094872
3.113467	3.113467	3.113467
3.132173	3.132173	3.132173
