Vibe/Lumetri/LUTs/Legacy/Panalog4_to_Linear.cube
TITLE "Panalog4 to Linear (Column C)"
LUT_1D_SIZE 1024
0.00000	0.00000	0.00000
0.00000	0.00000	0.00000
0.00000	0.00000	0.00000
0.00000	0.00000	0.00000
0.00000	0.00000	0.00000
0.00000	0.00000	0.00000
0.00000	0.00000	0.00000
0.00000	0.00000	0.00000
0.00000	0.00000	0.00000
0.00000	0.00000	0.00000
0.00000	0.00000	0.00000
0.00000	0.00000	0.00000
0.00000	0.00000	0.00000
0.00000	0.00000	0.00000
0.00000	0.00000	0.00000
0.00000	0.00000	0.00000
0.00000	0.00000	0.00000
0.00000	0.00000	0.00000
0.00000	0.00000	0.00000
0.00000	0.00000	0.00000
0.00000	0.00000	0.00000
0.00000	0.00000	0.00000
0.00000	0.00000	0.00000
0.00000	0.00000	0.00000
0.00000	0.00000	0.00000
0.00000	0.00000	0.00000
0.00000	0.00000	0.00000
0.00000	0.00000	0.00000
0.00000	0.00000	0.00000
0.00000	0.00000	0.00000
0.00000	0.00000	0.00000
0.00000	0.00000	0.00000
0.00000	0.00000	0.00000
0.00000	0.00000	0.00000
0.00000	0.00000	0.00000
0.00000	0.00000	0.00000
0.00000	0.00000	0.00000
0.00000	0.00000	0.00000
0.00000	0.00000	0.00000
0.00000	0.00000	0.00000
0.00000	0.00000	0.00000
0.00000	0.00000	0.00000
0.00000	0.00000	0.00000
0.00000	0.00000	0.00000
0.00000	0.00000	0.00000
0.00000	0.00000	0.00000
0.00000	0.00000	0.00000
0.00000	0.00000	0.00000
0.00000	0.00000	0.00000
0.00000	0.00000	0.00000
0.00000	0.00000	0.00000
0.00000	0.00000	0.00000
0.00000	0.00000	0.00000
0.00000	0.00000	0.00000
0.00000	0.00000	0.00000
0.00000	0.00000	0.00000
0.00000	0.00000	0.00000
0.00000	0.00000	0.00000
0.00000	0.00000	0.00000
0.00000	0.00000	0.00000
0.00000	0.00000	0.00000
0.00000	0.00000	0.00000
0.00000	0.00000	0.00000
0.00000	0.00000	0.00000
0.00000	0.00000	0.00000
0.00022	0.00022	0.00022
0.00045	0.00045	0.00045
0.00067	0.00067	0.00067
0.00090	0.00090	0.00090
0.00112	0.00112	0.00112
0.00135	0.00135	0.00135
0.00158	0.00158	0.00158
0.00181	0.00181	0.00181
0.00204	0.00204	0.00204
0.00228	0.00228	0.00228
0.00251	0.00251	0.00251
0.00275	0.00275	0.00275
0.00298	0.00298	0.00298
0.00322	0.00322	0.00322
0.00346	0.00346	0.00346
0.00370	0.00370	0.00370
0.00394	0.00394	0.00394
0.00418	0.00418	0.00418
0.00443	0.00443	0.00443
0.00467	0.00467	0.00467
0.00492	0.00492	0.00492
0.00517	0.00517	0.00517
0.00542	0.00542	0.00542
0.00567	0.00567	0.00567
0.00592	0.00592	0.00592
0.00617	0.00617	0.00617
0.00643	0.00643	0.00643
0.00668	0.00668	0.00668
0.00694	0.00694	0.00694
0.00720	0.00720	0.00720
0.00746	0.00746	0.00746
0.00772	0.00772	0.00772
0.00798	0.00798	0.00798
0.00825	0.00825	0.00825
0.00851	0.00851	0.00851
0.00878	0.00878	0.00878
0.00904	0.00904	0.00904
0.00931	0.00931	0.00931
0.00958	0.00958	0.00958
0.00986	0.00986	0.00986
0.01013	0.01013	0.01013
0.01041	0.01041	0.01041
0.01068	0.01068	0.01068
0.01096	0.01096	0.01096
0.01124	0.01124	0.01124
0.01152	0.01152	0.01152
0.01180	0.01180	0.01180
0.01209	0.01209	0.01209
0.01237	0.01237	0.01237
0.01266	0.01266	0.01266
0.01295	0.01295	0.01295
0.01324	0.01324	0.01324
0.01353	0.01353	0.01353
0.01382	0.01382	0.01382
0.01411	0.01411	0.01411
0.01441	0.01441	0.01441
0.01471	0.01471	0.01471
0.01501	0.01501	0.01501
0.01531	0.01531	0.01531
0.01561	0.01561	0.01561
0.01591	0.01591	0.01591
0.01622	0.01622	0.01622
0.01652	0.01652	0.01652
0.01683	0.01683	0.01683
0.01714	0.01714	0.01714
0.01745	0.01745	0.01745
0.01776	0.01776	0.01776
0.01808	0.01808	0.01808
0.01840	0.01840	0.01840
0.01871	0.01871	0.01871
0.01903	0.01903	0.01903
0.01935	0.01935	0.01935
0.01968	0.01968	0.01968
0.02000	0.02000	0.02000
0.02033	0.02033	0.02033
0.02066	0.02066	0.02066
0.02099	0.02099	0.02099
0.02132	0.02132	0.02132
0.02165	0.02165	0.02165
0.02199	0.02199	0.02199
0.02232	0.02232	0.02232
0.02266	0.02266	0.02266
0.02300	0.02300	0.02300
0.02334	0.02334	0.02334
0.02369	0.02369	0.02369
0.02403	0.02403	0.02403
0.02438	0.02438	0.02438
0.02473	0.02473	0.02473
0.02508	0.02508	0.02508
0.02543	0.02543	0.02543
0.02579	0.02579	0.02579
0.02614	0.02614	0.02614
0.02650	0.02650	0.02650
0.02686	0.02686	0.02686
0.02722	0.02722	0.02722
0.02759	0.02759	0.02759
0.02795	0.02795	0.02795
0.02832	0.02832	0.02832
0.02869	0.02869	0.02869
0.02906	0.02906	0.02906
0.02943	0.02943	0.02943
0.02981	0.02981	0.02981
0.03019	0.03019	0.03019
0.03057	0.03057	0.03057
0.03095	0.03095	0.03095
0.03133	0.03133	0.03133
0.03172	0.03172	0.03172
0.03210	0.03210	0.03210
0.03249	0.03249	0.03249
0.03288	0.03288	0.03288
0.03328	0.03328	0.03328
0.03367	0.03367	0.03367
0.03407	0.03407	0.03407
0.03447	0.03447	0.03447
0.03487	0.03487	0.03487
0.03527	0.03527	0.03527
0.03568	0.03568	0.03568
0.03609	0.03609	0.03609
0.03650	0.03650	0.03650
0.03691	0.03691	0.03691
0.03732	0.03732	0.03732
0.03774	0.03774	0.03774
0.03816	0.03816	0.03816
0.03858	0.03858	0.03858
0.03900	0.03900	0.03900
0.03943	0.03943	0.03943
0.03985	0.03985	0.03985
0.04028	0.04028	0.04028
0.04071	0.04071	0.04071
0.04115	0.04115	0.04115
0.04158	0.04158	0.04158
0.04202	0.04202	0.04202
0.04246	0.04246	0.04246
0.04291	0.04291	0.04291
0.04335	0.04335	0.04335
0.04380	0.04380	0.04380
0.04425	0.04425	0.04425
0.04470	0.04470	0.04470
0.04516	0.04516	0.04516
0.04561	0.04561	0.04561
0.04607	0.04607	0.04607
0.04654	0.04654	0.04654
0.04700	0.04700	0.04700
0.04747	0.04747	0.04747
0.04793	0.04793	0.04793
0.04841	0.04841	0.04841
0.04888	0.04888	0.04888
0.04936	0.04936	0.04936
0.04984	0.04984	0.04984
0.05032	0.05032	0.05032
0.05080	0.05080	0.05080
0.05129	0.05129	0.05129
0.05178	0.05178	0.05178
0.05227	0.05227	0.05227
0.05276	0.05276	0.05276
0.05326	0.05326	0.05326
0.05376	0.05376	0.05376
0.05426	0.05426	0.05426
0.05476	0.05476	0.05476
0.05527	0.05527	0.05527
0.05578	0.05578	0.05578
0.05629	0.05629	0.05629
0.05681	0.05681	0.05681
0.05732	0.05732	0.05732
0.05784	0.05784	0.05784
0.05837	0.05837	0.05837
0.05889	0.05889	0.05889
0.05942	0.05942	0.05942
0.05995	0.05995	0.05995
0.06049	0.06049	0.06049
0.06102	0.06102	0.06102
0.06156	0.06156	0.06156
0.06211	0.06211	0.06211
0.06265	0.06265	0.06265
0.06320	0.06320	0.06320
0.06375	0.06375	0.06375
0.06430	0.06430	0.06430
0.06486	0.06486	0.06486
0.06542	0.06542	0.06542
0.06598	0.06598	0.06598
0.06655	0.06655	0.06655
0.06711	0.06711	0.06711
0.06769	0.06769	0.06769
0.06826	0.06826	0.06826
0.06884	0.06884	0.06884
0.06942	0.06942	0.06942
0.07000	0.07000	0.07000
0.07059	0.07059	0.07059
0.07118	0.07118	0.07118
0.07177	0.07177	0.07177
0.07236	0.07236	0.07236
0.07296	0.07296	0.07296
0.07356	0.07356	0.07356
0.07417	0.07417	0.07417
0.07478	0.07478	0.07478
0.07539	0.07539	0.07539
0.07600	0.07600	0.07600
0.07662	0.07662	0.07662
0.07724	0.07724	0.07724
0.07786	0.07786	0.07786
0.07849	0.07849	0.07849
0.07912	0.07912	0.07912
0.07975	0.07975	0.07975
0.08039	0.08039	0.08039
0.08103	0.08103	0.08103
0.08167	0.08167	0.08167
0.08232	0.08232	0.08232
0.08297	0.08297	0.08297
0.08362	0.08362	0.08362
0.08428	0.08428	0.08428
0.08494	0.08494	0.08494
0.08561	0.08561	0.08561
0.08627	0.08627	0.08627
0.08694	0.08694	0.08694
0.08762	0.08762	0.08762
0.08830	0.08830	0.08830
0.08898	0.08898	0.08898
0.08966	0.08966	0.08966
0.09035	0.09035	0.09035
0.09104	0.09104	0.09104
0.09174	0.09174	0.09174
0.09244	0.09244	0.09244
0.09314	0.09314	0.09314
0.09385	0.09385	0.09385
0.09456	0.09456	0.09456
0.09527	0.09527	0.09527
0.09599	0.09599	0.09599
0.09671	0.09671	0.09671
0.09743	0.09743	0.09743
0.09816	0.09816	0.09816
0.09889	0.09889	0.09889
0.09963	0.09963	0.09963
0.10037	0.10037	0.10037
0.10111	0.10111	0.10111
0.10186	0.10186	0.10186
0.10261	0.10261	0.10261
0.10337	0.10337	0.10337
0.10413	0.10413	0.10413
0.10489	0.10489	0.10489
0.10566	0.10566	0.10566
0.10643	0.10643	0.10643
0.10721	0.10721	0.10721
0.10799	0.10799	0.10799
0.10877	0.10877	0.10877
0.10956	0.10956	0.10956
0.11035	0.11035	0.11035
0.11115	0.11115	0.11115
0.11195	0.11195	0.11195
0.11275	0.11275	0.11275
0.11356	0.11356	0.11356
0.11437	0.11437	0.11437
0.11519	0.11519	0.11519
0.11601	0.11601	0.11601
0.11683	0.11683	0.11683
0.11766	0.11766	0.11766
0.11850	0.11850	0.11850
0.11934	0.11934	0.11934
0.12018	0.12018	0.12018
0.12102	0.12102	0.12102
0.12188	0.12188	0.12188
0.12273	0.12273	0.12273
0.12359	0.12359	0.12359
0.12446	0.12446	0.12446
0.12533	0.12533	0.12533
0.12620	0.12620	0.12620
0.12708	0.12708	0.12708
0.12796	0.12796	0.12796
0.12885	0.12885	0.12885
0.12974	0.12974	0.12974
0.13064	0.13064	0.13064
0.13154	0.13154	0.13154
0.13244	0.13244	0.13244
0.13335	0.13335	0.13335
0.13427	0.13427	0.13427
0.13519	0.13519	0.13519
0.13612	0.13612	0.13612
0.13705	0.13705	0.13705
0.13798	0.13798	0.13798
0.13892	0.13892	0.13892
0.13986	0.13986	0.13986
0.14081	0.14081	0.14081
0.14177	0.14177	0.14177
0.14273	0.14273	0.14273
0.14369	0.14369	0.14369
0.14466	0.14466	0.14466
0.14563	0.14563	0.14563
0.14661	0.14661	0.14661
0.14760	0.14760	0.14760
0.14859	0.14859	0.14859
0.14958	0.14958	0.14958
0.15058	0.15058	0.15058
0.15159	0.15159	0.15159
0.15260	0.15260	0.15260
0.15361	0.15361	0.15361
0.15463	0.15463	0.15463
0.15566	0.15566	0.15566
0.15669	0.15669	0.15669
0.15773	0.15773	0.15773
0.15877	0.15877	0.15877
0.15982	0.15982	0.15982
0.16087	0.16087	0.16087
0.16193	0.16193	0.16193
0.16299	0.16299	0.16299
0.16406	0.16406	0.16406
0.16514	0.16514	0.16514
0.16622	0.16622	0.16622
0.16730	0.16730	0.16730
0.16839	0.16839	0.16839
0.16949	0.16949	0.16949
0.17059	0.17059	0.17059
0.17170	0.17170	0.17170
0.17282	0.17282	0.17282
0.17394	0.17394	0.17394
0.17507	0.17507	0.17507
0.17620	0.17620	0.17620
0.17734	0.17734	0.17734
0.17848	0.17848	0.17848
0.17963	0.17963	0.17963
0.18079	0.18079	0.18079
0.18195	0.18195	0.18195
0.18312	0.18312	0.18312
0.18429	0.18429	0.18429
0.18547	0.18547	0.18547
0.18666	0.18666	0.18666
0.18785	0.18785	0.18785
0.18905	0.18905	0.18905
0.19025	0.19025	0.19025
0.19146	0.19146	0.19146
0.19268	0.19268	0.19268
0.19390	0.19390	0.19390
0.19513	0.19513	0.19513
0.19637	0.19637	0.19637
0.19761	0.19761	0.19761
0.19886	0.19886	0.19886
0.20012	0.20012	0.20012
0.20138	0.20138	0.20138
0.20265	0.20265	0.20265
0.20393	0.20393	0.20393
0.20521	0.20521	0.20521
0.20650	0.20650	0.20650
0.20779	0.20779	0.20779
0.20910	0.20910	0.20910
0.21040	0.21040	0.21040
0.21172	0.21172	0.21172
0.21304	0.21304	0.21304
0.21437	0.21437	0.21437
0.21571	0.21571	0.21571
0.21705	0.21705	0.21705
0.21840	0.21840	0.21840
0.21976	0.21976	0.21976
0.22112	0.22112	0.22112
0.22250	0.22250	0.22250
0.22387	0.22387	0.22387
0.22526	0.22526	0.22526
0.22665	0.22665	0.22665
0.22805	0.22805	0.22805
0.22946	0.22946	0.22946
0.23088	0.23088	0.23088
0.23230	0.23230	0.23230
0.23373	0.23373	0.23373
0.23517	0.23517	0.23517
0.23661	0.23661	0.23661
0.23806	0.23806	0.23806
0.23952	0.23952	0.23952
0.24099	0.24099	0.24099
0.24246	0.24246	0.24246
0.24395	0.24395	0.24395
0.24544	0.24544	0.24544
0.24693	0.24693	0.24693
0.24844	0.24844	0.24844
0.24995	0.24995	0.24995
0.25148	0.25148	0.25148
0.25300	0.25300	0.25300
0.25454	0.25454	0.25454
0.25609	0.25609	0.25609
0.25764	0.25764	0.25764
0.25920	0.25920	0.25920
0.26077	0.26077	0.26077
0.26235	0.26235	0.26235
0.26393	0.26393	0.26393
0.26553	0.26553	0.26553
0.26713	0.26713	0.26713
0.26874	0.26874	0.26874
0.27036	0.27036	0.27036
0.27199	0.27199	0.27199
0.27362	0.27362	0.27362
0.27527	0.27527	0.27527
0.27692	0.27692	0.27692
0.27858	0.27858	0.27858
0.28025	0.28025	0.28025
0.28193	0.28193	0.28193
0.28362	0.28362	0.28362
0.28532	0.28532	0.28532
0.28702	0.28702	0.28702
0.28874	0.28874	0.28874
0.29046	0.29046	0.29046
0.29219	0.29219	0.29219
0.29393	0.29393	0.29393
0.29568	0.29568	0.29568
0.29744	0.29744	0.29744
0.29921	0.29921	0.29921
0.30099	0.30099	0.30099
0.30277	0.30277	0.30277
0.30457	0.30457	0.30457
0.30637	0.30637	0.30637
0.30819	0.30819	0.30819
0.31001	0.31001	0.31001
0.31185	0.31185	0.31185
0.31369	0.31369	0.31369
0.31554	0.31554	0.31554
0.31740	0.31740	0.31740
0.31928	0.31928	0.31928
0.32116	0.32116	0.32116
0.32305	0.32305	0.32305
0.32495	0.32495	0.32495
0.32686	0.32686	0.32686
0.32878	0.32878	0.32878
0.33071	0.33071	0.33071
0.33266	0.33266	0.33266
0.33461	0.33461	0.33461
0.33657	0.33657	0.33657
0.33854	0.33854	0.33854
0.34052	0.34052	0.34052
0.34251	0.34251	0.34251
0.34452	0.34452	0.34452
0.34653	0.34653	0.34653
0.34855	0.34855	0.34855
0.35059	0.35059	0.35059
0.35263	0.35263	0.35263
0.35469	0.35469	0.35469
0.35675	0.35675	0.35675
0.35883	0.35883	0.35883
0.36092	0.36092	0.36092
0.36301	0.36301	0.36301
0.36512	0.36512	0.36512
0.36724	0.36724	0.36724
0.36937	0.36937	0.36937
0.37152	0.37152	0.37152
0.37367	0.37367	0.37367
0.37583	0.37583	0.37583
0.37801	0.37801	0.37801
0.38020	0.38020	0.38020
0.38239	0.38239	0.38239
0.38460	0.38460	0.38460
0.38683	0.38683	0.38683
0.38906	0.38906	0.38906
0.39130	0.39130	0.39130
0.39356	0.39356	0.39356
0.39583	0.39583	0.39583
0.39811	0.39811	0.39811
0.40040	0.40040	0.40040
0.40270	0.40270	0.40270
0.40502	0.40502	0.40502
0.40734	0.40734	0.40734
0.40968	0.40968	0.40968
0.41203	0.41203	0.41203
0.41440	0.41440	0.41440
0.41677	0.41677	0.41677
0.41916	0.41916	0.41916
0.42156	0.42156	0.42156
0.42398	0.42398	0.42398
0.42640	0.42640	0.42640
0.42884	0.42884	0.42884
0.43129	0.43129	0.43129
0.43376	0.43376	0.43376
0.43623	0.43623	0.43623
0.43872	0.43872	0.43872
0.44122	0.44122	0.44122
0.44374	0.44374	0.44374
0.44627	0.44627	0.44627
0.44881	0.44881	0.44881
0.45137	0.45137	0.45137
0.45393	0.45393	0.45393
0.45652	0.45652	0.45652
0.45911	0.45911	0.45911
0.46172	0.46172	0.46172
0.46434	0.46434	0.46434
0.46698	0.46698	0.46698
0.46963	0.46963	0.46963
0.47229	0.47229	0.47229
0.47497	0.47497	0.47497
0.47766	0.47766	0.47766
0.48036	0.48036	0.48036
0.48308	0.48308	0.48308
0.48581	0.48581	0.48581
0.48856	0.48856	0.48856
0.49132	0.49132	0.49132
0.49410	0.49410	0.49410
0.49689	0.49689	0.49689
0.49969	0.49969	0.49969
0.50251	0.50251	0.50251
0.50535	0.50535	0.50535
0.50820	0.50820	0.50820
0.51106	0.51106	0.51106
0.51394	0.51394	0.51394
0.51683	0.51683	0.51683
0.51974	0.51974	0.51974
0.52266	0.52266	0.52266
0.52560	0.52560	0.52560
0.52856	0.52856	0.52856
0.53153	0.53153	0.53153
0.53451	0.53451	0.53451
0.53751	0.53751	0.53751
0.54053	0.54053	0.54053
0.54356	0.54356	0.54356
0.54661	0.54661	0.54661
0.54967	0.54967	0.54967
0.55275	0.55275	0.55275
0.55584	0.55584	0.55584
0.55895	0.55895	0.55895
0.56208	0.56208	0.56208
0.56523	0.56523	0.56523
0.56839	0.56839	0.56839
0.57156	0.57156	0.57156
0.57475	0.57475	0.57475
0.57796	0.57796	0.57796
0.58119	0.58119	0.58119
0.58443	0.58443	0.58443
0.58769	0.58769	0.58769
0.59097	0.59097	0.59097
0.59426	0.59426	0.59426
0.59757	0.59757	0.59757
0.60090	0.60090	0.60090
0.60425	0.60425	0.60425
0.60761	0.60761	0.60761
0.61099	0.61099	0.61099
0.61439	0.61439	0.61439
0.61780	0.61780	0.61780
0.62124	0.62124	0.62124
0.62469	0.62469	0.62469
0.62816	0.62816	0.62816
0.63164	0.63164	0.63164
0.63515	0.63515	0.63515
0.63867	0.63867	0.63867
0.64221	0.64221	0.64221
0.64577	0.64577	0.64577
0.64935	0.64935	0.64935
0.65295	0.65295	0.65295
0.65657	0.65657	0.65657
0.66020	0.66020	0.66020
0.66385	0.66385	0.66385
0.66753	0.66753	0.66753
0.67122	0.67122	0.67122
0.67493	0.67493	0.67493
0.67866	0.67866	0.67866
0.68241	0.68241	0.68241
0.68618	0.68618	0.68618
0.68997	0.68997	0.68997
0.69378	0.69378	0.69378
0.69760	0.69760	0.69760
0.70145	0.70145	0.70145
0.70532	0.70532	0.70532
0.70921	0.70921	0.70921
0.71312	0.71312	0.71312
0.71704	0.71704	0.71704
0.72099	0.72099	0.72099
0.72496	0.72496	0.72496
0.72895	0.72895	0.72895
0.73296	0.73296	0.73296
0.73700	0.73700	0.73700
0.74105	0.74105	0.74105
0.74512	0.74512	0.74512
0.74922	0.74922	0.74922
0.75333	0.75333	0.75333
0.75747	0.75747	0.75747
0.76163	0.76163	0.76163
0.76581	0.76581	0.76581
0.77001	0.77001	0.77001
0.77424	0.77424	0.77424
0.77848	0.77848	0.77848
0.78275	0.78275	0.78275
0.78704	0.78704	0.78704
0.79136	0.79136	0.79136
0.79569	0.79569	0.79569
0.80005	0.80005	0.80005
0.80443	0.80443	0.80443
0.80883	0.80883	0.80883
0.81326	0.81326	0.81326
0.81771	0.81771	0.81771
0.82218	0.82218	0.82218
0.82668	0.82668	0.82668
0.83119	0.83119	0.83119
0.83574	0.83574	0.83574
0.84030	0.84030	0.84030
0.84489	0.84489	0.84489
0.84951	0.84951	0.84951
0.85414	0.85414	0.85414
0.85880	0.85880	0.85880
0.86349	0.86349	0.86349
0.86820	0.86820	0.86820
0.87294	0.87294	0.87294
0.87769	0.87769	0.87769
0.88248	0.88248	0.88248
0.88729	0.88729	0.88729
0.89212	0.89212	0.89212
0.89698	0.89698	0.89698
0.90186	0.90186	0.90186
0.90677	0.90677	0.90677
0.91171	0.91171	0.91171
0.91667	0.91667	0.91667
0.92166	0.92166	0.92166
0.92667	0.92667	0.92667
0.93171	0.93171	0.93171
0.93677	0.93677	0.93677
0.94186	0.94186	0.94186
0.94698	0.94698	0.94698
0.95212	0.95212	0.95212
0.95730	0.95730	0.95730
0.96249	0.96249	0.96249
0.96772	0.96772	0.96772
0.97297	0.97297	0.97297
0.97825	0.97825	0.97825
0.98356	0.98356	0.98356
0.98889	0.98889	0.98889
0.99425	0.99425	0.99425
0.99964	0.99964	0.99964
1.00506	1.00506	1.00506
1.01050	1.01050	1.01050
1.01598	1.01598	1.01598
1.02148	1.02148	1.02148
1.02701	1.02701	1.02701
1.03257	1.03257	1.03257
1.03816	1.03816	1.03816
1.04378	1.04378	1.04378
1.04943	1.04943	1.04943
1.05510	1.05510	1.05510
1.06081	1.06081	1.06081
1.06655	1.06655	1.06655
1.07231	1.07231	1.07231
1.07811	1.07811	1.07811
1.08393	1.08393	1.08393
1.08979	1.08979	1.08979
1.09567	1.09567	1.09567
1.10159	1.10159	1.10159
1.10754	1.10754	1.10754
1.11352	1.11352	1.11352
1.11953	1.11953	1.11953
1.12557	1.12557	1.12557
1.13164	1.13164	1.13164
1.13774	1.13774	1.13774
1.14388	1.14388	1.14388
1.15005	1.15005	1.15005
1.15625	1.15625	1.15625
1.16248	1.16248	1.16248
1.16874	1.16874	1.16874
1.17504	1.17504	1.17504
1.18137	1.18137	1.18137
1.18773	1.18773	1.18773
1.19413	1.19413	1.19413
1.20055	1.20055	1.20055
1.20702	1.20702	1.20702
1.21351	1.21351	1.21351
1.22004	1.22004	1.22004
1.22660	1.22660	1.22660
1.23320	1.23320	1.23320
1.23983	1.23983	1.23983
1.24650	1.24650	1.24650
1.25320	1.25320	1.25320
1.25994	1.25994	1.25994
1.26671	1.26671	1.26671
1.27351	1.27351	1.27351
1.28035	1.28035	1.28035
1.28723	1.28723	1.28723
1.29414	1.29414	1.29414
1.30109	1.30109	1.30109
1.30807	1.30807	1.30807
1.31510	1.31510	1.31510
1.32215	1.32215	1.32215
1.32925	1.32925	1.32925
1.33638	1.33638	1.33638
1.34355	1.34355	1.34355
1.35075	1.35075	1.35075
1.35799	1.35799	1.35799
1.36527	1.36527	1.36527
1.37259	1.37259	1.37259
1.37995	1.37995	1.37995
1.38734	1.38734	1.38734
1.39477	1.39477	1.39477
1.40225	1.40225	1.40225
1.40976	1.40976	1.40976
1.41731	1.41731	1.41731
1.42489	1.42489	1.42489
1.43252	1.43252	1.43252
1.44019	1.44019	1.44019
1.44790	1.44790	1.44790
1.45564	1.45564	1.45564
1.46343	1.46343	1.46343
1.47126	1.47126	1.47126
1.47913	1.47913	1.47913
1.48704	1.48704	1.48704
1.49499	1.49499	1.49499
1.50298	1.50298	1.50298
1.51102	1.51102	1.51102
1.51909	1.51909	1.51909
1.52721	1.52721	1.52721
1.53537	1.53537	1.53537
1.54357	1.54357	1.54357
1.55182	1.55182	1.55182
1.56010	1.56010	1.56010
1.56843	1.56843	1.56843
1.57681	1.57681	1.57681
1.58522	1.58522	1.58522
1.59369	1.59369	1.59369
1.60219	1.60219	1.60219
1.61074	1.61074	1.61074
1.61933	1.61933	1.61933
1.62797	1.62797	1.62797
1.63666	1.63666	1.63666
1.64538	1.64538	1.64538
1.65416	1.65416	1.65416
1.66298	1.66298	1.66298
1.67184	1.67184	1.67184
1.68075	1.68075	1.68075
1.68971	1.68971	1.68971
1.69872	1.69872	1.69872
1.70777	1.70777	1.70777
1.71687	1.71687	1.71687
1.72601	1.72601	1.72601
1.73520	1.73520	1.73520
1.74445	1.74445	1.74445
1.75373	1.75373	1.75373
1.76307	1.76307	1.76307
1.77246	1.77246	1.77246
1.78189	1.78189	1.78189
1.79137	1.79137	1.79137
1.80091	1.80091	1.80091
1.81049	1.81049	1.81049
1.82012	1.82012	1.82012
1.82980	1.82980	1.82980
1.83954	1.83954	1.83954
1.84932	1.84932	1.84932
1.85915	1.85915	1.85915
1.86904	1.86904	1.86904
1.87897	1.87897	1.87897
1.88896	1.88896	1.88896
1.89900	1.89900	1.89900
1.90909	1.90909	1.90909
1.91924	1.91924	1.91924
1.92943	1.92943	1.92943
1.93968	1.93968	1.93968
1.94999	1.94999	1.94999
1.96034	1.96034	1.96034
1.97076	1.97076	1.97076
1.98122	1.98122	1.98122
1.99174	1.99174	1.99174
2.00231	2.00231	2.00231
2.01294	2.01294	2.01294
2.02363	2.02363	2.02363
2.03437	2.03437	2.03437
2.04516	2.04516	2.04516
2.05601	2.05601	2.05601
2.06692	2.06692	2.06692
2.07789	2.07789	2.07789
2.08891	2.08891	2.08891
2.09999	2.09999	2.09999
2.11112	2.11112	2.11112
2.12232	2.12232	2.12232
2.13357	2.13357	2.13357
2.14488	2.14488	2.14488
2.15625	2.15625	2.15625
2.16768	2.16768	2.16768
2.17917	2.17917	2.17917
2.19072	2.19072	2.19072
2.20233	2.20233	2.20233
2.21399	2.21399	2.21399
2.22572	2.22572	2.22572
2.23751	2.23751	2.23751
2.24936	2.24936	2.24936
2.26128	2.26128	2.26128
2.27325	2.27325	2.27325
2.28529	2.28529	2.28529
2.29739	2.29739	2.29739
2.30955	2.30955	2.30955
2.32178	2.32178	2.32178
2.33407	2.33407	2.33407
2.34642	2.34642	2.34642
2.35884	2.35884	2.35884
2.37132	2.37132	2.37132
2.38387	2.38387	2.38387
2.39648	2.39648	2.39648
2.40916	2.40916	2.40916
2.42190	2.42190	2.42190
2.43471	2.43471	2.43471
2.44758	2.44758	2.44758
2.46053	2.46053	2.46053
2.47354	2.47354	2.47354
2.48662	2.48662	2.48662
2.49976	2.49976	2.49976
2.51298	2.51298	2.51298
2.52626	2.52626	2.52626
2.53961	2.53961	2.53961
2.55303	2.55303	2.55303
2.56652	2.56652	2.56652
2.58009	2.58009	2.58009
2.59372	2.59372	2.59372
2.60742	2.60742	2.60742
2.62119	2.62119	2.62119
2.63504	2.63504	2.63504
2.64896	2.64896	2.64896
2.66295	2.66295	2.66295
2.67701	2.67701	2.67701
2.69114	2.69114	2.69114
2.70535	2.70535	2.70535
2.71964	2.71964	2.71964
2.73399	2.73399	2.73399
2.74843	2.74843	2.74843
2.76293	2.76293	2.76293
2.77751	2.77751	2.77751
2.79217	2.79217	2.79217
2.80691	2.80691	2.80691
2.82172	2.82172	2.82172
2.83660	2.83660	2.83660
2.85157	2.85157	2.85157
2.86661	2.86661	2.86661
2.88173	2.88173	2.88173
2.89693	2.89693	2.89693
2.91221	2.91221	2.91221
2.92757	2.92757	2.92757
2.94301	2.94301	2.94301
2.95852	2.95852	2.95852
2.97412	2.97412	2.97412
2.98980	2.98980	2.98980
3.00556	3.00556	3.00556
3.02141	3.02141	3.02141
3.03733	3.03733	3.03733
3.05334	3.05334	3.05334
3.06943	3.06943	3.06943
3.08561	3.08561	3.08561
3.10187	3.10187	3.10187
3.11821	3.11821	3.11821
3.13464	3.13464	3.13464
3.15115	3.15115	3.15115
3.16775	3.16775	3.16775
3.18444	3.18444	3.18444
3.20121	3.20121	3.20121
3.21807	3.21807	3.21807
3.23502	3.23502	3.23502
3.25205	3.25205	3.25205
3.26918	3.26918	3.26918
3.28639	3.28639	3.28639
3.30370	3.30370	3.30370
3.32109	3.32109	3.32109
3.33857	3.33857	3.33857
3.35614	3.35614	3.35614
3.37381	3.37381	3.37381
3.39157	3.39157	3.39157
3.40942	3.40942	3.40942
3.42736	3.42736	3.42736
3.44539	3.44539	3.44539
3.46352	3.46352	3.46352
3.48175	3.48175	3.48175
3.50006	3.50006	3.50006
3.51848	3.51848	3.51848
3.53699	3.53699	3.53699
3.55559	3.55559	3.55559
3.57429	3.57429	3.57429
3.59309	3.59309	3.59309
3.61199	3.61199	3.61199
3.63098	3.63098	3.63098
3.65008	3.65008	3.65008
3.66927	3.66927	3.66927
3.68856	3.68856	3.68856
3.70796	3.70796	3.70796
3.72745	3.72745	3.72745
3.74704	3.74704	3.74704
3.76674	3.76674	3.76674
3.78654	3.78654	3.78654
3.80644	3.80644	3.80644
3.82645	3.82645	3.82645
3.84656	3.84656	3.84656
3.86677	3.86677	3.86677
3.88709	3.88709	3.88709
3.90751	3.90751	3.90751
3.92805	3.92805	3.92805
3.94868	3.94868	3.94868
3.96943	3.96943	3.96943
3.99028	3.99028	3.99028
4.01124	4.01124	4.01124
4.03231	4.03231	4.03231
4.05349	4.05349	4.05349
4.07478	4.07478	4.07478
4.09618	4.09618	4.09618
4.11769	4.11769	4.11769
4.13931	4.13931	4.13931
4.16105	4.16105	4.16105
4.18290	4.18290	4.18290
4.20486	4.20486	4.20486
4.22694	4.22694	4.22694
4.24913	4.24913	4.24913
4.27143	4.27143	4.27143
4.29386	4.29386	4.29386
4.31640	4.31640	4.31640
4.33905	4.33905	4.33905
4.36182	4.36182	4.36182
4.38472	4.38472	4.38472
4.40773	4.40773	4.40773
4.43086	4.43086	4.43086
4.45411	4.45411	4.45411
4.47748	4.47748	4.47748
4.50097	4.50097	4.50097
4.52459	4.52459	4.52459
4.54833	4.54833	4.54833
4.57219	4.57219	4.57219
4.59617	4.59617	4.59617
4.62028	4.62028	4.62028
4.64452	4.64452	4.64452
4.66888	4.66888	4.66888
4.69337	4.69337	4.69337
4.71798	4.71798	4.71798
4.74273	4.74273	4.74273
4.76760	4.76760	4.76760
4.79260	4.79260	4.79260
4.81773	4.81773	4.81773
4.84299	4.84299	4.84299
4.86838	4.86838	4.86838
4.89391	4.89391	4.89391
4.91957	4.91957	4.91957
4.94536	4.94536	4.94536
4.97128	4.97128	4.97128
4.99734	4.99734	4.99734
5.02354	5.02354	5.02354
5.04987	5.04987	5.04987
5.07634	5.07634	5.07634
5.10294	5.10294	5.10294
5.12968	5.12968	5.12968
5.15657	5.15657	5.15657
5.18359	5.18359	5.18359
5.21075	5.21075	5.21075
5.23806	5.23806	5.23806
5.26550	5.26550	5.26550
5.29309	5.29309	5.29309
5.32082	5.32082	5.32082
