Vibe/Lumetri/LUTs/Legacy/SMPTEToFull12.cube
TITLE SMPTE Range To Full Range 12 bits Extended Domain
# Copyright 2016, Adobe Systems Inc.
# Converts SMPTE range data to full range, with extended input domain
# Min = -256 / 3504
# Max = (4095 - 256) / 3504

LUT_1D_SIZE 2
DOMAIN_MIN 0.0 0.0 0.0
DOMAIN_MAX 1.0 1.0 1.0

-0.07306 -0.07306 -0.07306
1.09561 1.09561 1.09561