Vibe/Lumetri/LUTs/Legacy/SMPTEToFull8.cube
TITLE SMPTE Range To Full Range 8 bits Extended Domain
# Copyright 2016, Adobe Systems Inc.
# Converts SMPTE range data to full range, with extended input domain
# Min = -16 / 219
# Max = (255 - 16) / 219

LUT_1D_SIZE 2
DOMAIN_MIN 0.0 0.0 0.0
DOMAIN_MAX 1.0 1.0 1.0

-0.07306 -0.07306 -0.07306
1.09132 1.09132 1.09132
