Vibe/Lumetri/LUTs/Legacy/SMPTEToFull10.cube
TITLE SMPTE Range To Full Range 10 bits Extended Domain
# Copyright 2016, Adobe Systems Inc.
# Converts SMPTE range data to full range, with extended input domain
# Min = -64 / 876
# Max = (1023 - 64) / 876

LUT_1D_SIZE 2
DOMAIN_MIN 0.0 0.0 0.0
DOMAIN_MAX 1.0 1.0 1.0

-0.07306 -0.07306 -0.07306
1.09475 1.09475 1.09475